;FLAVOR:Marlin
;TIME:2777
;Filament used: 1.76341m
;Layer height: 0.2
;MINX:13.315
;MINY:13.315
;MINZ:0.2
;MAXX:221.685
;MAXY:221.684
;MAXZ:0.2
;Generated with Cura_SteamEngine 4.6.2
M140 S50
M105
M190 S50
M104 S200
M105
M109 S200
M82 ;absolute extrusion mode
; Ender 3 Custom Start G-code
G92 E0 ; Reset Extruder
G28 ; Home all axes
G1 Z2.0 F3000 ; Move Z Axis up little to prevent scratching of Heat Bed
G1 X0.1 Y20 Z0.3 F5000.0 ; Move to start position
G1 X0.1 Y200.0 Z0.3 F1500.0 E15 ; Draw the first line
G1 X0.4 Y200.0 Z0.3 F5000.0 ; Move to side a little
G1 X0.4 Y20 Z0.3 F1500.0 E30 ; Draw the second line
G92 E0 ; Reset Extruder
G1 Z2.0 F3000 ; Move Z Axis up little to prevent scratching of Heat Bed
G1 X5 Y20 Z0.3 F5000.0 ; Move over to prevent blob squish
G92 E0
G92 E0
G1 F2700 E-5
;LAYER_COUNT:1
;LAYER:0
M107
G0 F6000 X192.611 Y14.177 Z0.2
;TYPE:SKIRT
G1 F2700 E0
G1 F1200 X193.116 Y14.209 E0.01683
G1 X193.756 Y14.27 E0.03821
G1 X194.992 Y14.427 E0.07965
G1 X195.31 Y14.473 E0.09034
G1 X196.014 Y14.585 E0.11405
G1 X196.686 Y14.715 E0.13681
G1 X198.246 Y15.077 E0.19008
G1 X198.937 Y15.259 E0.21385
G1 X199.597 Y15.457 E0.23676
G1 X200.947 Y15.912 E0.28415
G1 X201.256 Y16.022 E0.29506
G1 X201.907 Y16.265 E0.31817
G1 X202.424 Y16.474 E0.33671
G1 X203.03 Y16.744 E0.35878
G1 X203.956 Y17.183 E0.39287
G1 X204.461 Y17.43 E0.41156
G1 X205.068 Y17.753 E0.43443
G1 X206.551 Y18.612 E0.49143
G1 X206.994 Y18.885 E0.50874
G1 X207.548 Y19.252 E0.53084
G1 X208.572 Y19.979 E0.57261
G1 X208.832 Y20.17 E0.58334
G1 X209.408 Y20.607 E0.60739
G1 X209.954 Y21.051 E0.6308
G1 X211.014 Y21.977 E0.67761
G1 X211.269 Y22.208 E0.68905
G1 X211.668 Y22.581 E0.70722
G1 X212.113 Y23.024 E0.72811
G1 X213.186 Y24.165 E0.7802
G1 X213.665 Y24.705 E0.80421
G1 X214.095 Y25.225 E0.82665
G1 X214.966 Y26.351 E0.874
G1 X215.226 Y26.704 E0.88858
G1 X215.496 Y27.08 E0.90398
G1 X215.867 Y27.633 E0.92613
G1 X216.64 Y28.873 E0.97473
G1 X216.806 Y29.15 E0.98547
G1 X217.07 Y29.605 E1.00296
G1 X217.376 Y30.173 E1.02442
G1 X217.996 Y31.421 E1.07077
G1 X218.178 Y31.808 E1.08499
G1 X218.38 Y32.253 E1.10125
G1 X218.619 Y32.825 E1.12187
G1 X219.268 Y34.556 E1.18335
G1 X219.429 Y35.029 E1.19997
G1 X219.621 Y35.66 E1.22191
G1 X220.068 Y37.332 E1.27947
G1 X220.193 Y37.856 E1.29739
G1 X220.335 Y38.561 E1.32131
G1 X220.617 Y40.299 E1.37987
G1 X220.683 Y40.79 E1.39635
G1 X220.749 Y41.436 E1.41795
G1 X220.846 Y42.857 E1.46532
G1 X220.865 Y43.262 E1.47881
G1 X220.882 Y43.749 E1.49501
G1 X220.884 Y44.401 E1.5167
G1 X220.848 Y45.643 E1.55803
G1 X220.834 Y45.944 E1.56805
G1 X220.791 Y46.677 E1.59247
G1 X220.723 Y47.401 E1.61666
G1 X220.538 Y48.817 E1.66415
G1 X220.49 Y49.144 E1.67514
G1 X220.407 Y49.651 E1.69223
G1 X220.285 Y50.275 E1.71338
G1 X220.004 Y51.505 E1.75534
G1 X219.925 Y51.825 E1.76631
G1 X219.582 Y53.127 E1.81109
G1 X218.998 Y55.208 E1.88298
G1 X218.39 Y57.636 E1.96623
G1 X217.834 Y60.151 E2.05189
G1 X217.358 Y62.639 E2.13615
G1 X216.959 Y65.12 E2.21973
G1 X216.623 Y67.646 E2.30448
G1 X216.358 Y70.177 E2.38912
G1 X216.166 Y72.704 E2.47341
G1 X216.046 Y75.235 E2.55769
G1 X215.995 Y78.341 E2.66101
G1 X215.995 Y156.668 E5.26617
G1 X216.032 Y159.273 E5.35283
G1 X216.141 Y161.839 E5.43825
G1 X216.319 Y164.346 E5.52184
G1 X216.567 Y166.855 E5.6057
G1 X216.895 Y169.418 E5.69164
G1 X217.286 Y171.903 E5.77531
G1 X217.747 Y174.386 E5.8593
G1 X218.281 Y176.867 E5.94371
G1 X218.9 Y179.393 E6.03021
G1 X219.324 Y180.965 E6.08437
G1 X219.832 Y182.792 E6.14744
G1 X220.066 Y183.736 E6.17979
G1 X220.196 Y184.286 E6.19858
G1 X220.333 Y184.964 E6.22159
G1 X220.571 Y186.4 E6.27
G1 X220.618 Y186.715 E6.28059
G1 X220.684 Y187.208 E6.29714
G1 X220.751 Y187.878 E6.31953
G1 X220.863 Y189.612 E6.37733
G1 X220.882 Y190.122 E6.3943
G1 X220.885 Y190.791 E6.41655
G1 X220.841 Y192.25 E6.4651
G1 X220.821 Y192.64 E6.47809
G1 X220.79 Y193.129 E6.49439
G1 X220.724 Y193.806 E6.51701
G1 X220.539 Y195.221 E6.56447
G1 X220.491 Y195.545 E6.57537
G1 X220.405 Y196.071 E6.59309
G1 X220.282 Y196.699 E6.61438
G1 X219.932 Y198.21 E6.66597
G1 X219.7 Y199.095 E6.6964
G1 X219.532 Y199.665 E6.71616
G1 X219.328 Y200.279 E6.73768
G1 X218.979 Y201.252 E6.77206
G1 X218.784 Y201.773 E6.79056
G1 X218.536 Y202.375 E6.81222
G1 X217.803 Y203.986 E6.87109
G1 X217.589 Y204.424 E6.8873
G1 X217.264 Y205.034 E6.91029
G1 X216.367 Y206.583 E6.96982
G1 X216.102 Y207.012 E6.98659
G1 X215.721 Y207.585 E7.00948
G1 X214.883 Y208.757 E7.0574
G1 X214.685 Y209.024 E7.06846
G1 X214.365 Y209.442 E7.08597
G1 X213.948 Y209.953 E7.1079
G1 X213.022 Y211.013 E7.15472
G1 X212.796 Y211.262 E7.1659
G1 X212.417 Y211.668 E7.18437
G1 X211.947 Y212.14 E7.20653
G1 X210.899 Y213.125 E7.25436
G1 X210.635 Y213.364 E7.26621
G1 X210.255 Y213.697 E7.28301
G1 X209.784 Y214.086 E7.30333
G1 X208.307 Y215.217 E7.36521
G1 X207.916 Y215.498 E7.38122
G1 X207.364 Y215.868 E7.40332
G1 X206.148 Y216.627 E7.451
G1 X205.855 Y216.803 E7.46237
G1 X205.397 Y217.068 E7.47997
G1 X204.844 Y217.365 E7.50084
G1 X203.746 Y217.913 E7.54166
G1 X203.45 Y218.055 E7.55258
G1 X202.771 Y218.367 E7.57743
G1 X202.153 Y218.627 E7.59973
G1 X200.817 Y219.135 E7.64727
G1 X200.442 Y219.267 E7.66049
G1 X199.965 Y219.429 E7.67725
G1 X199.372 Y219.611 E7.69788
G1 X198.171 Y219.939 E7.73929
G1 X197.881 Y220.013 E7.74924
G1 X197.182 Y220.182 E7.77316
G1 X196.483 Y220.326 E7.7969
G1 X195.275 Y220.53 E7.83765
G1 X194.949 Y220.579 E7.84861
G1 X194.205 Y220.68 E7.87358
G1 X193.55 Y220.748 E7.89549
G1 X191.721 Y220.865 E7.95644
G1 X191.274 Y220.881 E7.97132
G1 X190.622 Y220.884 E7.99301
G1 X188.777 Y220.82 E8.05441
G1 X188.274 Y220.788 E8.07117
G1 X187.598 Y220.723 E8.09376
G1 X186.185 Y220.538 E8.14116
G1 X185.866 Y220.491 E8.15188
G1 X185.339 Y220.405 E8.16964
G1 X184.675 Y220.274 E8.19215
G1 X183.284 Y219.951 E8.23965
G1 X182.975 Y219.874 E8.25024
G1 X182.149 Y219.653 E8.27868
G1 X179.53 Y218.917 E8.36916
G1 X177.059 Y218.299 E8.45388
G1 X174.576 Y217.751 E8.53845
G1 X172.084 Y217.273 E8.62284
G1 X169.573 Y216.867 E8.70745
G1 X167.062 Y216.533 E8.7917
G1 X164.531 Y216.268 E8.87634
G1 X162.004 Y216.076 E8.96063
G1 X159.472 Y215.956 E9.04494
G1 X156.355 Y215.904 E9.14863
G1 X78.639 Y215.904 E11.73347
G1 X76.033 Y215.941 E11.82015
G1 X73.465 Y216.05 E11.90564
G1 X70.963 Y216.227 E11.98907
G1 X68.451 Y216.476 E12.07303
G1 X65.888 Y216.804 E12.15897
G1 X63.403 Y217.195 E12.24264
G1 X60.92 Y217.656 E12.32663
G1 X58.439 Y218.19 E12.41104
G1 X55.946 Y218.801 E12.49641
G1 X54.807 Y219.114 E12.5357
G1 X51.254 Y220.069 E12.65807
G1 X50.733 Y220.193 E12.67588
G1 X50.034 Y220.333 E12.69959
G1 X48.287 Y220.617 E12.75846
G1 X47.81 Y220.681 E12.77447
G1 X47.164 Y220.747 E12.79606
G1 X45.889 Y220.836 E12.83857
G1 X45.555 Y220.854 E12.8497
G1 X44.85 Y220.88 E12.87316
G1 X44.192 Y220.883 E12.89505
G1 X42.963 Y220.849 E12.93594
G1 X42.625 Y220.834 E12.94719
G1 X41.902 Y220.79 E12.97129
G1 X41.243 Y220.728 E12.9933
G1 X40.009 Y220.572 E13.03467
G1 X39.68 Y220.525 E13.04572
G1 X38.966 Y220.411 E13.06977
G1 X38.268 Y220.275 E13.09342
G1 X36.876 Y219.952 E13.14095
G1 X36.559 Y219.873 E13.15182
G1 X36.048 Y219.737 E13.16941
G1 X35.443 Y219.556 E13.19041
G1 X33.739 Y218.975 E13.25029
G1 X33.249 Y218.792 E13.26769
G1 X32.653 Y218.548 E13.28911
G1 X31.034 Y217.812 E13.34826
G1 X30.551 Y217.576 E13.36614
G1 X29.968 Y217.267 E13.38808
G1 X28.398 Y216.356 E13.44846
G1 X27.982 Y216.098 E13.46474
G1 X27.427 Y215.728 E13.48692
G1 X26.235 Y214.876 E13.53565
G1 X25.968 Y214.679 E13.54669
G1 X25.555 Y214.363 E13.56399
G1 X25.04 Y213.942 E13.58611
G1 X23.984 Y213.019 E13.63276
G1 X23.733 Y212.792 E13.64401
G1 X23.321 Y212.407 E13.66277
G1 X22.881 Y211.97 E13.6834
G1 X21.903 Y210.934 E13.73078
G1 X21.623 Y210.623 E13.7447
G1 X21.311 Y210.268 E13.76042
G1 X20.912 Y209.784 E13.78128
G1 X19.999 Y208.601 E13.83098
G1 X19.766 Y208.285 E13.84404
G1 X19.5 Y207.914 E13.85923
G1 X19.155 Y207.4 E13.87982
G1 X18.367 Y206.142 E13.92919
G1 X18.151 Y205.779 E13.94324
G1 X17.935 Y205.406 E13.95757
G1 X17.619 Y204.816 E13.97983
G1 X16.837 Y203.224 E14.03883
G1 X16.621 Y202.75 E14.05615
G1 X16.361 Y202.125 E14.07867
G1 X15.848 Y200.767 E14.12695
G1 X15.733 Y200.447 E14.13826
G1 X15.567 Y199.959 E14.1554
G1 X15.375 Y199.328 E14.17734
G1 X15.005 Y197.955 E14.22464
G1 X14.93 Y197.657 E14.23486
G1 X14.808 Y197.143 E14.25243
G1 X14.675 Y196.487 E14.27469
G1 X14.469 Y195.268 E14.31581
G1 X14.419 Y194.941 E14.32681
G1 X14.319 Y194.205 E14.35152
G1 X14.251 Y193.549 E14.37345
G1 X14.133 Y191.719 E14.43444
G1 X14.117 Y191.271 E14.44935
G1 X14.115 Y190.618 E14.47107
G1 X14.159 Y189.164 E14.51945
G1 X14.18 Y188.756 E14.53304
G1 X14.211 Y188.276 E14.54904
G1 X14.271 Y187.65 E14.56996
G1 X14.426 Y186.428 E14.61093
G1 X14.472 Y186.108 E14.62168
G1 X14.589 Y185.373 E14.64643
G1 X14.718 Y184.705 E14.66906
G1 X15.125 Y182.975 E14.72817
G1 X15.387 Y182.002 E14.76169
G1 X15.619 Y181.229 E14.78853
G1 X15.732 Y180.875 E14.80089
G1 X16.427 Y178.459 E14.8845
G1 X17.065 Y175.979 E14.96968
G1 X17.633 Y173.482 E15.05485
G1 X18.12 Y171.02 E15.13832
G1 X18.549 Y168.48 E15.224
G1 X18.896 Y165.996 E15.30742
G1 X19.176 Y163.467 E15.39205
G1 X19.387 Y160.913 E15.47728
G1 X19.521 Y158.423 E15.56022
G1 X19.595 Y154.718 E15.68347
G1 X19.595 Y80.248 E18.16036
G1 X19.558 Y77.642 E18.24704
G1 X19.449 Y75.076 E18.33246
G1 X19.271 Y72.566 E18.41616
G1 X19.02 Y70.028 E18.50098
G1 X18.697 Y67.509 E18.58545
G1 X18.305 Y65.016 E18.66939
G1 X17.843 Y62.529 E18.75352
G1 X17.309 Y60.048 E18.83793
G1 X16.699 Y57.56 E18.92313
G1 X16.023 Y55.1 E19.00798
G1 X15.447 Y53.177 E19.07475
G1 X15.062 Y51.771 E19.12324
G1 X14.985 Y51.469 E19.1336
G1 X14.812 Y50.752 E19.15813
G1 X14.664 Y50.023 E19.18287
G1 X14.379 Y48.271 E19.24191
G1 X14.314 Y47.78 E19.25839
G1 X14.251 Y47.159 E19.27915
G1 X14.165 Y45.94 E19.31979
G1 X14.147 Y45.61 E19.33078
G1 X14.118 Y44.849 E19.35611
G1 X14.116 Y44.136 E19.37983
G1 X14.161 Y42.725 E19.42678
G1 X14.177 Y42.399 E19.43764
G1 X14.211 Y41.867 E19.45537
G1 X14.275 Y41.204 E19.47752
G1 X14.46 Y39.78 E19.52528
G1 X14.508 Y39.452 E19.53631
G1 X14.592 Y38.937 E19.55366
G1 X14.714 Y38.311 E19.57487
G1 X15.124 Y36.567 E19.63446
G1 X15.259 Y36.058 E19.65198
G1 X15.444 Y35.44 E19.67343
G1 X15.932 Y33.994 E19.72419
G1 X16.18 Y33.319 E19.74811
G1 X16.446 Y32.665 E19.77159
G1 X17.1 Y31.218 E19.82441
G1 X17.413 Y30.574 E19.84822
G1 X17.747 Y29.944 E19.87194
G1 X18.629 Y28.422 E19.93045
G1 X18.887 Y28.004 E19.94678
G1 X19.247 Y27.46 E19.96848
G1 X19.984 Y26.421 E20.01085
G1 X20.182 Y26.152 E20.02196
G1 X20.612 Y25.586 E20.0456
G1 X21.052 Y25.045 E20.06879
G1 X21.978 Y23.985 E20.11561
G1 X22.204 Y23.736 E20.12679
G1 X22.583 Y23.33 E20.14526
G1 X23.053 Y22.858 E20.16742
G1 X24.101 Y21.873 E20.21526
G1 X24.365 Y21.634 E20.2271
G1 X24.745 Y21.301 E20.2439
G1 X25.216 Y20.912 E20.26422
G1 X26.705 Y19.773 E20.32657
G1 X27.086 Y19.5 E20.34216
G1 X27.595 Y19.158 E20.36256
G1 X29.169 Y18.182 E20.42416
G1 X29.61 Y17.927 E20.4411
G1 X30.158 Y17.632 E20.4618
G1 X31.257 Y17.083 E20.50266
G1 X31.554 Y16.941 E20.51361
G1 X32.374 Y16.564 E20.54363
G1 X32.894 Y16.342 E20.56243
G1 X33.511 Y16.104 E20.58443
G1 X34.543 Y15.736 E20.62087
G1 X35.039 Y15.567 E20.6383
G1 X35.676 Y15.373 E20.66045
G1 X37.339 Y14.93 E20.71769
G1 X37.852 Y14.808 E20.73523
G1 X38.514 Y14.673 E20.7577
G1 X40.036 Y14.421 E20.80901
G1 X40.77 Y14.32 E20.83365
G1 X41.455 Y14.249 E20.85656
G1 X43.258 Y14.135 E20.91664
G1 X43.766 Y14.117 E20.93355
G1 X44.416 Y14.115 E20.95517
G1 X46.221 Y14.178 E21.01524
G1 X46.716 Y14.21 E21.03174
G1 X47.332 Y14.269 E21.05232
G1 X48.571 Y14.425 E21.09386
G1 X48.91 Y14.473 E21.10524
G1 X49.622 Y14.587 E21.12923
G1 X50.282 Y14.716 E21.15159
G1 X51.843 Y15.078 E21.20489
G1 X53.005 Y15.39 E21.24491
G1 X54.271 Y15.766 E21.28883
G1 X56.381 Y16.365 E21.36178
G1 X58.832 Y16.994 E21.44595
G1 X61.305 Y17.555 E21.53029
G1 X63.811 Y18.048 E21.61524
G1 X66.299 Y18.465 E21.69914
G1 X68.809 Y18.814 E21.78343
G1 X71.348 Y19.094 E21.86839
G1 X73.885 Y19.3 E21.95305
G1 X76.403 Y19.434 E22.03691
G1 X80.007 Y19.504 E22.15681
G1 X155.047 Y19.504 E24.65265
G1 X157.653 Y19.467 E24.73933
G1 X160.221 Y19.358 E24.82482
G1 X162.723 Y19.181 E24.90825
G1 X165.235 Y18.932 E24.9922
G1 X167.798 Y18.604 E25.07814
G1 X170.283 Y18.213 E25.16181
G1 X172.766 Y17.752 E25.24581
G1 X175.247 Y17.218 E25.33022
G1 X177.725 Y16.611 E25.41507
G1 X180.221 Y15.924 E25.50118
G1 X181.935 Y15.414 E25.56066
G1 X183.743 Y14.931 E25.6229
G1 X184.246 Y14.811 E25.6401
G1 X184.941 Y14.671 E25.66368
G1 X186.714 Y14.381 E25.72343
G1 X187.199 Y14.316 E25.73971
G1 X187.848 Y14.25 E25.7614
G1 X189.666 Y14.135 E25.82199
G1 X190.173 Y14.117 E25.83887
G1 X190.823 Y14.115 E25.86048
G1 X191.992 Y14.148 E25.89938
G1 X192.611 Y14.177 E25.91999
G0 F6000 X193.141 Y13.81
G1 F1200 X193.807 Y13.873 E25.94224
G1 X195.043 Y14.03 E25.98368
G1 X195.372 Y14.078 E25.99474
G1 X196.076 Y14.19 E26.01845
G1 X196.775 Y14.325 E26.04213
G1 X198.012 Y14.608 E26.08433
G1 X198.348 Y14.691 E26.09585
G1 X199.039 Y14.873 E26.11961
G1 X199.724 Y15.078 E26.14339
G1 X201.074 Y15.533 E26.19078
G1 X201.396 Y15.647 E26.20214
G1 X202.047 Y15.89 E26.22525
G1 X202.584 Y16.108 E26.24453
G1 X203.201 Y16.382 E26.26698
G1 X204.131 Y16.824 E26.30123
G1 X204.636 Y17.071 E26.31993
G1 X205.268 Y17.407 E26.34373
G1 X206.761 Y18.272 E26.40112
G1 X207.204 Y18.545 E26.41843
G1 X207.779 Y18.926 E26.44137
G1 X209.074 Y19.851 E26.4943
G1 X209.65 Y20.288 E26.51835
G1 X210.217 Y20.75 E26.54268
G1 X211.277 Y21.676 E26.58949
G1 X211.542 Y21.916 E26.60138
G1 X211.941 Y22.289 E26.61955
G1 X212.404 Y22.749 E26.64125
G1 X213.257 Y23.651 E26.68255
G1 X213.485 Y23.9 E26.69377
G1 X213.964 Y24.44 E26.71778
G1 X214.411 Y24.98 E26.7411
G1 X215.287 Y26.113 E26.78873
G1 X215.551 Y26.47 E26.8035
G1 X215.821 Y26.846 E26.8189
G1 X216.206 Y27.421 E26.84191
G1 X216.979 Y28.661 E26.89051
G1 X217.152 Y28.949 E26.90169
G1 X217.416 Y29.404 E26.91918
G1 X217.734 Y29.994 E26.94147
G1 X218.358 Y31.25 E26.98812
G1 X218.542 Y31.643 E27.00255
G1 X218.744 Y32.088 E27.01881
G1 X218.992 Y32.682 E27.04022
G1 X219.647 Y34.427 E27.10221
G1 X219.808 Y34.9 E27.11883
G1 X220.007 Y35.556 E27.14163
G1 X220.457 Y37.239 E27.19957
G1 X220.582 Y37.763 E27.21749
G1 X220.729 Y38.496 E27.24236
G1 X221.014 Y40.246 E27.30133
G1 X221.08 Y40.737 E27.3178
G1 X221.148 Y41.408 E27.34024
G1 X221.246 Y42.838 E27.38791
G1 X221.265 Y43.248 E27.40156
G1 X221.282 Y43.735 E27.41777
G1 X221.284 Y44.412 E27.44029
G1 X221.234 Y45.968 E27.49207
G1 X221.191 Y46.701 E27.51649
G1 X221.12 Y47.453 E27.54161
G1 X220.935 Y48.869 E27.58911
G1 X220.885 Y49.209 E27.60054
G1 X220.802 Y49.716 E27.61762
G1 X220.675 Y50.364 E27.63959
G1 X220.394 Y51.594 E27.68155
G1 X220.312 Y51.927 E27.69296
G1 X219.967 Y53.235 E27.73795
G1 X219.384 Y55.313 E27.80973
G1 X218.783 Y57.713 E27.89202
G1 X218.226 Y60.234 E27.97789
G1 X217.752 Y62.713 E28.06184
G1 X217.351 Y65.201 E28.14566
G1 X217.023 Y67.67 E28.2285
G1 X216.756 Y70.216 E28.31364
G1 X216.564 Y72.752 E28.39823
G1 X216.447 Y75.229 E28.48071
G1 X216.395 Y78.347 E28.58443
G1 X216.395 Y156.662 E31.1892
G1 X216.432 Y159.286 E31.27648
G1 X216.539 Y161.795 E31.36
G1 X216.717 Y164.311 E31.4439
G1 X216.967 Y166.835 E31.52826
G1 X217.288 Y169.343 E31.61235
G1 X217.675 Y171.805 E31.69524
G1 X218.144 Y174.327 E31.78056
G1 X218.676 Y176.801 E31.86473
G1 X219.281 Y179.27 E31.94928
G1 X219.709 Y180.857 E32.00395
G1 X220.22 Y182.695 E32.0674
G1 X220.456 Y183.644 E32.09993
G1 X220.586 Y184.194 E32.11872
G1 X220.727 Y184.899 E32.14264
G1 X221.014 Y186.661 E32.20201
G1 X221.08 Y187.154 E32.21856
G1 X221.15 Y187.851 E32.24185
G1 X221.263 Y189.597 E32.30005
G1 X221.282 Y190.107 E32.31702
G1 X221.285 Y190.802 E32.34014
G1 X221.241 Y192.27 E32.38899
G1 X221.22 Y192.666 E32.40218
G1 X221.189 Y193.155 E32.41847
G1 X221.121 Y193.858 E32.44196
G1 X220.936 Y195.273 E32.48943
G1 X220.886 Y195.609 E32.50073
G1 X220.8 Y196.135 E32.51845
G1 X220.672 Y196.788 E32.54059
G1 X220.319 Y198.311 E32.59258
G1 X220.087 Y199.196 E32.62301
G1 X219.913 Y199.788 E32.64354
G1 X219.705 Y200.413 E32.66544
G1 X219.353 Y201.393 E32.70008
G1 X219.158 Y201.914 E32.71858
