;FLAVOR:Marlin
;TIME:11897
;Filament used: 9.2595m
;Layer height: 0.2
;MINX:25.307
;MINY:28.175
;MINZ:0.2
;MAXX:209.694
;MAXY:206.822
;MAXZ:15.2
;Generated with Cura_SteamEngine 4.6.2
M140 S50
M105
M190 S50
M104 S200
M105
M109 S200
M82 ;absolute extrusion mode
; Ender 3 Custom Start G-code
G92 E0 ; Reset Extruder
G28 ; Home all axes
G1 Z2.0 F3000 ; Move Z Axis up little to prevent scratching of Heat Bed
G1 X0.1 Y20 Z0.3 F5000.0 ; Move to start position
G1 X0.1 Y200.0 Z0.3 F1500.0 E15 ; Draw the first line
G1 X0.4 Y200.0 Z0.3 F5000.0 ; Move to side a little
G1 X0.4 Y20 Z0.3 F1500.0 E30 ; Draw the second line
G92 E0 ; Reset Extruder
G1 Z2.0 F3000 ; Move Z Axis up little to prevent scratching of Heat Bed
G1 X5 Y20 Z0.3 F5000.0 ; Move over to prevent blob squish
G92 E0
G92 E0
G1 F2700 E-5
;LAYER_COUNT:76
;LAYER:0
M107
G0 F6000 X171.443 Y28.986 Z0.2
;TYPE:SKIRT
G1 F2700 E0
G1 F1200 X172.345 Y29.039 E0.03005
G1 X173.238 Y29.171 E0.06008
G1 X174.116 Y29.382 E0.09011
G1 X174.972 Y29.67 E0.12015
G1 X175.799 Y30.032 E0.15018
G1 X176.591 Y30.467 E0.18023
G1 X177.342 Y30.969 E0.21027
G1 X178.045 Y31.536 E0.24031
G1 X178.695 Y32.163 E0.27035
G1 X179.491 Y33.111 E0.31152
G1 X181.163 Y35.366 E0.40489
G1 X182.754 Y37.392 E0.49057
G1 X184.37 Y39.333 E0.57457
G1 X186.058 Y41.247 E0.65945
G1 X187.777 Y43.091 E0.7433
G1 X189.556 Y44.891 E0.82748
G1 X191.409 Y46.665 E0.9128
G1 X193.289 Y48.365 E0.9971
G1 X195.222 Y50.017 E1.08167
G1 X197.208 Y51.619 E1.16654
G1 X199.195 Y53.13 E1.24957
G1 X201.285 Y54.627 E1.33507
G1 X203.44 Y56.083 E1.42157
G1 X204.267 Y56.625 E1.45446
G1 X204.999 Y57.153 E1.48448
G1 X205.683 Y57.743 E1.51452
G1 X206.311 Y58.392 E1.54456
G1 X206.879 Y59.094 E1.57459
G1 X207.383 Y59.843 E1.60462
G1 X207.819 Y60.634 E1.63466
G1 X208.183 Y61.461 E1.66471
G1 X208.473 Y62.316 E1.69474
G1 X208.686 Y63.194 E1.72479
G1 X208.82 Y64.087 E1.75483
G1 X208.861 Y64.6 E1.77194
G1 X208.879 Y64.93 E1.78294
G1 X208.894 Y65.486 E1.80143
G1 X208.894 Y163.393 E5.05783
G1 X208.884 Y164.196 E5.08454
G1 X208.858 Y164.803 E5.10475
G1 X208.728 Y166.535 E5.16252
G1 X208.663 Y167.202 E5.18481
G1 X208.504 Y168.259 E5.22036
G1 X208.444 Y168.552 E5.23031
G1 X208.332 Y169.037 E5.24686
G1 X208.018 Y170.259 E5.28883
G1 X207.843 Y170.91 E5.31125
G1 X207.57 Y171.771 E5.34129
G1 X207.402 Y172.201 E5.35665
G1 X207.078 Y172.968 E5.38434
G1 X206.701 Y173.819 E5.4153
G1 X206.407 Y174.461 E5.43878
G1 X205.995 Y175.265 E5.46883
G1 X205.738 Y175.69 E5.48535
G1 X205.33 Y176.329 E5.51057
G1 X204.779 Y177.162 E5.54378
G1 X204.418 Y177.693 E5.56514
G1 X204.095 Y178.142 E5.58354
G1 X203.55 Y178.854 E5.61336
G1 X194.156 Y190.791 E6.11858
G1 X193.72 Y191.329 E6.14162
G1 X193.121 Y192.005 E6.17166
G1 X192.553 Y192.548 E6.19779
G1 X191.904 Y193.12 E6.22657
G1 X189.95 Y194.784 E6.31193
G1 X189.468 Y195.185 E6.33278
G1 X188.959 Y195.583 E6.35427
G1 X188.005 Y196.277 E6.39351
G1 X186.385 Y197.416 E6.45938
G1 X185.801 Y197.815 E6.4829
G1 X185.341 Y198.111 E6.50109
G1 X185.094 Y198.261 E6.51071
G1 X184.809 Y198.428 E6.52169
G1 X182.288 Y199.848 E6.61793
G1 X181.662 Y200.189 E6.64164
G1 X181.147 Y200.451 E6.66086
G1 X180.397 Y200.793 E6.68827
G1 X177.856 Y201.892 E6.78035
G1 X177.218 Y202.158 E6.80334
G1 X176.691 Y202.36 E6.82211
G1 X176.106 Y202.562 E6.8427
G1 X173.221 Y203.48 E6.94339
G1 X172.693 Y203.64 E6.96174
G1 X172.089 Y203.803 E6.98255
G1 X170.835 Y204.098 E7.0254
G1 X168.378 Y204.628 E7.109
G1 X167.682 Y204.77 E7.13262
G1 X167.094 Y204.872 E7.15247
G1 X166.296 Y204.986 E7.17929
G1 X164.106 Y205.273 E7.25275
G1 X163.628 Y205.329 E7.26875
G1 X163.289 Y205.363 E7.28009
G1 X161.905 Y205.476 E7.32627
G1 X159.911 Y205.603 E7.39273
G1 X159.366 Y205.63 E7.41088
G1 X159.056 Y205.64 E7.42119
G1 X157.95 Y205.66 E7.45798
G1 X65.361 Y205.937 E10.53752
G1 X62.871 Y205.944 E10.62034
G1 X61.578 Y205.929 E10.66335
G1 X59.85 Y205.886 E10.72084
G1 X56.619 Y205.907 E10.8283
G1 X53.721 Y205.973 E10.92472
G1 X36.902 Y206.022 E11.48412
G1 X36.199 Y206.014 E11.5075
G1 X35.297 Y205.964 E11.53755
G1 X34.403 Y205.834 E11.5676
G1 X33.525 Y205.626 E11.59761
G1 X32.668 Y205.341 E11.62765
G1 X31.84 Y204.981 E11.65768
G1 X31.046 Y204.549 E11.68774
G1 X30.295 Y204.049 E11.71775
G1 X29.59 Y203.484 E11.7478
G1 X28.938 Y202.859 E11.77784
G1 X28.344 Y202.179 E11.80787
G1 X27.812 Y201.449 E11.83791
G1 X27.347 Y200.675 E11.86794
G1 X26.952 Y199.862 E11.89801
G1 X26.631 Y199.018 E11.92804
G1 X26.386 Y198.149 E11.95807
G1 X26.218 Y197.262 E11.9881
G1 X26.12 Y196.137 E12.02566
G1 X26.112 Y195.884 E12.03408
G1 X26.107 Y195.563 E12.04475
G1 X26.107 Y185.696 E12.37293
G1 X26.117 Y185.015 E12.39558
G1 X26.153 Y184.298 E12.41946
G1 X26.393 Y181.485 E12.51336
G1 X26.536 Y178.94 E12.59814
G1 X26.607 Y176.406 E12.68246
G1 X26.607 Y173.87 E12.7668
G1 X26.534 Y171.307 E12.85208
G1 X26.391 Y168.812 E12.9352
G1 X26.155 Y166.05 E13.0274
G1 X26.119 Y165.334 E13.05125
G1 X26.107 Y164.254 E13.08717
G1 X26.117 Y163.462 E13.11352
G1 X26.168 Y162.561 E13.14353
G1 X26.299 Y161.667 E13.17358
G1 X26.509 Y160.789 E13.20361
G1 X26.795 Y159.932 E13.23366
G1 X27.156 Y159.104 E13.2637
G1 X27.589 Y158.312 E13.29372
G1 X28.09 Y157.56 E13.32378
G1 X28.655 Y156.856 E13.3538
G1 X29.281 Y156.205 E13.38384
G1 X29.962 Y155.612 E13.41387
G1 X30.693 Y155.081 E13.44392
G1 X31.468 Y154.617 E13.47397
G1 X32.28 Y154.223 E13.50399
G1 X33.125 Y153.903 E13.53404
G1 X33.994 Y153.659 E13.56406
G1 X34.839 Y153.498 E13.59267
G1 X35.387 Y153.42 E13.61108
G1 X37.219 Y153.185 E13.67251
G1 X39.735 Y152.789 E13.75722
G1 X42.248 Y152.319 E13.84226
G1 X44.722 Y151.785 E13.92644
G1 X47.139 Y151.191 E14.00922
G1 X49.642 Y150.502 E14.09557
G1 X52.048 Y149.763 E14.17928
G1 X54.468 Y148.946 E14.26423
G1 X56.847 Y148.066 E14.3486
G1 X59.214 Y147.114 E14.43345
G1 X61.531 Y146.105 E14.51751
G1 X63.811 Y145.034 E14.60129
G1 X66.127 Y143.865 E14.68758
G1 X68.335 Y142.673 E14.77103
G1 X70.507 Y141.419 E14.85445
G1 X72.716 Y140.057 E14.94077
G1 X74.815 Y138.681 E15.02424
G1 X76.908 Y137.222 E15.1091
G1 X78.937 Y135.721 E15.19304
G1 X80.922 Y134.164 E15.27695
G1 X82.909 Y132.511 E15.36292
G1 X84.801 Y130.846 E15.44674
G1 X86.661 Y129.115 E15.53125
G1 X88.47 Y127.33 E15.61578
G1 X90.219 Y125.504 E15.69988
G1 X91.934 Y123.611 E15.78484
G1 X93.603 Y121.659 E15.87026
G1 X95.179 Y119.707 E15.9537
G1 X96.711 Y117.695 E16.03781
G1 X98.186 Y115.641 E16.12192
G1 X99.637 Y113.495 E16.20808
G1 X100.986 Y111.373 E16.29171
G1 X102.272 Y109.215 E16.37526
G1 X103.521 Y106.98 E16.46042
G1 X104.699 Y104.724 E16.54507
G1 X105.816 Y102.431 E16.6299
G1 X106.85 Y100.143 E16.71341
G1 X107.844 Y97.768 E16.79904
G1 X108.755 Y95.411 E16.88309
G1 X109.602 Y93.007 E16.96786
G1 X110.373 Y90.613 E17.05152
G1 X111.093 Y88.14 E17.13718
G1 X111.731 Y85.688 E17.22145
G1 X112.294 Y83.253 E17.30458
G1 X112.804 Y80.721 E17.39048
G1 X113.233 Y78.215 E17.47505
G1 X113.588 Y75.728 E17.5586
G1 X113.873 Y73.224 E17.64242
G1 X114.093 Y70.654 E17.72821
G1 X114.236 Y68.158 E17.81137
G1 X114.309 Y65.59 E17.89681
G1 X114.311 Y63.055 E17.98113
G1 X114.24 Y60.525 E18.06531
G1 X114.097 Y57.982 E18.15002
G1 X113.882 Y55.434 E18.23507
G1 X113.601 Y52.95 E18.31822
G1 X113.236 Y50.386 E18.40436
G1 X112.816 Y47.923 E18.48746
G1 X112.321 Y45.45 E18.57134
G1 X111.736 Y42.904 E18.65823
G1 X111.371 Y41.438 E18.70848
G1 X111.211 Y40.55 E18.73849
G1 X111.13 Y39.65 E18.76854
G1 X111.128 Y38.747 E18.79858
G1 X111.207 Y37.847 E18.82863
G1 X111.365 Y36.958 E18.85866
G1 X111.601 Y36.087 E18.88867
G1 X111.914 Y35.239 E18.91874
G1 X112.3 Y34.423 E18.94876
G1 X112.756 Y33.644 E18.97878
G1 X113.28 Y32.908 E19.00883
G1 X113.867 Y32.221 E19.03889
G1 X114.512 Y31.59 E19.0689
G1 X115.211 Y31.017 E19.09896
G1 X115.957 Y30.509 E19.12898
G1 X116.746 Y30.069 E19.15903
G1 X117.57 Y29.7 E19.18905
G1 X118.424 Y29.405 E19.21911
G1 X119.3 Y29.188 E19.24912
G1 X120.193 Y29.048 E19.27919
G1 X121.166 Y28.987 E19.31161
G1 X122.05 Y28.975 E19.34102
G1 X170.745 Y28.976 E20.96062
G1 X171.443 Y28.986 E20.98384
G0 F6000 X171.449 Y28.586
G1 F1200 X172.368 Y28.639 E21.01445
G1 X173.279 Y28.772 E21.04507
G1 X174.175 Y28.983 E21.07569
G1 X175.049 Y29.271 E21.1063
G1 X175.896 Y29.634 E21.13695
G1 X176.707 Y30.069 E21.16756
G1 X177.477 Y30.573 E21.19817
G1 X178.201 Y31.142 E21.22879
G1 X178.873 Y31.772 E21.25943
G1 X179.488 Y32.457 E21.29005
G1 X179.812 Y32.872 E21.30756
G1 X181.496 Y35.143 E21.40159
G1 X183.057 Y37.13 E21.48564
G1 X184.679 Y39.079 E21.56997
G1 X186.35 Y40.974 E21.654
G1 X188.072 Y42.821 E21.73799
G1 X189.834 Y44.604 E21.82137
G1 X191.689 Y46.38 E21.90678
G1 X193.533 Y48.048 E21.98948
G1 X195.488 Y49.718 E22.075
G1 X197.434 Y51.287 E22.15814
G1 X199.448 Y52.819 E22.24231
G1 X201.536 Y54.316 E22.32776
G1 X203.594 Y55.706 E22.41036
G1 X204.486 Y56.29 E22.44582
G1 X205.233 Y56.828 E22.47644
G1 X205.931 Y57.428 E22.50705
G1 X206.575 Y58.087 E22.5377
G1 X207.158 Y58.799 E22.5683
G1 X207.678 Y59.559 E22.59893
G1 X208.13 Y60.361 E22.62955
G1 X208.51 Y61.199 E22.66016
G1 X208.816 Y62.068 E22.6908
G1 X209.046 Y62.959 E22.7214
G1 X209.197 Y63.867 E22.75202
G1 X209.26 Y64.579 E22.77579
G1 X209.278 Y64.909 E22.78679
G1 X209.294 Y65.486 E22.80598
G1 X209.294 Y163.393 E26.06238
G1 X209.284 Y164.201 E26.08926
G1 X209.257 Y164.832 E26.11027
G1 X209.126 Y166.574 E26.16837
G1 X209.061 Y167.241 E26.19066
G1 X208.896 Y168.34 E26.22762
G1 X208.836 Y168.633 E26.23757
G1 X208.72 Y169.136 E26.25474
G1 X208.405 Y170.363 E26.29687
G1 X208.23 Y171.014 E26.31929
G1 X207.952 Y171.892 E26.34992
G1 X207.771 Y172.356 E26.36649
G1 X207.444 Y173.13 E26.39444
G1 X207.065 Y173.985 E26.42554
G1 X206.771 Y174.627 E26.44903
G1 X206.351 Y175.447 E26.47967
G1 X206.076 Y175.905 E26.49744
G1 X205.664 Y176.549 E26.52287
G1 X205.11 Y177.387 E26.55628
G1 X204.749 Y177.918 E26.57763
G1 X204.413 Y178.384 E26.59674
G1 X203.864 Y179.102 E26.6268
G1 X194.467 Y191.043 E27.1322
G1 X194.031 Y191.581 E27.15523
G1 X193.421 Y192.27 E27.18583
G1 X192.818 Y192.848 E27.21362
G1 X192.163 Y193.424 E27.24263
G1 X190.206 Y195.092 E27.32815
G1 X189.724 Y195.493 E27.34901
G1 X189.195 Y195.906 E27.37133
G1 X188.236 Y196.604 E27.41078
G1 X186.611 Y197.746 E27.47684
G1 X186.027 Y198.145 E27.50036
G1 X185.549 Y198.453 E27.51927
G1 X185.006 Y198.777 E27.54031
G1 X182.48 Y200.2 E27.63673
G1 X181.854 Y200.541 E27.66044
G1 X181.319 Y200.813 E27.68041
G1 X180.556 Y201.16 E27.70829
G1 X178.01 Y202.261 E27.80054
G1 X177.372 Y202.527 E27.82353
G1 X176.825 Y202.737 E27.84302
G1 X176.542 Y202.837 E27.85301
G1 X176.227 Y202.943 E27.86406
G1 X173.337 Y203.862 E27.96492
G1 X172.809 Y204.022 E27.98327
G1 X172.181 Y204.192 E28.00491
G1 X170.92 Y204.489 E28.048
G1 X168.458 Y205.02 E28.13177
G1 X167.762 Y205.162 E28.1554
G1 X167.151 Y205.268 E28.17602
G1 X166.348 Y205.383 E28.203
G1 X164.152 Y205.67 E28.27666
G1 X163.674 Y205.726 E28.29267
G1 X163.323 Y205.761 E28.3044
G1 X161.93 Y205.875 E28.35089
G1 X159.93 Y206.002 E28.41754
G1 X159.064 Y206.04 E28.44637
G1 X157.951 Y206.06 E28.4834
G1 X65.362 Y206.337 E31.56294
G1 X62.867 Y206.344 E31.64592
G1 X61.568 Y206.329 E31.68913
G1 X59.842 Y206.286 E31.74655
G1 X56.631 Y206.307 E31.85335
G1 X53.722 Y206.373 E31.95013
G1 X36.897 Y206.422 E32.50974
G1 X36.194 Y206.414 E32.53312
G1 X35.275 Y206.364 E32.56373
G1 X34.364 Y206.234 E32.59434
G1 X33.467 Y206.025 E32.62497
G1 X32.592 Y205.74 E32.65558
G1 X31.745 Y205.379 E32.6862
G1 X30.932 Y204.946 E32.71684
G1 X30.16 Y204.445 E32.74745
G1 X29.434 Y203.878 E32.77809
G1 X28.761 Y203.251 E32.80868
G1 X28.144 Y202.567 E32.83932
G1 X27.589 Y201.833 E32.86992
G1 X27.1 Y201.053 E32.90054
G1 X26.68 Y200.233 E32.93119
G1 X26.333 Y199.381 E32.96178
G1 X26.061 Y198.501 E32.99242
G1 X25.867 Y197.601 E33.02304
G1 X25.751 Y196.688 E33.05365
G1 X25.72 Y196.15 E33.07157
G1 X25.712 Y195.897 E33.07999
G1 X25.707 Y195.563 E33.0911
G1 X25.707 Y185.69 E33.41948
G1 X25.717 Y185.009 E33.44213
G1 X25.754 Y184.264 E33.46694
G1 X25.996 Y181.43 E33.56155
G1 X26.136 Y178.941 E33.64446
G1 X26.207 Y176.395 E33.72917
G1 X26.207 Y173.882 E33.81276
G1 X26.134 Y171.339 E33.89737
G1 X25.989 Y168.802 E33.98189
G1 X25.757 Y166.085 E34.07259
G1 X25.719 Y165.34 E34.0974
G1 X25.707 Y164.249 E34.13369
G1 X25.717 Y163.457 E34.16003
G1 X25.768 Y162.538 E34.19064
G1 X25.9 Y161.627 E34.22126
G1 X26.109 Y160.73 E34.25189
G1 X26.396 Y159.855 E34.28252
G1 X26.758 Y159.009 E34.31313
G1 X27.191 Y158.197 E34.34374
G1 X27.694 Y157.425 E34.37438
G1 X28.261 Y156.7 E34.40499
G1 X28.89 Y156.027 E34.43563
G1 X29.574 Y155.411 E34.46625
G1 X30.309 Y154.857 E34.49686
G1 X31.09 Y154.369 E34.52749
G1 X31.91 Y153.95 E34.55812
G1 X32.763 Y153.604 E34.58873
G1 X33.643 Y153.334 E34.61935
G1 X34.781 Y153.103 E34.65797
G1 X35.336 Y153.023 E34.67662
G1 X37.177 Y152.787 E34.73836
G1 X39.671 Y152.394 E34.82233
G1 X42.163 Y151.929 E34.90664
G1 X44.606 Y151.401 E34.98978
G1 X47.075 Y150.794 E35.07434
G1 X49.533 Y150.117 E35.15914
G1 X51.94 Y149.378 E35.24288
G1 X54.318 Y148.575 E35.32636
G1 X56.696 Y147.696 E35.41069
G1 X59.055 Y146.747 E35.49526
G1 X61.367 Y145.74 E35.57913
G1 X63.64 Y144.672 E35.66266
G1 X65.936 Y143.514 E35.74819
G1 X68.151 Y142.318 E35.83192
G1 X70.303 Y141.075 E35.91457
G1 X72.483 Y139.732 E35.99973
G1 X74.596 Y138.346 E36.08378
G1 X76.664 Y136.905 E36.16762
G1 X78.698 Y135.4 E36.25177
G1 X80.704 Y133.826 E36.33658
G1 X82.635 Y132.22 E36.42012
G1 X84.53 Y130.552 E36.50408
G1 X86.372 Y128.838 E36.58777
G1 X88.2 Y127.033 E36.67321
G1 X89.935 Y125.224 E36.75658
G1 X91.617 Y123.366 E36.83994
G1 X93.29 Y121.411 E36.92552
G1 X94.865 Y119.458 E37.00897
G1 X96.396 Y117.448 E37.09301
G1 X97.863 Y115.406 E37.17663
G1 X99.285 Y113.303 E37.26107
G1 X100.647 Y111.159 E37.34555
G1 X101.937 Y108.993 E37.4294
G1 X103.176 Y106.778 E37.51381
G1 X104.329 Y104.571 E37.59663
G1 X105.449 Y102.27 E37.68175
G1 X106.487 Y99.972 E37.76562
G1 X107.479 Y97.605 E37.85098
G1 X108.381 Y95.271 E37.9342
G1 X109.22 Y92.889 E38.0182
G1 X109.991 Y90.494 E38.10188
G1 X110.701 Y88.057 E38.18631
G1 X111.34 Y85.603 E38.27065
G1 X111.905 Y83.155 E38.35421
G1 X112.413 Y80.64 E38.43955
G1 X112.836 Y78.168 E38.52296
G1 X113.189 Y75.693 E38.60611
G1 X113.479 Y73.146 E38.69138
G1 X113.691 Y70.666 E38.77416
G1 X113.836 Y68.126 E38.85878
G1 X113.909 Y65.578 E38.94356
G1 X113.911 Y63.066 E39.02711
G1 X113.84 Y60.522 E39.11176
G1 X113.698 Y58.004 E39.19564
G1 X113.488 Y55.511 E39.27885
G1 X113.202 Y52.985 E39.3634
G1 X112.845 Y50.474 E39.44776
G1 X112.416 Y47.964 E39.53245
G1 X111.933 Y45.547 E39.61443
G1 X111.346 Y42.995 E39.70153
G1 X110.981 Y41.527 E39.75184
G1 X110.817 Y40.621 E39.78246
G1 X110.732 Y39.704 E39.81309
G1 X110.727 Y38.783 E39.84373
G1 X110.802 Y37.866 E39.87433
G1 X110.956 Y36.958 E39.90496
G1 X111.188 Y36.067 E39.93558
G1 X111.497 Y35.2 E39.9662
G1 X111.88 Y34.363 E39.99681
G1 X112.334 Y33.562 E40.02743
G1 X112.856 Y32.804 E40.05804
G1 X113.442 Y32.093 E40.08869
G1 X114.087 Y31.436 E40.11931
G1 X114.787 Y30.838 E40.14993
G1 X115.536 Y30.303 E40.18055
G1 X116.328 Y29.834 E40.21116
G1 X117.158 Y29.437 E40.24176
G1 X118.02 Y29.112 E40.2724
G1 X118.907 Y28.864 E40.30304
G1 X119.811 Y28.694 E40.33363
G1 X121.16 Y28.587 E40.37864
G1 X122.05 Y28.575 E40.40824
G1 X170.751 Y28.576 E42.02805
G1 X171.449 Y28.586 E42.05126
G0 F6000 X171.455 Y28.186
G1 F1200 X172.391 Y28.24 E42.08245
G1 X173.319 Y28.372 E42.11362
G1 X174.233 Y28.584 E42.14483
G1 X175.125 Y28.873 E42.17602
G1 X175.99 Y29.236 E42.20722
G1 X176.82 Y29.672 E42.2384
G1 X177.611 Y30.177 E42.26961
G1 X178.355 Y30.748 E42.30081
G1 X179.048 Y31.38 E42.332
G1 X179.685 Y32.068 E42.36319
G1 X180.134 Y32.634 E42.38722
G1 X181.816 Y34.903 E42.48116
G1 X183.381 Y36.894 E42.56539
G1 X184.97 Y38.804 E42.64802
G1 X186.642 Y40.7 E42.7321
G1 X188.367 Y42.549 E42.81621
G1 X190.112 Y44.317 E42.89883
G1 X191.952 Y46.077 E42.98352
G1 X193.816 Y47.763 E43.06711
G1 X195.732 Y49.4 E43.15093
G1 X197.687 Y50.977 E43.23447
G1 X199.694 Y52.504 E43.31835
G1 X201.747 Y53.975 E43.40235
G1 X203.882 Y55.417 E43.48804
G1 X204.705 Y55.956 E43.52076
G1 X205.467 Y56.503 E43.55196
G1 X206.18 Y57.113 E43.58317
G1 X206.837 Y57.781 E43.61433
G1 X207.436 Y58.503 E43.64554
