;FLAVOR:Marlin
;TIME:18910
;Filament used: 15.0172m
;Layer height: 0.2
;MINX:12.316
;MINY:41.73
;MINZ:0.2
;MAXX:222.684
;MAXY:193.272
;MAXZ:15.2
;Generated with Cura_SteamEngine 4.6.2
M140 S50
M105
M190 S50
M104 S200
M105
M109 S200
M82 ;absolute extrusion mode
; Ender 3 Custom Start G-code
G92 E0 ; Reset Extruder
G28 ; Home all axes
G1 Z2.0 F3000 ; Move Z Axis up little to prevent scratching of Heat Bed
G1 X0.1 Y20 Z0.3 F5000.0 ; Move to start position
G1 X0.1 Y200.0 Z0.3 F1500.0 E15 ; Draw the first line
G1 X0.4 Y200.0 Z0.3 F5000.0 ; Move to side a little
G1 X0.4 Y20 Z0.3 F1500.0 E30 ; Draw the second line
G92 E0 ; Reset Extruder
G1 Z2.0 F3000 ; Move Z Axis up little to prevent scratching of Heat Bed
G1 X5 Y20 Z0.3 F5000.0 ; Move over to prevent blob squish
G92 E0
G92 E0
G1 F2700 E-5
;LAYER_COUNT:76
;LAYER:0
M107
G0 F6000 X49.145 Y189.285 Z0.2
;TYPE:SKIRT
G1 F2700 E0
G1 F1200 X48.244 Y189.231 E0.03002
G1 X47.35 Y189.097 E0.06009
G1 X46.473 Y188.885 E0.0901
G1 X45.617 Y188.596 E0.12015
G1 X44.79 Y188.232 E0.1502
G1 X43.999 Y187.797 E0.18022
G1 X43.249 Y187.293 E0.21028
G1 X42.547 Y186.725 E0.24031
G1 X41.898 Y186.097 E0.27035
G1 X41.307 Y185.415 E0.30037
G1 X40.778 Y184.682 E0.33043
G1 X40.317 Y183.906 E0.36045
G1 X39.926 Y183.092 E0.39049
G1 X39.608 Y182.247 E0.42052
G1 X39.366 Y181.376 E0.45058
G1 X39.203 Y180.488 E0.48061
G1 X39.11 Y179.363 E0.51816
G1 X39.097 Y178.755 E0.53838
G1 X39.097 Y164.583 E1.00975
G1 X39.06 Y161.977 E1.09643
G1 X38.951 Y159.409 E1.18192
G1 X38.774 Y156.907 E1.26534
G1 X38.525 Y154.394 E1.34934
G1 X38.197 Y151.831 E1.43528
G1 X37.806 Y149.346 E1.51895
G1 X37.346 Y146.87 E1.60271
G1 X36.801 Y144.336 E1.68892
G1 X36.207 Y141.918 E1.77173
G1 X35.527 Y139.442 E1.85713
G1 X34.793 Y137.045 E1.94051
G1 X33.968 Y134.6 E2.02633
G1 X33.095 Y132.232 E2.11028
G1 X32.155 Y129.891 E2.19418
G1 X31.128 Y127.532 E2.27975
G1 X30.06 Y125.253 E2.36347
G1 X28.899 Y122.946 E2.44937
G1 X27.714 Y120.754 E2.53224
G1 X26.443 Y118.55 E2.61686
G1 X25.095 Y116.359 E2.70242
G1 X23.723 Y114.264 E2.78572
G1 X22.256 Y112.157 E2.87111
G1 X20.759 Y110.131 E2.95489
G1 X19.194 Y108.134 E3.03928
G1 X17.565 Y106.172 E3.1241
G1 X16.593 Y105.068 E3.17302
G1 X15.638 Y103.972 E3.22137
G1 X15.075 Y103.266 E3.2514
G1 X14.577 Y102.513 E3.28143
G1 X14.148 Y101.718 E3.31148
G1 X13.791 Y100.889 E3.3415
G1 X13.508 Y100.031 E3.37155
G1 X13.302 Y99.152 E3.40157
G1 X13.175 Y98.258 E3.43161
G1 X13.128 Y97.421 E3.45949
G1 X13.116 Y96.528 E3.48919
G1 X13.117 Y53.282 E4.92756
G1 X13.127 Y52.593 E4.95048
G1 X13.18 Y51.691 E4.98053
G1 X13.313 Y50.798 E5.01056
G1 X13.524 Y49.92 E5.0406
G1 X13.812 Y49.064 E5.07063
G1 X14.174 Y48.237 E5.10066
G1 X14.609 Y47.445 E5.13071
G1 X15.111 Y46.695 E5.16073
G1 X15.678 Y45.992 E5.19077
G1 X16.305 Y45.342 E5.22081
G1 X16.987 Y44.75 E5.25085
G1 X17.719 Y44.22 E5.2809
G1 X18.495 Y43.758 E5.31094
G1 X19.308 Y43.366 E5.34096
G1 X20.153 Y43.047 E5.371
G1 X21.023 Y42.804 E5.40105
G1 X21.911 Y42.64 E5.43108
G1 X23.039 Y42.545 E5.46873
G1 X23.646 Y42.532 E5.48892
G1 X32.21 Y42.533 E5.77376
G1 X32.916 Y42.543 E5.79725
G1 X33.493 Y42.568 E5.81646
G1 X34.647 Y42.65 E5.85494
G1 X37.24 Y42.798 E5.94132
G1 X39.799 Y42.87 E6.02647
G1 X42.332 Y42.87 E6.11071
G1 X44.876 Y42.798 E6.19536
G1 X47.434 Y42.654 E6.28058
G1 X48.363 Y42.581 E6.31157
G1 X48.767 Y42.558 E6.32503
G1 X49.232 Y42.54 E6.34051
G1 X49.627 Y42.532 E6.35365
G1 X134.409 Y42.532 E9.17351
G1 X138.683 Y42.53 E9.31566
G1 X139.617 Y42.547 E9.34673
G1 X140.689 Y42.594 E9.38242
G1 X144.092 Y42.794 E9.4958
G1 X144.789 Y42.844 E9.51904
G1 X145.107 Y42.872 E9.52966
G1 X146.049 Y42.97 E9.56116
G1 X149.534 Y43.383 E9.67788
G1 X150.468 Y43.511 E9.70924
G1 X151.586 Y43.695 E9.74692
G1 X154.923 Y44.293 E9.85968
G1 X155.491 Y44.402 E9.87892
G1 X155.813 Y44.469 E9.88986
G1 X156.973 Y44.732 E9.92942
G1 X160.275 Y45.527 E10.04238
G1 X161.196 Y45.767 E10.07404
G1 X161.971 Y45.989 E10.10085
G1 X165.506 Y47.066 E10.22376
G1 X166.133 Y47.266 E10.24565
G1 X166.983 Y47.58 E10.27579
G1 X167.302 Y47.714 E10.2873
G1 X168.119 Y48.1 E10.31735
G1 X168.52 Y48.324 E10.33263
G1 X168.828 Y48.505 E10.34451
G1 X169.585 Y48.997 E10.37454
G1 X169.976 Y49.29 E10.39079
G1 X170.241 Y49.499 E10.40201
G1 X170.873 Y50.04 E10.42968
G1 X171.117 Y50.267 E10.44077
G1 X171.448 Y50.59 E10.45615
G1 X174.37 Y53.568 E10.59491
G1 X174.99 Y54.224 E10.62494
G1 X175.655 Y54.968 E10.65813
G1 X178.033 Y57.696 E10.77849
G1 X178.622 Y58.398 E10.80897
G1 X179.278 Y59.223 E10.84403
G1 X181.447 Y62.025 E10.96188
G1 X181.817 Y62.517 E10.98236
G1 X182 Y62.769 E10.99272
G1 X182.653 Y63.697 E11.03046
G1 X184.654 Y66.621 E11.1483
G1 X185.138 Y67.357 E11.1776
G1 X185.644 Y68.171 E11.20948
G1 X187.528 Y71.305 E11.3311
G1 X187.874 Y71.898 E11.35394
G1 X188.292 Y72.693 E11.38381
G1 X188.539 Y73.228 E11.40341
G1 X218.832 Y142.893 E13.93006
G1 X219.759 Y145.035 E14.00769
G1 X219.95 Y145.493 E14.02419
G1 X220.078 Y145.814 E14.03569
G1 X220.52 Y146.984 E14.07728
G1 X220.637 Y147.311 E14.08884
G1 X220.86 Y147.968 E14.11191
G1 X221.167 Y149.073 E14.15006
G1 X221.431 Y150.296 E14.19167
G1 X221.558 Y150.942 E14.21357
G1 X221.683 Y151.739 E14.2404
G1 X221.715 Y152.016 E14.24967
G1 X221.758 Y152.482 E14.26524
G1 X221.821 Y153.417 E14.29641
G1 X221.843 Y153.825 E14.31
G1 X221.856 Y154.169 E14.32145
G1 X221.884 Y155.665 E14.37121
G1 X221.883 Y181.676 E15.23634
G1 X221.873 Y182.403 E15.26053
G1 X221.821 Y183.305 E15.29058
G1 X221.689 Y184.198 E15.3206
G1 X221.478 Y185.077 E15.35067
G1 X221.191 Y185.933 E15.38069
G1 X220.829 Y186.76 E15.41072
G1 X220.395 Y187.552 E15.44076
G1 X219.893 Y188.303 E15.4708
G1 X219.327 Y189.006 E15.50082
G1 X218.7 Y189.657 E15.53088
G1 X218.019 Y190.249 E15.5609
G1 X217.288 Y190.779 E15.59093
G1 X216.512 Y191.242 E15.62098
G1 X215.699 Y191.635 E15.65102
G1 X214.854 Y191.955 E15.68107
G1 X213.985 Y192.198 E15.71108
G1 X213.097 Y192.363 E15.74112
G1 X211.961 Y192.459 E15.77904
G1 X211.354 Y192.472 E15.79923
G1 X169.858 Y192.471 E17.17939
G1 X169.161 Y192.461 E17.20258
G1 X168.441 Y192.425 E17.22656
G1 X165.615 Y192.184 E17.32089
G1 X163.067 Y192.041 E17.40577
G1 X160.536 Y191.97 E17.48999
G1 X158.001 Y191.972 E17.5743
G1 X155.458 Y192.045 E17.65892
G1 X152.895 Y192.19 E17.7443
G1 X150.188 Y192.423 E17.83467
G1 X149.461 Y192.46 E17.85888
G1 X148.553 Y192.472 E17.88908
G1 X147.158 Y192.471 E17.93548
G1 X146.458 Y192.461 E17.95876
G1 X145.557 Y192.408 E17.98878
G1 X144.663 Y192.276 E18.01884
G1 X144.186 Y192.171 E18.03508
G1 X143.137 Y191.915 E18.071
G1 X140.531 Y191.315 E18.15994
G1 X138.031 Y190.812 E18.24476
G1 X135.553 Y190.387 E18.32838
G1 X133.043 Y190.029 E18.41271
G1 X130.493 Y189.739 E18.49807
G1 X127.983 Y189.524 E18.58186
G1 X125.433 Y189.38 E18.6668
G1 X122.868 Y189.306 E18.75215
G1 X121.54 Y189.297 E18.79632
G1 X50.003 Y189.297 E21.17565
G1 X49.842 Y189.296 E21.18101
G1 X49.145 Y189.285 E21.20419
G0 F6000 X49.139 Y189.685
G1 F1200 X48.22 Y189.63 E21.23481
G1 X47.309 Y189.496 E21.26544
G1 X46.413 Y189.284 E21.29606
G1 X45.539 Y188.994 E21.32669
G1 X44.694 Y188.63 E21.35729
G1 X43.883 Y188.194 E21.38792
G1 X43.113 Y187.689 E21.41854
G1 X42.39 Y187.119 E21.44917
G1 X41.719 Y186.488 E21.4798
G1 X41.105 Y185.802 E21.51042
G1 X40.553 Y185.065 E21.54105
G1 X40.068 Y184.283 E21.57165
G1 X39.651 Y183.462 E21.60228
G1 X39.308 Y182.608 E21.63289
G1 X39.04 Y181.727 E21.66352
G1 X38.85 Y180.826 E21.69414
G1 X38.738 Y179.912 E21.72477
G1 X38.71 Y179.374 E21.74269
G1 X38.697 Y178.755 E21.76328
G1 X38.697 Y164.589 E22.23445
G1 X38.66 Y161.964 E22.32176
G1 X38.553 Y159.456 E22.40525
G1 X38.375 Y156.935 E22.48931
G1 X38.125 Y154.417 E22.57347
G1 X37.804 Y151.906 E22.65767
G1 X37.417 Y149.444 E22.74056
G1 X36.948 Y146.922 E22.82588
G1 X36.415 Y144.443 E22.91022
G1 X35.819 Y142.014 E22.9934
G1 X35.147 Y139.57 E23.07771
G1 X34.404 Y137.143 E23.16213
G1 X33.586 Y134.718 E23.24725
G1 X32.725 Y132.383 E23.33002
G1 X31.776 Y130.021 E23.41469
G1 X30.777 Y127.726 E23.49794
G1 X29.691 Y125.409 E23.58305
G1 X28.555 Y123.151 E23.66712
G1 X27.358 Y120.937 E23.75083
G1 X26.09 Y118.738 E23.83525
G1 X24.779 Y116.607 E23.91847
G1 X23.388 Y114.483 E24.00292
G1 X21.926 Y112.384 E24.08799
G1 X20.438 Y110.37 E24.17128
G1 X18.87 Y108.369 E24.25583
G1 X17.273 Y106.446 E24.33897
G1 X16.293 Y105.332 E24.38832
G1 X15.337 Y104.235 E24.43672
G1 X14.762 Y103.516 E24.46734
G1 X14.253 Y102.749 E24.49796
G1 X13.812 Y101.941 E24.52857
G1 X13.442 Y101.098 E24.55919
G1 X13.147 Y100.225 E24.58984
G1 X12.929 Y99.331 E24.62045
G1 X12.79 Y98.421 E24.65106
G1 X12.728 Y97.427 E24.68419
G1 X12.716 Y96.528 E24.71409
G1 X12.717 Y53.276 E26.15266
G1 X12.727 Y52.587 E26.17558
G1 X12.78 Y51.668 E26.2062
G1 X12.913 Y50.757 E26.23682
G1 X13.125 Y49.861 E26.26744
G1 X13.413 Y48.987 E26.29805
G1 X13.776 Y48.141 E26.32867
G1 X14.211 Y47.329 E26.35931
G1 X14.715 Y46.559 E26.38991
G1 X15.284 Y45.835 E26.42054
G1 X15.914 Y45.163 E26.45118
G1 X16.599 Y44.549 E26.48177
G1 X17.336 Y43.996 E26.51242
G1 X18.117 Y43.509 E26.54303
G1 X18.938 Y43.092 E26.57366
G1 X19.792 Y42.748 E26.60428
G1 X20.672 Y42.479 E26.63489
G1 X21.573 Y42.287 E26.66553
G1 X22.486 Y42.174 E26.69613
G1 X23.028 Y42.145 E26.71418
G1 X23.646 Y42.132 E26.73474
G1 X32.216 Y42.133 E27.01978
G1 X32.922 Y42.143 E27.04326
G1 X33.521 Y42.169 E27.0632
G1 X34.628 Y42.247 E27.10011
G1 X37.273 Y42.398 E27.18823
G1 X39.81 Y42.47 E27.27264
G1 X42.321 Y42.47 E27.35616
G1 X44.876 Y42.398 E27.44117
G1 X47.428 Y42.254 E27.52619
G1 X48.332 Y42.183 E27.55635
G1 X48.752 Y42.158 E27.57034
G1 X49.217 Y42.14 E27.58582
G1 X49.627 Y42.132 E27.59946
G1 X134.408 Y42.132 E30.41929
G1 X138.688 Y42.13 E30.56164
G1 X139.634 Y42.147 E30.59311
G1 X140.712 Y42.195 E30.629
G1 X144.12 Y42.395 E30.74254
G1 X144.817 Y42.445 E30.76579
G1 X145.148 Y42.474 E30.77684
G1 X146.096 Y42.573 E30.80854
G1 X149.587 Y42.986 E30.92546
G1 X150.208 Y43.068 E30.94629
G1 X150.533 Y43.116 E30.95722
G1 X151.657 Y43.302 E30.99511
G1 X154.999 Y43.9 E31.10804
G1 X155.567 Y44.009 E31.12727
G1 X155.901 Y44.079 E31.13862
G1 X157.067 Y44.343 E31.17838
G1 X160.375 Y45.139 E31.29155
G1 X161.305 Y45.382 E31.32352
G1 X162.087 Y45.607 E31.35058
G1 X165.627 Y46.685 E31.47366
G1 X166.254 Y46.885 E31.49555
G1 X167.138 Y47.211 E31.52689
G1 X167.457 Y47.345 E31.5384
G1 X168.29 Y47.738 E31.56903
G1 X168.723 Y47.979 E31.58552
G1 X169.031 Y48.16 E31.5974
G1 X169.803 Y48.661 E31.62801
G1 X170.224 Y48.976 E31.6455
G1 X170.489 Y49.185 E31.65672
G1 X171.145 Y49.747 E31.68545
G1 X171.389 Y49.974 E31.69654
G1 X171.734 Y50.31 E31.71255
G1 X174.659 Y53.292 E31.85148
G1 X175.061 Y53.713 E31.87084
G1 X175.287 Y53.957 E31.88191
G1 X175.957 Y54.705 E31.91531
G1 X178.338 Y57.438 E32.03586
G1 X178.935 Y58.149 E32.06674
G1 X179.595 Y58.979 E32.10201
G1 X181.767 Y61.785 E32.22003
G1 X182.137 Y62.277 E32.24051
G1 X182.327 Y62.539 E32.25127
G1 X182.983 Y63.471 E32.28918
G1 X184.987 Y66.4 E32.40722
G1 X185.477 Y67.145 E32.43688
G1 X185.987 Y67.965 E32.46899
G1 X187.873 Y71.103 E32.59076
G1 X188.219 Y71.696 E32.6136
G1 X188.654 Y72.523 E32.64468
G1 X188.906 Y73.068 E32.66465
G1 X219.199 Y142.733 E35.1913
G1 X220.128 Y144.881 E35.26914
G1 X220.319 Y145.339 E35.28564
G1 X220.452 Y145.673 E35.2976
G1 X220.894 Y146.843 E35.3392
G1 X221.016 Y147.182 E35.35118
G1 X221.239 Y147.839 E35.37426
G1 X221.558 Y148.987 E35.41389
G1 X221.824 Y150.219 E35.45581
G1 X221.951 Y150.865 E35.4777
G1 X222.08 Y151.694 E35.50561
G1 X222.112 Y151.971 E35.51488
G1 X222.157 Y152.454 E35.53102
G1 X222.221 Y153.395 E35.56239
G1 X222.243 Y153.803 E35.57598
G1 X222.256 Y154.161 E35.58789
G1 X222.284 Y155.665 E35.63792
G1 X222.283 Y181.682 E36.50325
G1 X222.273 Y182.409 E36.52744
G1 X222.22 Y183.328 E36.55805
G1 X222.088 Y184.239 E36.58867
G1 X221.877 Y185.135 E36.61928
G1 X221.59 Y186.01 E36.64991
G1 X221.227 Y186.856 E36.68053
G1 X220.793 Y187.668 E36.71115
G1 X220.289 Y188.439 E36.74179
G1 X219.721 Y189.163 E36.7724
G1 X219.092 Y189.835 E36.80301
G1 X218.407 Y190.45 E36.83363
G1 X217.671 Y191.003 E36.86425
G1 X216.89 Y191.491 E36.89488
G1 X216.07 Y191.909 E36.92549
G1 X215.216 Y192.254 E36.95613
G1 X214.336 Y192.523 E36.98673
G1 X213.435 Y192.716 E37.01738
G1 X212.522 Y192.829 E37.04798
G1 X211.972 Y192.859 E37.0663
G1 X211.354 Y192.872 E37.08686
G1 X169.852 Y192.871 E38.46722
G1 X169.155 Y192.861 E38.4904
G1 X168.407 Y192.824 E38.51531
G1 X165.56 Y192.581 E38.61035
G1 X163.068 Y192.441 E38.69336
G1 X160.525 Y192.37 E38.77798
G1 X158.013 Y192.372 E38.86153
G1 X155.457 Y192.445 E38.94657
G1 X152.95 Y192.587 E39.03009
G1 X150.222 Y192.822 E39.12116
G1 X149.466 Y192.86 E39.14634
G1 X148.553 Y192.872 E39.17671
G1 X147.153 Y192.871 E39.22327
G1 X146.453 Y192.861 E39.24656
G1 X145.533 Y192.808 E39.27721
G1 X144.622 Y192.675 E39.30783
G1 X144.092 Y192.56 E39.32586
G1 X142.975 Y192.288 E39.3641
G1 X140.467 Y191.71 E39.4497
G1 X137.983 Y191.21 E39.53398
G1 X135.472 Y190.779 E39.61872
G1 X132.977 Y190.424 E39.70254
G1 X130.449 Y190.136 E39.78716
G1 X127.957 Y189.923 E39.87035
G1 X125.436 Y189.78 E39.95433
G1 X122.854 Y189.706 E40.04025
G1 X121.537 Y189.697 E40.08405
G1 X50.003 Y189.697 E42.46328
G1 X49.836 Y189.696 E42.46884
G1 X49.139 Y189.685 E42.49202
G0 F6000 X49.132 Y190.085
G1 F1200 X48.196 Y190.03 E42.52321
G1 X47.268 Y189.896 E42.55439
G1 X46.355 Y189.683 E42.58557
G1 X45.463 Y189.393 E42.61677
G1 X44.599 Y189.028 E42.64797
G1 X43.769 Y188.591 E42.67916
G1 X42.979 Y188.085 E42.71037
G1 X42.236 Y187.513 E42.74155
G1 X41.544 Y186.88 E42.77275
G1 X40.908 Y186.19 E42.80396
G1 X40.333 Y185.449 E42.83515
G1 X39.824 Y184.662 E42.86633
G1 X39.383 Y183.834 E42.89753
G1 X39.015 Y182.971 E42.92873
G1 X38.721 Y182.081 E42.95991
G1 X38.505 Y181.168 E42.99111
G1 X38.367 Y180.24 E43.02232
G1 X38.31 Y179.385 E43.05082
G1 X38.297 Y178.755 E43.07178
G1 X38.297 Y164.595 E43.54274
G1 X38.26 Y161.987 E43.62949
G1 X38.153 Y159.465 E43.71345
G1 X37.976 Y156.97 E43.79664
G1 X37.728 Y154.471 E43.88017
G1 X37.41 Y151.982 E43.96362
G1 X37.016 Y149.473 E44.0481
G1 X36.557 Y147.007 E44.13153
G1 X36.023 Y144.525 E44.21597
G1 X35.437 Y142.136 E44.29778
G1 X34.755 Y139.655 E44.38336
G1 X34.029 Y137.283 E44.46586
G1 X33.218 Y134.88 E44.55022
G1 X32.338 Y132.492 E44.63486
G1 X31.414 Y130.193 E44.71727
G1 X30.406 Y127.877 E44.80128
G1 X29.33 Y125.58 E44.88565
G1 X28.204 Y123.344 E44.96892
G1 X27.009 Y121.134 E45.05248
G1 X25.745 Y118.942 E45.13664
G1 X24.421 Y116.789 E45.2207
G1 X23.058 Y114.708 E45.30344
G1 X21.621 Y112.645 E45.38706
G1 X20.116 Y110.609 E45.47127
G1 X18.563 Y108.626 E45.55505
G1 X16.966 Y106.703 E45.63819
G1 X15.959 Y105.558 E45.6889
G1 X15.035 Y104.498 E45.73567
G1 X14.45 Y103.765 E45.76687
G1 X13.928 Y102.986 E45.79805
G1 X13.476 Y102.164 E45.82925
G1 X13.095 Y101.307 E45.86045
G1 X12.788 Y100.421 E45.89164
G1 X12.558 Y99.512 E45.92282
G1 X12.406 Y98.586 E45.95403
G1 X12.328 Y97.433 E45.99247
G1 X12.316 Y96.528 E46.02257
G1 X12.317 Y53.27 E47.46134
G1 X12.327 Y52.581 E47.48426
G1 X12.381 Y51.645 E47.51544
G1 X12.514 Y50.717 E47.54662
G1 X12.726 Y49.803 E47.57783
G1 X13.014 Y48.911 E47.60901
G1 X13.378 Y48.046 E47.64022
G1 X13.814 Y47.216 E47.6714
G1 X14.319 Y46.426 E47.70259
G1 X14.89 Y45.682 E47.73378
G1 X15.522 Y44.989 E47.76498
G1 X16.211 Y44.352 E47.79619
G1 X16.951 Y43.776 E47.82737
G1 X17.738 Y43.266 E47.85857
G1 X18.566 Y42.824 E47.88978
G1 X19.428 Y42.455 E47.92097
G1 X20.318 Y42.16 E47.95216
G1 X21.23 Y41.942 E47.98334
G1 X22.158 Y41.803 E48.01455
G1 X23.017 Y41.745 E48.04319
G1 X23.646 Y41.732 E48.06411
G1 X32.222 Y41.733 E48.34935
G1 X32.928 Y41.743 E48.37284
G1 X33.549 Y41.77 E48.39351
G1 X34.676 Y41.85 E48.43109
G1 X37.273 Y41.998 E48.51761
G1 X39.821 Y42.07 E48.60239
G1 X42.31 Y42.07 E48.68517
G1 X44.843 Y41.998 E48.76945
G1 X47.416 Y41.853 E48.85517
G1 X48.3 Y41.784 E48.88466
G1 X48.737 Y41.758 E48.89922
G1 X49.202 Y41.74 E48.9147
G1 X49.627 Y41.732 E48.92883
G1 X134.408 Y41.732 E51.74866
G1 X138.693 Y41.73 E51.89118
G1 X139.652 Y41.747 E51.92308
G1 X140.736 Y41.796 E51.95917
G1 X144.149 Y41.996 E52.07289
G1 X144.846 Y42.046 E52.09613
G1 X145.189 Y42.076 E52.10758
G1 X146.143 Y42.176 E52.13948
G1 X149.639 Y42.59 E52.25657
