;FLAVOR:Marlin
;TIME:730
;Filament used: 0.193067m
;Layer height: 0.12
;MINX:93.994
;MINY:92.192
;MINZ:0.12
;MAXX:141.02
;MAXY:142.822
;MAXZ:2.28
;Generated with Cura_SteamEngine 4.6.2
M140 S50
M105
M190 S50
M104 S200
M105
M109 S200
M82 ;absolute extrusion mode
; Ender 3 Custom Start G-code
G92 E0 ; Reset Extruder
G28 ; Home all axes
G1 Z2.0 F3000 ; Move Z Axis up little to prevent scratching of Heat Bed
G1 X0.1 Y20 Z0.3 F5000.0 ; Move to start position
G1 X0.1 Y200.0 Z0.3 F1500.0 E15 ; Draw the first line
G1 X0.4 Y200.0 Z0.3 F5000.0 ; Move to side a little
G1 X0.4 Y20 Z0.3 F1500.0 E30 ; Draw the second line
G92 E0 ; Reset Extruder
G1 Z2.0 F3000 ; Move Z Axis up little to prevent scratching of Heat Bed
G1 X5 Y20 Z0.3 F5000.0 ; Move over to prevent blob squish
G92 E0
G92 E0
G1 F2700 E-5
;LAYER_COUNT:19
;LAYER:0
M107
G0 F6000 X109.314 Y93.076 Z0.12
;TYPE:SKIRT
G1 F2700 E0
G1 F1200 X109.883 Y93.15 E0.01145
G1 X110.467 Y93.241 E0.02325
G1 X111.351 Y93.429 E0.04128
G1 X112.214 Y93.695 E0.0593
G1 X112.671 Y93.871 E0.06908
G1 X113.435 Y94.191 E0.08561
G1 X113.671 Y94.297 E0.09077
G1 X114.478 Y94.704 E0.10881
G1 X115.245 Y95.179 E0.12681
G1 X115.666 Y95.483 E0.13717
G1 X116.1 Y95.813 E0.14805
G1 X116.566 Y96.186 E0.15996
G1 X116.976 Y96.539 E0.17076
G1 X117.453 Y96.973 E0.18363
G1 X119.467 Y98.761 E0.23738
G1 X121.362 Y100.35 E0.28673
G1 X123.394 Y101.957 E0.33843
G1 X125.419 Y103.468 E0.38885
G1 X127.506 Y104.935 E0.43976
G1 X129.603 Y106.323 E0.48994
G1 X131.782 Y107.678 E0.54115
G1 X133.317 Y108.582 E0.5767
G1 X134.074 Y109.075 E0.59472
G1 X135.078 Y109.895 E0.62059
G1 X135.622 Y110.4 E0.63541
G1 X135.94 Y110.708 E0.64424
G1 X137.158 Y111.935 E0.67874
G1 X137.774 Y112.596 E0.69677
G1 X138.328 Y113.309 E0.71479
G1 X138.817 Y114.068 E0.73281
G1 X139.237 Y114.868 E0.75084
G1 X139.585 Y115.701 E0.76886
G1 X139.857 Y116.562 E0.78688
G1 X140.052 Y117.444 E0.8049
G1 X140.197 Y118.775 E0.83162
G1 X140.211 Y119.105 E0.83821
G1 X140.22 Y119.537 E0.84684
G1 X140.219 Y122.25 E0.90098
G1 X140.209 Y122.948 E0.91491
G1 X140.156 Y123.85 E0.93294
G1 X140.024 Y124.743 E0.95095
G1 X139.813 Y125.621 E0.96897
G1 X139.525 Y126.477 E0.987
G1 X139.133 Y127.364 E1.00635
G1 X138.615 Y128.395 E1.02938
G1 X138.332 Y128.937 E1.04158
G1 X137.596 Y130.448 E1.07512
G1 X136.789 Y132.048 E1.11088
G1 X136.495 Y132.611 E1.12355
G1 X135.793 Y134.053 E1.15556
G1 X135.521 Y134.594 E1.16764
G1 X135.08 Y135.382 E1.18566
G1 X134.571 Y136.128 E1.20369
G1 X133.998 Y136.826 E1.22171
G1 X133.686 Y137.159 E1.23082
G1 X133.082 Y137.771 E1.24797
G1 X132.172 Y138.669 E1.27349
G1 X131.869 Y138.976 E1.2821
G1 X131.206 Y139.59 E1.30013
G1 X130.492 Y140.143 E1.31815
G1 X129.732 Y140.631 E1.33618
G1 X128.932 Y141.05 E1.3542
G1 X128.098 Y141.396 E1.37222
G1 X127.237 Y141.667 E1.39023
G1 X126.355 Y141.861 E1.40825
G1 X125.459 Y141.976 E1.42628
G1 X124.953 Y142.005 E1.43639
G1 X124.627 Y142.016 E1.4429
G1 X124.283 Y142.022 E1.44977
G1 X121.571 Y142.021 E1.50389
G1 X120.87 Y142.011 E1.51788
G1 X119.968 Y141.958 E1.53591
G1 X119.075 Y141.826 E1.55393
G1 X118.196 Y141.615 E1.57197
G1 X117.34 Y141.327 E1.58999
G1 X116.513 Y140.965 E1.608
G1 X115.721 Y140.531 E1.62603
G1 X114.971 Y140.028 E1.64405
G1 X114.268 Y139.461 E1.66207
G1 X113.872 Y139.093 E1.67286
G1 X113.228 Y138.46 E1.69088
G1 X112.32 Y137.54 E1.71668
G1 X111.424 Y136.656 E1.7418
G1 X110.514 Y135.734 E1.76765
G1 X109.637 Y134.868 E1.79224
G1 X108.452 Y133.673 E1.82583
G1 X107.837 Y133.012 E1.84385
G1 X107.284 Y132.298 E1.86187
G1 X106.796 Y131.538 E1.87989
G1 X106.214 Y130.371 E1.90592
G1 X106.093 Y130.084 E1.91213
G1 X105.015 Y127.61 E1.96599
G1 X103.938 Y125.319 E2.01651
G1 X102.8 Y123.064 E2.06691
G1 X101.587 Y120.82 E2.11782
G1 X100.309 Y118.609 E2.16878
G1 X98.989 Y116.467 E2.21899
G1 X97.543 Y114.267 E2.27153
G1 X96.95 Y113.391 E2.29264
G1 X96.478 Y112.621 E2.31066
G1 X96.05 Y111.757 E2.3299
G1 X95.87 Y111.345 E2.33888
G1 X95.703 Y110.938 E2.34766
G1 X95.572 Y110.599 E2.35491
G1 X95.284 Y109.743 E2.37293
G1 X95.016 Y108.543 E2.39747
G1 X94.974 Y108.282 E2.40275
G1 X94.896 Y107.69 E2.41466
G1 X94.845 Y107.187 E2.42475
G1 X94.794 Y106.285 E2.44278
G1 X94.823 Y105.383 E2.46079
G1 X94.869 Y104.919 E2.47009
G1 X94.957 Y104.234 E2.48388
G1 X95.012 Y103.874 E2.49114
G1 X95.188 Y102.988 E2.50917
G1 X95.441 Y102.121 E2.52719
G1 X95.633 Y101.605 E2.53818
G1 X95.856 Y101.051 E2.5501
G1 X96.077 Y100.537 E2.56126
G1 X96.48 Y99.729 E2.57928
G1 X96.953 Y98.96 E2.5973
G1 X97.256 Y98.535 E2.60772
G1 X97.576 Y98.111 E2.61832
G1 X97.943 Y97.649 E2.63009
G1 X98.542 Y96.973 E2.64812
G1 X99.198 Y96.353 E2.66613
G1 X99.582 Y96.036 E2.67607
G1 X100.02 Y95.693 E2.68717
G1 X100.509 Y95.33 E2.69932
G1 X101.261 Y94.83 E2.71734
G1 X102.418 Y94.23 E2.74335
G1 X102.634 Y94.135 E2.74806
G1 X103.142 Y93.928 E2.75901
G1 X103.638 Y93.741 E2.76959
G1 X104.496 Y93.46 E2.7876
G1 X105.376 Y93.256 E2.80563
G1 X105.875 Y93.176 E2.81572
G1 X106.38 Y93.108 E2.82588
G1 X106.976 Y93.042 E2.83785
G1 X107.878 Y92.992 E2.85588
G1 X108.781 Y93.021 E2.87391
G1 X109.314 Y93.076 E2.8846
G0 F6000 X109.366 Y92.68
G1 F1200 X109.935 Y92.754 E2.89605
G1 X110.534 Y92.847 E2.90815
G1 X111.434 Y93.038 E2.92651
G1 X112.315 Y93.307 E2.94489
G1 X112.823 Y93.501 E2.95574
G1 X113.296 Y93.696 E2.96595
G1 X113.835 Y93.933 E2.9777
G1 X114.658 Y94.346 E2.99608
G1 X115.441 Y94.829 E3.01444
G1 X115.908 Y95.164 E3.02591
G1 X116.342 Y95.494 E3.03679
G1 X116.82 Y95.876 E3.049
G1 X117.245 Y96.243 E3.06021
G1 X117.756 Y96.708 E3.07399
G1 X119.706 Y98.438 E3.12602
G1 X121.643 Y100.063 E3.17647
G1 X123.613 Y101.622 E3.22661
G1 X125.666 Y103.153 E3.27771
G1 X127.707 Y104.588 E3.3275
G1 X129.829 Y105.993 E3.37829
G1 X132.016 Y107.351 E3.42966
G1 X133.52 Y108.238 E3.46451
G1 X134.292 Y108.739 E3.48288
G1 X135.35 Y109.601 E3.51011
G1 X135.894 Y110.106 E3.52492
G1 X136.225 Y110.427 E3.53412
G1 X137.439 Y111.65 E3.56851
G1 X138.067 Y112.323 E3.58688
G1 X138.634 Y113.049 E3.60527
G1 X139.135 Y113.821 E3.62363
G1 X139.568 Y114.633 E3.642
G1 X139.929 Y115.48 E3.66037
G1 X140.215 Y116.355 E3.67874
G1 X140.424 Y117.252 E3.69712
G1 X140.554 Y118.163 E3.71548
G1 X140.596 Y118.758 E3.72739
G1 X140.61 Y119.088 E3.73398
G1 X140.62 Y119.537 E3.74294
G1 X140.619 Y122.256 E3.7972
G1 X140.609 Y122.954 E3.81113
G1 X140.556 Y123.873 E3.8295
G1 X140.423 Y124.784 E3.84788
G1 X140.212 Y125.68 E3.86625
G1 X139.924 Y126.554 E3.88461
G1 X139.491 Y127.542 E3.90614
G1 X138.97 Y128.581 E3.92933
G1 X138.682 Y129.132 E3.94174
G1 X137.953 Y130.628 E3.97495
G1 X137.144 Y132.233 E4.01082
G1 X136.852 Y132.792 E4.0234
G1 X136.15 Y134.232 E4.05537
G1 X135.878 Y134.773 E4.06746
G1 X135.43 Y135.577 E4.08582
G1 X134.913 Y136.339 E4.1042
G1 X134.331 Y137.053 E4.12258
G1 X133.971 Y137.439 E4.13312
G1 X133.363 Y138.056 E4.1504
G1 X132.407 Y138.999 E4.1772
G1 X132.153 Y139.257 E4.18443
G1 X131.479 Y139.884 E4.2028
G1 X130.752 Y140.449 E4.22117
G1 X129.98 Y140.95 E4.23954
G1 X129.166 Y141.381 E4.25792
G1 X128.319 Y141.741 E4.27628
G1 X127.443 Y142.025 E4.29466
G1 X126.546 Y142.232 E4.31303
G1 X125.635 Y142.361 E4.33139
G1 X124.966 Y142.405 E4.34477
G1 X124.64 Y142.416 E4.35128
G1 X124.283 Y142.422 E4.35841
G1 X121.565 Y142.421 E4.41265
G1 X120.864 Y142.411 E4.42664
G1 X119.945 Y142.358 E4.44501
G1 X119.034 Y142.225 E4.46338
G1 X118.138 Y142.014 E4.48175
G1 X117.263 Y141.726 E4.50013
G1 X116.417 Y141.363 E4.51851
G1 X115.606 Y140.928 E4.53687
G1 X114.835 Y140.424 E4.55525
G1 X114.111 Y139.855 E4.57363
G1 X113.592 Y139.379 E4.58768
G1 X112.944 Y138.741 E4.60583
G1 X112.088 Y137.873 E4.63016
G1 X111.14 Y136.937 E4.65674
G1 X110.232 Y136.017 E4.68254
G1 X109.352 Y135.149 E4.70721
G1 X108.171 Y133.958 E4.74068
G1 X107.544 Y133.284 E4.75905
G1 X106.978 Y132.558 E4.77742
G1 X106.477 Y131.786 E4.79579
G1 X106.045 Y130.973 E4.81416
G1 X105.845 Y130.527 E4.82391
G1 X105.676 Y130.126 E4.8326
G1 X104.658 Y127.79 E4.88345
G1 X103.576 Y125.491 E4.93415
G1 X102.449 Y123.255 E4.98412
G1 X101.24 Y121.02 E5.03483
G1 X99.971 Y118.825 E5.08543
G1 X98.656 Y116.691 E5.13545
G1 X97.161 Y114.416 E5.18978
G1 X96.619 Y113.615 E5.20908
G1 X96.137 Y112.831 E5.22744
G1 X95.684 Y111.917 E5.2478
G1 X95.504 Y111.505 E5.25677
G1 X95.33 Y111.082 E5.2659
G1 X95.199 Y110.743 E5.27315
G1 X94.904 Y109.87 E5.29154
G1 X94.621 Y108.606 E5.31739
G1 X94.579 Y108.345 E5.32267
G1 X94.498 Y107.73 E5.33505
G1 X94.447 Y107.227 E5.34514
G1 X94.394 Y106.308 E5.36351
G1 X94.421 Y105.388 E5.38187
G1 X94.472 Y104.87 E5.39226
G1 X94.562 Y104.173 E5.40629
G1 X94.617 Y103.813 E5.41355
G1 X94.795 Y102.91 E5.43192
G1 X95.051 Y102.026 E5.45029
G1 X95.262 Y101.456 E5.46242
G1 X95.485 Y100.902 E5.47433
G1 X95.712 Y100.375 E5.48578
G1 X96.122 Y99.551 E5.50415
G1 X96.602 Y98.765 E5.52253
G1 X96.937 Y98.294 E5.53407
G1 X97.257 Y97.87 E5.54467
G1 X97.632 Y97.397 E5.55671
G1 X98.242 Y96.708 E5.57508
G1 X98.909 Y96.074 E5.59344
G1 X99.336 Y95.721 E5.6045
G1 X99.774 Y95.378 E5.6156
G1 X100.273 Y95.006 E5.62802
G1 X101.039 Y94.496 E5.64638
G1 X102.256 Y93.864 E5.67375
G1 X102.472 Y93.769 E5.67846
G1 X103.001 Y93.554 E5.68985
G1 X103.497 Y93.367 E5.70043
G1 X104.371 Y93.079 E5.7188
G1 X105.268 Y92.869 E5.73718
G1 X105.821 Y92.78 E5.74836
G1 X106.326 Y92.712 E5.75853
G1 X106.936 Y92.644 E5.77078
G1 X107.855 Y92.592 E5.78915
G1 X108.776 Y92.619 E5.80753
G1 X109.366 Y92.68 E5.81937
G0 F6000 X109.418 Y92.283
G1 F1200 X109.987 Y92.357 E5.83082
G1 X110.6 Y92.452 E5.8432
G1 X111.517 Y92.646 E5.8619
G1 X112.415 Y92.918 E5.88063
G1 X112.976 Y93.131 E5.8926
G1 X113.449 Y93.326 E5.90281
G1 X113.999 Y93.568 E5.91481
G1 X114.837 Y93.988 E5.93351
G1 X115.637 Y94.478 E5.95223
G1 X116.15 Y94.846 E5.96483
G1 X116.584 Y95.176 E5.97571
G1 X117.073 Y95.566 E5.98819
G1 X117.514 Y95.947 E5.99982
G1 X118.012 Y96.4 E6.01326
G1 X119.983 Y98.149 E6.06585
G1 X121.881 Y99.741 E6.11528
G1 X123.877 Y101.32 E6.16607
G1 X125.889 Y102.821 E6.21617
G1 X127.956 Y104.274 E6.26659
G1 X130.039 Y105.653 E6.31644
G1 X132.187 Y106.988 E6.36691
G1 X133.723 Y107.893 E6.40249
G1 X134.51 Y108.403 E6.4212
G1 X135.25 Y108.979 E6.43991
G1 X135.622 Y109.308 E6.44983
G1 X136.166 Y109.813 E6.46464
G1 X136.509 Y110.146 E6.47418
G1 X137.719 Y111.365 E6.50845
G1 X138.359 Y112.05 E6.52716
G1 X138.939 Y112.788 E6.54589
G1 X139.453 Y113.572 E6.5646
G1 X139.899 Y114.397 E6.58332
G1 X140.272 Y115.257 E6.60202
G1 X140.572 Y116.146 E6.62075
G1 X140.794 Y117.057 E6.63946
G1 X140.938 Y117.984 E6.65818
G1 X140.996 Y118.741 E6.67333
G1 X141.01 Y119.071 E6.67992
G1 X141.02 Y119.537 E6.68923
G1 X141.019 Y122.262 E6.74361
G1 X141.009 Y122.96 E6.75754
G1 X140.955 Y123.896 E6.77625
G1 X140.823 Y124.824 E6.79495
G1 X140.611 Y125.738 E6.81368
G1 X140.322 Y126.63 E6.83239
G1 X139.849 Y127.721 E6.85612
G1 X139.324 Y128.766 E6.87946
G1 X139.052 Y129.286 E6.89117
G1 X138.311 Y130.808 E6.92495
G1 X137.498 Y132.419 E6.96096
G1 X137.208 Y132.973 E6.97344
G1 X136.508 Y134.412 E7.00537
G1 X136.236 Y134.953 E7.01746
G1 X135.779 Y135.772 E7.03617
G1 X135.254 Y136.55 E7.0549
G1 X134.665 Y137.279 E7.07361
G1 X134.256 Y137.719 E7.08559
G1 X133.644 Y138.341 E7.10301
G1 X132.438 Y139.538 E7.13692
G1 X131.751 Y140.177 E7.15564
G1 X131.013 Y140.755 E7.17435
G1 X130.228 Y141.268 E7.19306
G1 X129.402 Y141.712 E7.21178
G1 X128.541 Y142.084 E7.23049
G1 X127.651 Y142.382 E7.24922
G1 X126.74 Y142.603 E7.26793
G1 X125.813 Y142.745 E7.28665
G1 X124.98 Y142.805 E7.30331
G1 X124.654 Y142.816 E7.30982
G1 X124.283 Y142.822 E7.31723
G1 X121.559 Y142.821 E7.37159
G1 X120.858 Y142.811 E7.38558
G1 X119.922 Y142.758 E7.40429
G1 X118.993 Y142.625 E7.42301
G1 X118.08 Y142.413 E7.44172
G1 X117.187 Y142.125 E7.46044
G1 X116.323 Y141.761 E7.47915
G1 X115.492 Y141.325 E7.49788
G1 X114.702 Y140.82 E7.51659
G1 X113.958 Y140.25 E7.5353
G1 X113.312 Y139.664 E7.5527
G1 X112.659 Y139.022 E7.57098
G1 X111.755 Y138.106 E7.59666
G1 X110.855 Y137.218 E7.62189
G1 X109.949 Y136.3 E7.64763
G1 X109.068 Y135.43 E7.67234
G1 X108.124 Y134.473 E7.69916
G1 X107.89 Y134.243 E7.70571
G1 X107.251 Y133.557 E7.72442
G1 X106.673 Y132.819 E7.74313
G1 X106.159 Y132.034 E7.76185
G1 X105.715 Y131.208 E7.78057
G1 X105.476 Y130.682 E7.7921
G1 X105.323 Y130.319 E7.79996
G1 X104.287 Y127.942 E7.8517
G1 X103.236 Y125.706 E7.90101
G1 X102.075 Y123.405 E7.95244
G1 X100.899 Y121.231 E8.00177
G1 X99.626 Y119.029 E8.05252
G1 X98.309 Y116.891 E8.10264
G1 X96.817 Y114.621 E8.15685
G1 X96.288 Y113.839 E8.17569
G1 X95.796 Y113.041 E8.19439
G1 X95.317 Y112.077 E8.21588
G1 X95.137 Y111.665 E8.22485
G1 X94.956 Y111.226 E8.23432
G1 X94.825 Y110.887 E8.24158
G1 X94.525 Y109.999 E8.26028
G1 X94.226 Y108.67 E8.28747
G1 X94.184 Y108.409 E8.29274
G1 X94.1 Y107.771 E8.30558
G1 X94.049 Y107.268 E8.31567
G1 X93.994 Y106.331 E8.3344
G1 X94.02 Y105.394 E8.35311
G1 X94.074 Y104.822 E8.36458
G1 X94.121 Y104.438 E8.3723
G1 X94.166 Y104.113 E8.37884
G1 X94.221 Y103.753 E8.38611
G1 X94.402 Y102.832 E8.40484
G1 X94.661 Y101.931 E8.42355
G1 X94.891 Y101.306 E8.43684
G1 X95.114 Y100.752 E8.44876
G1 X95.346 Y100.212 E8.46049
G1 X95.763 Y99.372 E8.4792
G1 X96.25 Y98.571 E8.49791
G1 X96.618 Y98.054 E8.51057
G1 X96.938 Y97.63 E8.52118
G1 X97.321 Y97.146 E8.53349
G1 X97.942 Y96.443 E8.55221
G1 X98.62 Y95.795 E8.57093
G1 X99.089 Y95.407 E8.58307
G1 X99.527 Y95.064 E8.59418
G1 X100.037 Y94.683 E8.60688
G1 X100.817 Y94.163 E8.62559
G1 X101.639 Y93.711 E8.64431
G1 X102.095 Y93.498 E8.65435
G1 X102.311 Y93.403 E8.65906
G1 X102.859 Y93.179 E8.67088
G1 X103.355 Y92.992 E8.68145
G1 X104.246 Y92.699 E8.70017
G1 X105.159 Y92.483 E8.71889
G1 X105.768 Y92.383 E8.73121
G1 X106.273 Y92.315 E8.74138
G1 X106.896 Y92.246 E8.75389
G1 X107.832 Y92.192 E8.7726
G1 X108.77 Y92.218 E8.79132
G1 X109.418 Y92.283 E8.80432
G1 F2700 E3.80432
;MESH:minecraft_ax_earrings.stl
G0 F6000 X116.256 Y109.543
G0 X116.256 Y111.345
G0 X115.289 Y112.312
G0 X116.223 Y113.18
G0 X117.442 Y114.98
G0 X118.025 Y114.983
G0 X118.897 Y116.782
G0 X119.827 Y116.785
G0 X120.207 Y118.405
;TYPE:WALL-INNER
G1 F2700 E8.80432
G1 F1200 X121.811 Y118.405 E8.83633
G1 X121.811 Y120.207 E8.87229
G1 X125.613 Y120.207 E8.94816
G1 X125.613 Y118.405 E8.98412
G1 X127.218 Y118.405 E9.01615
G1 X127.218 Y120.207 E9.05211
G1 X129.02 Y120.207 E9.08808
G1 X129.02 Y121.811 E9.12009
G1 X127.218 Y121.811 E9.15605
G1 X127.218 Y125.415 E9.22797
G1 X125.415 Y125.415 E9.26395
G1 X125.415 Y129.02 E9.33589
G1 X123.613 Y129.02 E9.37185
G1 X123.613 Y130.822 E9.40781
G1 X122.009 Y130.822 E9.43982
G1 X122.009 Y129.02 E9.47578
G1 X120.207 Y129.02 E9.51174
G1 X120.207 Y127.218 E9.5477
G1 X118.405 Y127.218 E9.58366
G1 X118.405 Y125.415 E9.61965
G1 X116.603 Y125.415 E9.65561
G1 X116.603 Y123.811 E9.68762
G1 X118.405 Y123.811 E9.72358
G1 X118.405 Y122.009 E9.75954
G1 X120.207 Y122.009 E9.7955
G1 X120.207 Y118.405 E9.86742
G0 F6000 X120.409 Y118.005
G1 F1200 X122.211 Y118.005 E9.90338
G1 X122.211 Y119.807 E9.93934
G1 X125.213 Y119.807 E9.99925
G1 X125.213 Y118.005 E10.03521
G1 X127.618 Y118.005 E10.08321
G1 X127.618 Y119.807 E10.11917
G1 X129.42 Y119.807 E10.15513
G1 X129.42 Y122.211 E10.2031
G1 X127.618 Y122.211 E10.23906
G1 X127.618 Y125.815 E10.31098
G1 X125.815 Y125.815 E10.34697
G1 X125.815 Y129.42 E10.41891
G1 X124.013 Y129.42 E10.45487
G1 X124.013 Y131.222 E10.49083
G1 X121.609 Y131.222 E10.5388
G1 X121.609 Y129.42 E10.57476
G1 X119.807 Y129.42 E10.61072
G1 X119.807 Y127.618 E10.64669
G1 X118.005 Y127.618 E10.68265
G1 X118.005 Y125.815 E10.71863
G1 X116.203 Y125.815 E10.75459
G1 X116.203 Y123.411 E10.80256
G1 X118.005 Y123.411 E10.83852
G1 X118.005 Y121.609 E10.87448
G1 X119.807 Y121.609 E10.91045
G1 X119.807 Y118.607 E10.97035
G1 X118.005 Y118.607 E11.00631
G1 X118.005 Y116.805 E11.04227
G1 X116.203 Y116.805 E11.07824
G1 X116.203 Y115.003 E11.1142
G1 X114.401 Y115.003 E11.15016
G1 X114.401 Y113.201 E11.18612
G1 X112.598 Y113.201 E11.2221
G1 X112.598 Y111.398 E11.25808
G1 X110.796 Y111.398 E11.29404
G1 X110.796 Y109.596 E11.33
G1 X108.994 Y109.596 E11.36596
G1 X108.994 Y108.554 E11.38676
G1 X109.283 Y108.434 E11.393
G1 X109.822 Y108.02 E11.40656
G1 X110.226 Y107.494 E11.4198
G1 X110.361 Y107.175 E11.42671
G1 X111.398 Y107.186 E11.44741
