;FLAVOR:Marlin
;TIME:18279
;Filament used: 12.3333m
;Layer height: 0.2
;MINX:21.532
;MINY:44.35
;MINZ:0.2
;MAXX:213.352
;MAXY:190.667
;MAXZ:13
;Generated with Cura_SteamEngine 4.6.2
M140 S50
M105
M190 S50
M104 S200
M105
M109 S200
M82 ;absolute extrusion mode
; Ender 3 Custom Start G-code
G92 E0 ; Reset Extruder
G28 ; Home all axes
G1 Z2.0 F3000 ; Move Z Axis up little to prevent scratching of Heat Bed
G1 X0.1 Y20 Z0.3 F5000.0 ; Move to start position
G1 X0.1 Y200.0 Z0.3 F1500.0 E15 ; Draw the first line
G1 X0.4 Y200.0 Z0.3 F5000.0 ; Move to side a little
G1 X0.4 Y20 Z0.3 F1500.0 E30 ; Draw the second line
G92 E0 ; Reset Extruder
G1 Z2.0 F3000 ; Move Z Axis up little to prevent scratching of Heat Bed
G1 X5 Y20 Z0.3 F5000.0 ; Move over to prevent blob squish
G92 E0
G92 E0
G1 F2700 E-5
;LAYER_COUNT:65
;LAYER:0
M107
G0 F6000 X32.38 Y174.023 Z0.2
;TYPE:SKIRT
G1 F2700 E0
G1 F1200 X31.479 Y173.969 E0.03002
G1 X30.586 Y173.835 E0.06005
G1 X29.708 Y173.623 E0.0901
G1 X28.852 Y173.334 E0.12015
G1 X28.026 Y172.97 E0.15017
G1 X27.234 Y172.535 E0.18022
G1 X26.485 Y172.031 E0.21025
G1 X25.782 Y171.463 E0.24031
G1 X25.133 Y170.836 E0.27032
G1 X24.542 Y170.153 E0.30036
G1 X24.013 Y169.421 E0.3304
G1 X23.552 Y168.644 E0.36045
G1 X23.161 Y167.83 E0.39049
G1 X22.843 Y166.985 E0.42052
G1 X22.602 Y166.115 E0.45054
G1 X22.438 Y165.227 E0.48058
G1 X22.345 Y164.101 E0.51815
G1 X22.332 Y163.493 E0.53838
G1 X22.333 Y153.643 E0.86599
G1 X22.343 Y152.959 E0.88875
G1 X22.396 Y152.057 E0.9188
G1 X22.529 Y151.164 E0.94883
G1 X22.8 Y150.085 E0.98583
G1 X23.107 Y149.106 E1.01995
G1 X23.324 Y148.46 E1.04262
G1 X24.713 Y144.294 E1.18868
G1 X24.906 Y143.739 E1.20822
G1 X25.24 Y142.9 E1.23826
G1 X25.647 Y142.094 E1.26829
G1 X26.124 Y141.327 E1.29833
G1 X26.666 Y140.605 E1.32836
G1 X27.271 Y139.934 E1.35841
G1 X28.19 Y139.106 E1.39955
G1 X28.322 Y139.001 E1.40516
G1 X29.053 Y138.471 E1.43519
G1 X29.828 Y138.007 E1.46524
G1 X30.641 Y137.614 E1.49527
G1 X31.196 Y137.395 E1.51512
G1 X32.887 Y136.787 E1.57488
G1 X35.28 Y135.875 E1.66006
G1 X37.65 Y134.894 E1.74537
G1 X39.92 Y133.878 E1.82809
G1 X42.248 Y132.756 E1.91404
G1 X44.476 Y131.604 E1.99747
G1 X46.704 Y130.371 E2.08216
G1 X48.904 Y129.07 E2.16717
G1 X51.029 Y127.731 E2.25071
G1 X53.159 Y126.304 E2.33598
G1 X55.219 Y124.837 E2.4201
G1 X57.259 Y123.296 E2.50513
G1 X59.224 Y121.723 E2.58885
G1 X61.171 Y120.07 E2.6738
G1 X63.058 Y118.375 E2.75816
G1 X64.89 Y116.633 E2.84224
G1 X66.692 Y114.822 E2.92721
G1 X68.425 Y112.975 E3.01145
G1 X69.198 Y112.101 E3.05026
G1 X69.97 Y111.249 E3.0885
G1 X70.606 Y110.607 E3.11856
G1 X71.296 Y110.024 E3.1486
G1 X72.034 Y109.505 E3.17861
G1 X72.816 Y109.052 E3.20867
G1 X73.634 Y108.671 E3.23868
G1 X74.659 Y108.31 E3.27483
G1 X77.173 Y107.573 E3.36196
G1 X79.596 Y106.791 E3.44664
G1 X81.995 Y105.941 E3.53129
G1 X84.355 Y105.03 E3.61543
G1 X86.709 Y104.042 E3.70034
G1 X88.999 Y103.005 E3.78396
G1 X91.337 Y101.866 E3.87045
G1 X93.522 Y100.724 E3.95246
G1 X95.782 Y99.458 E4.03861
G1 X97.947 Y98.166 E4.12247
G1 X100.095 Y96.799 E4.20715
G1 X102.185 Y95.384 E4.2911
G1 X104.274 Y93.883 E4.37666
G1 X106.273 Y92.359 E4.46026
G1 X108.247 Y90.764 E4.54467
G1 X110.188 Y89.101 E4.62968
G1 X112.048 Y87.415 E4.71318
G1 X113.909 Y85.629 E4.79897
G1 X115.669 Y83.844 E4.88234
G1 X117.416 Y81.965 E4.96768
G1 X119.078 Y80.075 E5.05139
G1 X120.711 Y78.11 E5.13637
G1 X122.274 Y76.114 E5.22069
G1 X123.779 Y74.077 E5.30492
G1 X125.242 Y71.976 E5.39008
G1 X126.618 Y69.876 E5.47358
G1 X127.97 Y67.676 E5.55947
G1 X129.226 Y65.502 E5.64297
G1 X130.428 Y63.277 E5.72709
G1 X131.574 Y61.001 E5.81184
G1 X132.655 Y58.694 E5.89658
G1 X133.655 Y56.396 E5.97993
G1 X135.085 Y52.769 E6.1096
G1 X135.356 Y52.033 E6.13569
G1 X135.705 Y51.2 E6.16573
G1 X136.126 Y50.401 E6.19577
G1 X136.617 Y49.642 E6.22583
G1 X137.296 Y48.787 E6.26215
G1 X137.475 Y48.585 E6.27112
G1 X138.103 Y47.936 E6.30116
G1 X138.787 Y47.346 E6.33121
G1 X139.519 Y46.818 E6.36123
G1 X140.296 Y46.357 E6.39127
G1 X141.11 Y45.967 E6.4213
G1 X141.956 Y45.65 E6.45134
G1 X142.826 Y45.409 E6.48137
G1 X143.715 Y45.246 E6.51143
G1 X144.614 Y45.162 E6.54146
G1 X145.517 Y45.158 E6.5715
G1 X146.417 Y45.234 E6.60154
G1 X147.306 Y45.39 E6.63156
G1 X148.016 Y45.573 E6.65594
G1 X148.238 Y45.639 E6.66365
G1 X148.553 Y45.738 E6.67463
G1 X154.612 Y47.755 E6.88702
G1 X155.406 Y48.011 E6.91477
G1 X194.223 Y60.96 E8.27577
G1 X195.049 Y61.229 E8.30467
G1 X197.318 Y62.004 E8.38441
G1 X197.92 Y62.218 E8.40566
G1 X198.757 Y62.558 E8.43571
G1 X199.561 Y62.971 E8.46577
G1 X200.324 Y63.453 E8.49579
G1 X201.042 Y64 E8.52581
G1 X201.398 Y64.311 E8.54154
G1 X201.627 Y64.521 E8.55187
G1 X201.877 Y64.759 E8.56335
G1 X202.524 Y65.396 E8.59355
G1 X202.884 Y65.761 E8.6106
G1 X204.762 Y67.555 E8.69698
G1 X206.64 Y69.251 E8.78115
G1 X208.907 Y71.184 E8.88024
G1 X209.568 Y71.799 E8.91026
G1 X210.171 Y72.471 E8.94029
G1 X210.713 Y73.194 E8.97035
G1 X211.188 Y73.962 E9.00038
G1 X211.506 Y74.575 E9.02335
G1 X211.869 Y75.402 E9.05339
G1 X212.158 Y76.258 E9.08344
G1 X212.369 Y77.135 E9.11344
G1 X212.502 Y78.029 E9.1435
G1 X212.556 Y78.93 E9.17353
G1 X212.529 Y79.833 E9.20357
G1 X212.423 Y80.73 E9.23361
G1 X212.238 Y81.614 E9.26365
G1 X211.855 Y82.804 E9.30523
G1 X211.475 Y83.767 E9.33967
G1 X202.023 Y106.648 E10.16307
G1 X201.063 Y109.069 E10.24969
G1 X200.191 Y111.464 E10.33446
G1 X199.392 Y113.866 E10.41866
G1 X198.663 Y116.286 E10.50272
G1 X197.993 Y118.76 E10.58797
G1 X197.395 Y121.238 E10.67275
G1 X196.872 Y123.728 E10.75738
G1 X196.422 Y126.207 E10.84118
G1 X196.038 Y128.717 E10.92563
G1 X195.725 Y131.255 E11.01069
G1 X195.486 Y133.768 E11.09465
G1 X195.32 Y136.272 E11.17811
G1 X195.222 Y138.839 E11.26355
G1 X195.196 Y141.408 E11.349
G1 X195.242 Y143.906 E11.4321
G1 X195.362 Y146.47 E11.51747
G1 X195.55 Y148.973 E11.60096
G1 X195.815 Y151.529 E11.68643
G1 X196.061 Y153.446 E11.75071
G1 X196.192 Y154.392 E11.78247
G1 X196.277 Y155.292 E11.81254
G1 X196.281 Y156.195 E11.84258
G1 X196.206 Y157.095 E11.87261
G1 X196.051 Y157.984 E11.90263
G1 X195.815 Y158.867 E11.93303
G1 X195.558 Y159.676 E11.96126
G1 X194.5 Y162.85 E12.07254
G1 X194.129 Y163.944 E12.11096
G1 X192.997 Y167.372 E12.23103
G1 X192.452 Y168.965 E12.28703
G1 X191.607 Y171.503 E12.376
G1 X191.304 Y172.441 E12.40878
G1 X188.011 Y182.316 E12.75501
G1 X187.792 Y182.943 E12.7771
G1 X187.456 Y183.782 E12.80716
G1 X187.048 Y184.588 E12.8372
G1 X186.57 Y185.354 E12.86724
G1 X186.027 Y186.075 E12.89726
G1 X185.421 Y186.745 E12.9273
G1 X184.759 Y187.359 E12.95733
G1 X183.991 Y187.95 E12.98957
G1 X183.879 Y188.028 E12.99411
G1 X183.116 Y188.511 E13.02414
G1 X182.313 Y188.924 E13.05417
G1 X181.477 Y189.265 E13.0842
G1 X180.614 Y189.531 E13.11424
G1 X179.73 Y189.719 E13.1443
G1 X178.834 Y189.828 E13.17432
G1 X178.217 Y189.857 E13.19486
G1 X177.5 Y189.867 E13.21871
G1 X176.356 Y189.866 E13.25676
G1 X175.691 Y189.856 E13.27888
G1 X174.789 Y189.802 E13.30894
G1 X173.896 Y189.669 E13.33897
G1 X173.018 Y189.458 E13.369
G1 X172.162 Y189.169 E13.39905
G1 X171.335 Y188.806 E13.42909
G1 X170.541 Y188.37 E13.45922
G1 X169.507 Y187.738 E13.49952
G1 X169.019 Y187.427 E13.51877
G1 X166.815 Y186.11 E13.60417
G1 X164.632 Y184.888 E13.68737
G1 X162.362 Y183.699 E13.77261
G1 X160.086 Y182.588 E13.85684
G1 X157.755 Y181.531 E13.94197
G1 X155.404 Y180.542 E14.0268
G1 X153.066 Y179.64 E14.11015
G1 X150.645 Y178.781 E14.19559
G1 X148.262 Y178.011 E14.27889
G1 X145.811 Y177.295 E14.36381
G1 X143.334 Y176.647 E14.44897
G1 X140.875 Y176.075 E14.53294
G1 X138.383 Y175.574 E14.61748
G1 X135.883 Y175.142 E14.70187
G1 X133.367 Y174.779 E14.78642
G1 X130.844 Y174.488 E14.87089
G1 X128.321 Y174.27 E14.95512
G1 X125.759 Y174.121 E15.04047
G1 X123.248 Y174.046 E15.12403
G1 X121.762 Y174.035 E15.17345
G1 X33.239 Y174.035 E18.11774
G1 X33.078 Y174.034 E18.12309
G1 X32.38 Y174.023 E18.14631
G0 F6000 X32.374 Y174.423
G1 F1200 X31.455 Y174.368 E18.17693
G1 X30.544 Y174.234 E18.20756
G1 X29.648 Y174.022 E18.23818
G1 X28.774 Y173.732 E18.26881
G1 X27.929 Y173.368 E18.29941
G1 X27.118 Y172.932 E18.33004
G1 X26.348 Y172.427 E18.36066
G1 X25.625 Y171.857 E18.39129
G1 X24.954 Y171.227 E18.4219
G1 X24.34 Y170.54 E18.45254
G1 X23.789 Y169.803 E18.48315
G1 X23.303 Y169.021 E18.51377
G1 X22.887 Y168.2 E18.54438
G1 X22.543 Y167.346 E18.57501
G1 X22.275 Y166.465 E18.60563
G1 X22.085 Y165.564 E18.63626
G1 X21.973 Y164.651 E18.66686
G1 X21.945 Y164.112 E18.68481
G1 X21.932 Y163.493 E18.7054
G1 X21.933 Y153.637 E19.03321
G1 X21.943 Y152.953 E19.05596
G1 X21.997 Y152.034 E19.08658
G1 X22.13 Y151.123 E19.1172
G1 X22.418 Y149.966 E19.15686
G1 X22.728 Y148.979 E19.19127
G1 X22.937 Y148.357 E19.21309
G1 X24.335 Y144.162 E19.36016
G1 X24.528 Y143.607 E19.37971
G1 X24.868 Y142.752 E19.41031
G1 X25.281 Y141.929 E19.44094
G1 X25.763 Y141.145 E19.47155
G1 X26.312 Y140.406 E19.50217
G1 X26.923 Y139.717 E19.5328
G1 X27.941 Y138.793 E19.57852
G1 X28.073 Y138.688 E19.58413
G1 X28.818 Y138.147 E19.61475
G1 X29.607 Y137.672 E19.64539
G1 X30.434 Y137.268 E19.676
G1 X31.059 Y137.019 E19.69837
G1 X32.791 Y136.396 E19.75959
G1 X35.121 Y135.509 E19.84252
G1 X37.47 Y134.537 E19.92707
G1 X39.761 Y133.511 E20.01056
G1 X42.041 Y132.412 E20.09474
G1 X44.305 Y131.242 E20.1795
G1 X46.513 Y130.02 E20.26344
G1 X48.665 Y128.746 E20.34662
G1 X50.856 Y127.367 E20.43272
G1 X52.91 Y125.99 E20.51497
G1 X54.992 Y124.508 E20.59997
G1 X57.014 Y122.981 E20.68425
G1 X58.978 Y121.408 E20.76794
G1 X60.873 Y119.799 E20.85062
G1 X62.798 Y118.07 E20.93668
G1 X64.613 Y116.344 E21.01998
G1 X66.416 Y114.532 E21.105
G1 X68.116 Y112.719 E21.18767
G1 X68.902 Y111.833 E21.22706
G1 X69.674 Y110.981 E21.2653
G1 X70.321 Y110.326 E21.29592
G1 X71.023 Y109.73 E21.32655
G1 X71.773 Y109.197 E21.35715
G1 X72.568 Y108.731 E21.3878
G1 X73.399 Y108.336 E21.41841
G1 X74.546 Y107.926 E21.45892
G1 X77.086 Y107.181 E21.54696
G1 X79.456 Y106.416 E21.62979
G1 X81.854 Y105.567 E21.7144
G1 X84.192 Y104.664 E21.79776
G1 X86.568 Y103.667 E21.88346
G1 X88.838 Y102.639 E21.96634
G1 X91.113 Y101.531 E22.05051
G1 X93.362 Y100.355 E22.13492
G1 X95.561 Y99.124 E22.21874
G1 X97.758 Y97.812 E22.30385
G1 X99.853 Y96.479 E22.38644
G1 X101.974 Y95.044 E22.47161
G1 X104.026 Y93.568 E22.55568
G1 X106.024 Y92.046 E22.63922
G1 X107.998 Y90.45 E22.72365
G1 X109.905 Y88.816 E22.80718
G1 X111.804 Y87.095 E22.89242
G1 X113.612 Y85.36 E22.97576
G1 X115.39 Y83.556 E23.06001
G1 X117.124 Y81.693 E23.14466
G1 X118.772 Y79.818 E23.22768
G1 X120.387 Y77.874 E23.31174
G1 X121.953 Y75.875 E23.3962
G1 X123.474 Y73.817 E23.48132
G1 X124.895 Y71.775 E23.56406
G1 X126.292 Y69.644 E23.64881
G1 X127.61 Y67.499 E23.73255
G1 X128.885 Y65.291 E23.81735
G1 X130.084 Y63.072 E23.90124
G1 X131.205 Y60.844 E23.98419
G1 X132.284 Y58.543 E24.06872
G1 X133.289 Y56.233 E24.15251
G1 X134.718 Y52.61 E24.28204
G1 X134.981 Y51.895 E24.30738
G1 X135.336 Y51.045 E24.33802
G1 X135.763 Y50.23 E24.36862
G1 X136.26 Y49.454 E24.39927
G1 X136.997 Y48.522 E24.43879
G1 X137.176 Y48.32 E24.44777
G1 X137.816 Y47.658 E24.47839
G1 X138.511 Y47.054 E24.50902
G1 X139.255 Y46.513 E24.53961
G1 X140.044 Y46.038 E24.57025
G1 X140.871 Y45.634 E24.60086
G1 X141.73 Y45.303 E24.63148
G1 X142.615 Y45.048 E24.66211
G1 X143.518 Y44.87 E24.69272
G1 X144.434 Y44.772 E24.72336
G1 X145.354 Y44.753 E24.75397
G1 X146.273 Y44.814 E24.7846
G1 X147.183 Y44.955 E24.81523
G1 X148.13 Y45.19 E24.84768
G1 X148.352 Y45.256 E24.85538
G1 X148.679 Y45.359 E24.86679
G1 X154.645 Y47.345 E25.07592
G1 X155.532 Y47.632 E25.10693
G1 X194.346 Y60.58 E26.46783
G1 X195.178 Y60.851 E26.49693
G1 X197.452 Y61.627 E26.57684
G1 X198.054 Y61.841 E26.59809
G1 X198.908 Y62.187 E26.62874
G1 X199.728 Y62.606 E26.65937
G1 X200.508 Y63.094 E26.68997
G1 X201.244 Y63.648 E26.72061
G1 X201.668 Y64.017 E26.73931
G1 X201.897 Y64.227 E26.74964
G1 X202.157 Y64.473 E26.76154
G1 X202.809 Y65.115 E26.79198
G1 X203.18 Y65.491 E26.80955
G1 X205.023 Y67.251 E26.89431
G1 X206.885 Y68.932 E26.97774
G1 X209.167 Y70.879 E27.07751
G1 X209.841 Y71.507 E27.10815
G1 X210.458 Y72.19 E27.13877
G1 X211.013 Y72.924 E27.16937
G1 X211.502 Y73.704 E27.19999
G1 X211.865 Y74.398 E27.22604
G1 X212.236 Y75.241 E27.25667
G1 X212.532 Y76.112 E27.28727
G1 X212.751 Y77.006 E27.31789
G1 X212.892 Y77.916 E27.34851
G1 X212.954 Y78.835 E27.37915
G1 X212.936 Y79.755 E27.40975
G1 X212.838 Y80.671 E27.44039
G1 X212.66 Y81.574 E27.47101
G1 X212.405 Y82.459 E27.50164
G1 X212.227 Y82.949 E27.51898
G1 X211.845 Y83.92 E27.55368
G1 X202.393 Y106.799 E28.37702
G1 X201.443 Y109.197 E28.46281
G1 X200.571 Y111.59 E28.54752
G1 X199.769 Y114.002 E28.63207
G1 X199.049 Y116.391 E28.71505
G1 X198.382 Y118.853 E28.79989
G1 X197.78 Y121.349 E28.88529
G1 X197.271 Y123.769 E28.96754
G1 X196.817 Y126.273 E29.05218
G1 X196.433 Y128.789 E29.13683
G1 X196.126 Y131.27 E29.21998
G1 X195.886 Y133.799 E29.30447
G1 X195.716 Y136.348 E29.38944
G1 X195.62 Y138.858 E29.47299
G1 X195.596 Y141.369 E29.55651
G1 X195.642 Y143.914 E29.64117
G1 X195.76 Y146.422 E29.72468
G1 X195.949 Y148.938 E29.80859
G1 X196.215 Y151.516 E29.89479
G1 X196.444 Y153.292 E29.95435
G1 X196.589 Y154.338 E29.98948
G1 X196.675 Y155.254 E30.02008
G1 X196.682 Y156.175 E30.05071
G1 X196.609 Y157.092 E30.08131
G1 X196.457 Y158 E30.11193
G1 X196.196 Y158.988 E30.14591
G1 X195.937 Y159.802 E30.17433
G1 X194.879 Y162.978 E30.28567
G1 X194.509 Y164.069 E30.32398
G1 X193.376 Y167.502 E30.44422
G1 X192.803 Y169.176 E30.50307
G1 X192.018 Y171.532 E30.58567
G1 X191.684 Y172.568 E30.62187
G1 X188.388 Y182.448 E30.96829
G1 X188.169 Y183.075 E30.99038
G1 X187.828 Y183.93 E31.02099
G1 X187.414 Y184.753 E31.05163
G1 X186.93 Y185.536 E31.08225
G1 X186.38 Y186.275 E31.11289
G1 X185.769 Y186.962 E31.14347
G1 X185.099 Y187.595 E31.17412
G1 X184.22 Y188.278 E31.21115
G1 X184.108 Y188.356 E31.21569
G1 X183.33 Y188.849 E31.24632
G1 X182.513 Y189.273 E31.27694
G1 X181.662 Y189.624 E31.30755
G1 X180.783 Y189.9 E31.3382
G1 X179.884 Y190.098 E31.36881
G1 X178.971 Y190.218 E31.39944
G1 X178.223 Y190.257 E31.42435
G1 X177.5 Y190.267 E31.4484
G1 X176.35 Y190.266 E31.48665
G1 X175.685 Y190.256 E31.50877
G1 X174.766 Y190.202 E31.53939
G1 X173.855 Y190.069 E31.57001
G1 X172.959 Y189.857 E31.60064
G1 X172.084 Y189.568 E31.63129
G1 X171.239 Y189.204 E31.66189
G1 X170.333 Y188.712 E31.69618
G1 X169.292 Y188.076 E31.73675
G1 X168.794 Y187.759 E31.75639
G1 X166.62 Y186.459 E31.84064
G1 X164.429 Y185.233 E31.92414
G1 X162.165 Y184.047 E32.00915
G1 X159.924 Y182.953 E32.09209
G1 X157.614 Y181.906 E32.17645
G1 X155.242 Y180.908 E32.26204
G1 X152.936 Y180.019 E32.34424
G1 X150.525 Y179.163 E32.42933
G1 X148.132 Y178.39 E32.51297
G1 X145.711 Y177.683 E32.59686
G1 X143.247 Y177.038 E32.68157
G1 X140.764 Y176.46 E32.76637
G1 X138.315 Y175.968 E32.84945
G1 X135.829 Y175.538 E32.93336
G1 X133.301 Y175.174 E33.01831
G1 X130.799 Y174.886 E33.10208
G1 X128.298 Y174.669 E33.18557
G1 X125.758 Y174.521 E33.2702
G1 X123.233 Y174.446 E33.35422
G1 X121.759 Y174.435 E33.40324
G1 X33.239 Y174.435 E36.34743
G1 X33.072 Y174.434 E36.35298
G1 X32.374 Y174.423 E36.3762
G0 F6000 X32.368 Y174.823
G1 F1200 X31.431 Y174.768 E36.40742
G1 X30.503 Y174.634 E36.43861
G1 X29.59 Y174.421 E36.46979
G1 X28.698 Y174.131 E36.50099
G1 X27.834 Y173.766 E36.53218
G1 X27.004 Y173.329 E36.56338
G1 X26.215 Y172.823 E36.59455
G1 X25.471 Y172.251 E36.62577
G1 X24.779 Y171.618 E36.65696
G1 X24.143 Y170.929 E36.68815
G1 X23.568 Y170.187 E36.71937
G1 X23.059 Y169.4 E36.75054
G1 X22.618 Y168.572 E36.78174
G1 X22.25 Y167.71 E36.81292
G1 X21.957 Y166.819 E36.84411
G1 X21.74 Y165.906 E36.87533
G1 X21.602 Y164.979 E36.9065
G1 X21.545 Y164.123 E36.93503
G1 X21.532 Y163.493 E36.95599
G1 X21.533 Y153.631 E37.284
G1 X21.543 Y152.947 E37.30675
G1 X21.597 Y152.011 E37.33794
G1 X21.73 Y151.083 E37.36912
G1 X22.036 Y149.848 E37.41144
G1 X22.349 Y148.851 E37.44619
G1 X22.566 Y148.205 E37.46886
G1 X23.957 Y144.031 E37.61519
G1 X24.15 Y143.476 E37.63474
G1 X24.496 Y142.604 E37.66594
G1 X24.914 Y141.765 E37.69712
G1 X25.403 Y140.964 E37.72833
G1 X25.958 Y140.208 E37.75952
G1 X26.575 Y139.502 E37.79071
G1 X27.25 Y138.851 E37.8219
