;FLAVOR:Marlin
;TIME:863
;Filament used: 0.192772m
;Layer height: 0.12
;MINX:98.605
;MINY:101.423
;MINZ:0.12
;MAXX:136.395
;MAXY:133.577
;MAXZ:7.56
;Generated with Cura_SteamEngine 4.6.2
M140 S50
M105
M190 S50
M104 S200
M105
M109 S200
M82 ;absolute extrusion mode
; Ender 3 Custom Start G-code
G92 E0 ; Reset Extruder
G28 ; Home all axes
G1 Z2.0 F3000 ; Move Z Axis up little to prevent scratching of Heat Bed
G1 X0.1 Y20 Z0.3 F5000.0 ; Move to start position
G1 X0.1 Y200.0 Z0.3 F1500.0 E15 ; Draw the first line
G1 X0.4 Y200.0 Z0.3 F5000.0 ; Move to side a little
G1 X0.4 Y20 Z0.3 F1500.0 E30 ; Draw the second line
G92 E0 ; Reset Extruder
G1 Z2.0 F3000 ; Move Z Axis up little to prevent scratching of Heat Bed
G1 X5 Y20 Z0.3 F5000.0 ; Move over to prevent blob squish
G92 E0
G92 E0
G1 F2700 E-5
;LAYER_COUNT:63
;LAYER:0
M107
G0 F6000 X125.532 Y102.234 Z0.12
;TYPE:SKIRT
G1 F2700 E0
G1 F1200 X126.434 Y102.287 E0.01803
G1 X127.327 Y102.419 E0.03605
G1 X128.205 Y102.63 E0.05407
G1 X129.061 Y102.918 E0.07209
G1 X129.888 Y103.28 E0.09011
G1 X130.68 Y103.715 E0.10814
G1 X131.431 Y104.217 E0.12616
G1 X132.134 Y104.784 E0.14419
G1 X132.784 Y105.411 E0.16221
G1 X133.376 Y106.093 E0.18023
G1 X133.906 Y106.824 E0.19825
G1 X134.368 Y107.6 E0.21627
G1 X134.761 Y108.413 E0.23429
G1 X135.079 Y109.258 E0.25231
G1 X135.322 Y110.128 E0.27034
G1 X135.487 Y111.016 E0.28836
G1 X135.582 Y112.146 E0.31099
G1 X135.595 Y112.753 E0.32311
G1 X135.594 Y121.967 E0.50698
G1 X135.585 Y122.694 E0.52149
G1 X135.534 Y123.596 E0.53952
G1 X135.403 Y124.49 E0.55755
G1 X135.194 Y125.368 E0.57556
G1 X134.908 Y126.225 E0.59359
G1 X134.547 Y127.053 E0.61162
G1 X134.115 Y127.845 E0.62962
G1 X133.614 Y128.597 E0.64766
G1 X133.048 Y129.301 E0.66568
G1 X132.423 Y129.952 E0.68369
G1 X131.742 Y130.546 E0.70173
G1 X131.011 Y131.077 E0.71976
G1 X130.237 Y131.541 E0.73776
G1 X129.424 Y131.935 E0.75579
G1 X128.58 Y132.255 E0.77381
G1 X127.71 Y132.5 E0.79184
G1 X126.823 Y132.666 E0.80985
G1 X125.672 Y132.764 E0.8329
G1 X125.065 Y132.777 E0.84502
G1 X110.18 Y132.776 E1.14207
G1 X109.482 Y132.767 E1.156
G1 X108.581 Y132.716 E1.17401
G1 X107.687 Y132.584 E1.19204
G1 X106.809 Y132.375 E1.21005
G1 X105.952 Y132.088 E1.22809
G1 X105.125 Y131.727 E1.2461
G1 X104.332 Y131.294 E1.26413
G1 X103.581 Y130.793 E1.28214
G1 X102.877 Y130.227 E1.30017
G1 X102.226 Y129.601 E1.31819
G1 X101.633 Y128.92 E1.33621
G1 X101.103 Y128.189 E1.35423
G1 X100.639 Y127.414 E1.37226
G1 X100.245 Y126.601 E1.39029
G1 X99.925 Y125.757 E1.4083
G1 X99.681 Y124.887 E1.42633
G1 X99.515 Y123.999 E1.44436
G1 X99.418 Y122.844 E1.46749
G1 X99.405 Y122.235 E1.47965
G1 X99.406 Y112.959 E1.66476
G1 X99.415 Y112.294 E1.67803
G1 X99.467 Y111.392 E1.69606
G1 X99.599 Y110.499 E1.71407
G1 X99.809 Y109.621 E1.73209
G1 X100.096 Y108.764 E1.75013
G1 X100.458 Y107.937 E1.76814
G1 X100.891 Y107.145 E1.78615
G1 X101.393 Y106.394 E1.80418
G1 X101.96 Y105.69 E1.82222
G1 X102.586 Y105.04 E1.84023
G1 X103.267 Y104.447 E1.85825
G1 X103.999 Y103.917 E1.87628
G1 X104.774 Y103.454 E1.8943
G1 X105.587 Y103.061 E1.91232
G1 X106.432 Y102.741 E1.93035
G1 X107.301 Y102.498 E1.94836
G1 X108.189 Y102.332 E1.96639
G1 X109.328 Y102.236 E1.9892
G1 X109.935 Y102.223 E2.00131
G1 X124.834 Y102.224 E2.29864
G1 X125.532 Y102.234 E2.31257
G0 F6000 X125.538 Y101.834
G1 F1200 X126.457 Y101.887 E2.33094
G1 X127.368 Y102.02 E2.34931
G1 X128.264 Y102.231 E2.36768
G1 X129.138 Y102.519 E2.38605
G1 X129.985 Y102.882 E2.40444
G1 X130.796 Y103.317 E2.4228
G1 X131.566 Y103.821 E2.44117
G1 X132.29 Y104.39 E2.45954
G1 X132.962 Y105.02 E2.47793
G1 X133.577 Y105.705 E2.4963
G1 X134.13 Y106.441 E2.51467
G1 X134.617 Y107.222 E2.53304
G1 X135.034 Y108.043 E2.55141
G1 X135.379 Y108.897 E2.56979
G1 X135.648 Y109.777 E2.58816
G1 X135.84 Y110.678 E2.60654
G1 X135.953 Y111.591 E2.6249
G1 X135.982 Y112.135 E2.63577
G1 X135.995 Y112.753 E2.64811
G1 X135.994 Y121.972 E2.83208
G1 X135.985 Y122.699 E2.84659
G1 X135.934 Y123.618 E2.86496
G1 X135.803 Y124.53 E2.88335
G1 X135.593 Y125.426 E2.90171
G1 X135.307 Y126.301 E2.92008
G1 X134.946 Y127.148 E2.93846
G1 X134.512 Y127.96 E2.95683
G1 X134.01 Y128.732 E2.97521
G1 X133.442 Y129.457 E2.99359
G1 X132.814 Y130.13 E3.01196
G1 X132.13 Y130.746 E3.03032
G1 X131.395 Y131.3 E3.04869
G1 X130.615 Y131.789 E3.06706
G1 X129.795 Y132.208 E3.08544
G1 X128.942 Y132.554 E3.10381
G1 X128.062 Y132.825 E3.12219
G1 X127.162 Y133.018 E3.14055
G1 X126.248 Y133.133 E3.15894
G1 X125.683 Y133.164 E3.17023
G1 X125.065 Y133.177 E3.18257
G1 X110.175 Y133.176 E3.47971
G1 X109.477 Y133.167 E3.49364
G1 X108.558 Y133.115 E3.51201
G1 X107.647 Y132.984 E3.53038
G1 X106.751 Y132.774 E3.54874
G1 X105.876 Y132.487 E3.56712
G1 X105.029 Y132.125 E3.5855
G1 X104.217 Y131.691 E3.60388
G1 X103.446 Y131.189 E3.62224
G1 X102.721 Y130.621 E3.64062
G1 X102.048 Y129.992 E3.659
G1 X101.433 Y129.308 E3.67735
G1 X100.879 Y128.573 E3.69572
G1 X100.391 Y127.792 E3.7141
G1 X99.972 Y126.972 E3.73248
G1 X99.626 Y126.119 E3.75085
G1 X99.356 Y125.239 E3.76922
G1 X99.163 Y124.338 E3.7876
G1 X99.049 Y123.425 E3.80597
G1 X99.018 Y122.854 E3.81738
G1 X99.005 Y122.235 E3.82973
G1 X99.006 Y112.954 E4.01495
G1 X99.015 Y112.289 E4.02822
G1 X99.067 Y111.369 E4.04661
G1 X99.199 Y110.458 E4.06498
G1 X99.41 Y109.562 E4.08335
G1 X99.697 Y108.687 E4.10172
G1 X100.06 Y107.841 E4.12009
G1 X100.494 Y107.029 E4.13847
G1 X100.997 Y106.258 E4.15684
G1 X101.566 Y105.534 E4.17521
G1 X102.194 Y104.862 E4.19357
G1 X102.879 Y104.246 E4.21195
G1 X103.615 Y103.693 E4.23033
G1 X104.396 Y103.205 E4.2487
G1 X105.216 Y102.787 E4.26707
G1 X106.07 Y102.442 E4.28545
G1 X106.95 Y102.172 E4.30382
G1 X107.85 Y101.98 E4.32219
G1 X108.764 Y101.866 E4.34057
G1 X109.317 Y101.836 E4.35162
G1 X109.935 Y101.823 E4.36395
G1 X124.84 Y101.824 E4.6614
G1 X125.538 Y101.834 E4.67533
G0 F6000 X125.544 Y101.434
G1 F1200 X126.48 Y101.488 E4.69404
G1 X127.408 Y101.62 E4.71275
G1 X128.322 Y101.832 E4.73147
G1 X129.214 Y102.121 E4.75018
G1 X130.079 Y102.484 E4.7689
G1 X130.909 Y102.92 E4.78761
G1 X131.7 Y103.425 E4.80634
G1 X132.444 Y103.996 E4.82506
G1 X133.137 Y104.628 E4.84377
G1 X133.774 Y105.316 E4.86248
G1 X134.349 Y106.057 E4.8812
G1 X134.86 Y106.843 E4.89991
G1 X135.302 Y107.671 E4.91864
G1 X135.671 Y108.533 E4.93735
G1 X135.966 Y109.423 E4.95606
G1 X136.184 Y110.335 E4.97478
G1 X136.324 Y111.263 E4.99351
G1 X136.382 Y112.124 E5.01073
G1 X136.395 Y112.753 E5.02328
G1 X136.394 Y121.977 E5.20736
G1 X136.385 Y122.704 E5.22187
G1 X136.334 Y123.641 E5.24059
G1 X136.202 Y124.569 E5.2593
G1 X135.993 Y125.483 E5.27801
G1 X135.706 Y126.376 E5.29673
G1 X135.344 Y127.242 E5.31546
G1 X134.91 Y128.073 E5.33417
G1 X134.406 Y128.864 E5.35288
G1 X133.837 Y129.609 E5.37159
G1 X133.206 Y130.304 E5.39033
G1 X132.519 Y130.942 E5.40904
G1 X131.78 Y131.519 E5.42775
G1 X130.994 Y132.031 E5.44647
G1 X130.168 Y132.474 E5.46517
G1 X129.306 Y132.846 E5.48391
G1 X128.417 Y133.142 E5.5026
G1 X127.505 Y133.362 E5.52133
G1 X126.578 Y133.503 E5.54004
G1 X125.694 Y133.564 E5.55772
G1 X125.065 Y133.577 E5.57028
G1 X110.17 Y133.576 E5.86752
G1 X109.472 Y133.567 E5.88145
G1 X108.536 Y133.515 E5.90016
G1 X107.607 Y133.383 E5.91889
G1 X106.693 Y133.173 E5.9376
G1 X105.8 Y132.886 E5.95632
G1 X104.935 Y132.523 E5.97504
G1 X104.104 Y132.089 E5.99375
G1 X103.313 Y131.585 E6.01247
G1 X102.568 Y131.015 E6.03119
G1 X101.874 Y130.384 E6.0499
G1 X101.237 Y129.697 E6.0686
G1 X100.66 Y128.957 E6.08733
G1 X100.148 Y128.171 E6.10605
G1 X99.705 Y127.344 E6.12477
G1 X99.334 Y126.483 E6.14348
G1 X99.038 Y125.593 E6.1622
G1 X98.819 Y124.681 E6.18091
G1 X98.678 Y123.754 E6.19963
G1 X98.618 Y122.865 E6.21741
G1 X98.605 Y122.235 E6.22998
G1 X98.606 Y112.948 E6.41531
G1 X98.615 Y112.283 E6.42859
G1 X98.668 Y111.347 E6.44729
G1 X98.8 Y110.418 E6.46602
G1 X99.011 Y109.504 E6.48474
G1 X99.299 Y108.612 E6.50344
G1 X99.662 Y107.747 E6.52217
G1 X100.097 Y106.916 E6.54088
G1 X100.601 Y106.126 E6.55958
G1 X101.171 Y105.381 E6.5783
G1 X101.803 Y104.687 E6.59704
G1 X102.491 Y104.05 E6.61575
G1 X103.231 Y103.474 E6.63446
G1 X104.017 Y102.962 E6.65318
G1 X104.844 Y102.52 E6.67189
G1 X105.706 Y102.15 E6.69061
G1 X106.596 Y101.854 E6.70933
G1 X107.508 Y101.636 E6.72804
G1 X108.435 Y101.495 E6.74676
G1 X109.306 Y101.436 E6.76418
G1 X109.935 Y101.423 E6.77673
G1 X124.846 Y101.424 E7.0743
G1 X125.544 Y101.434 E7.08823
G1 F2700 E2.08823
;MESH:LED_spacer.stl
G0 F6000 X124.981 Y111.758
G0 X124.981 Y112.837
G0 X110.787 Y113.605
G0 X110.605 Y121.577
;TYPE:WALL-INNER
G1 F2700 E7.08823
G1 F1200 X110.605 Y113.423 E7.25095
G1 X124.395 Y113.423 E7.52614
G1 X124.395 Y121.577 E7.68887
G1 X110.605 Y121.577 E7.96406
G0 F6000 X110.205 Y121.977
G1 F1200 X110.205 Y113.023 E8.14275
G1 X124.795 Y113.023 E8.43391
G1 X124.795 Y121.977 E8.61259
G1 X110.205 Y121.977 E8.90375
G0 F6000 X109.805 Y122.377
;TYPE:WALL-OUTER
G1 F1200 X109.805 Y112.623 E9.0984
G1 X125.195 Y112.623 E9.40553
G1 X125.195 Y122.377 E9.60018
G1 X109.805 Y122.377 E9.9073
G0 F6000 X110.075 Y122.107
G0 X110.715 Y121.187
G0 X110.995 Y121.187
;TYPE:SKIN
G1 F1200 X110.995 Y113.813 E10.05446
G1 X124.005 Y113.813 E10.31409
G1 X124.005 Y121.187 E10.46124
G1 X110.995 Y121.187 E10.72087
G0 F6000 X111.409 Y121.026
G1 F1200 X111.155 Y120.771 E10.72806
G0 F6000 X111.155 Y120.206
G1 F1200 X111.975 Y121.026 E10.7512
G0 F6000 X112.54 Y121.026
G1 F1200 X111.155 Y119.64 E10.7903
G0 F6000 X111.155 Y119.074
G1 F1200 X113.106 Y121.026 E10.84537
G0 F6000 X113.672 Y121.026
G1 F1200 X111.155 Y118.508 E10.91642
G0 F6000 X111.155 Y117.943
G1 F1200 X114.238 Y121.026 E11.00343
G0 F6000 X114.803 Y121.026
G1 F1200 X111.155 Y117.377 E11.1064
G0 F6000 X111.155 Y116.811
G1 F1200 X115.369 Y121.026 E11.22534
G0 F6000 X115.935 Y121.026
G1 F1200 X111.155 Y116.246 E11.36025
G0 F6000 X111.155 Y115.68
G1 F1200 X116.5 Y121.026 E11.51111
G0 F6000 X117.066 Y121.026
G1 F1200 X111.155 Y115.114 E11.67794
G0 F6000 X111.155 Y114.549
G1 F1200 X117.632 Y121.026 E11.86074
G0 F6000 X118.197 Y121.026
G1 F1200 X111.155 Y113.983 E12.05949
G0 F6000 X111.71 Y113.972
G1 F1200 X118.763 Y121.026 E12.25856
G0 F6000 X119.329 Y121.026
G1 F1200 X112.275 Y113.972 E12.45764
G0 F6000 X112.841 Y113.972
G1 F1200 X119.894 Y121.026 E12.6567
G0 F6000 X120.46 Y121.026
G1 F1200 X113.407 Y113.972 E12.85577
G0 F6000 X113.972 Y113.972
G1 F1200 X121.026 Y121.026 E13.05485
G0 F6000 X121.591 Y121.026
G1 F1200 X114.538 Y113.972 E13.25391
G0 F6000 X115.104 Y113.972
G1 F1200 X122.157 Y121.026 E13.45298
G0 F6000 X122.723 Y121.026
G1 F1200 X115.669 Y113.972 E13.65205
G0 F6000 X116.235 Y113.972
G1 F1200 X123.289 Y121.026 E13.85113
G0 F6000 X123.844 Y121.015
G1 F1200 X116.801 Y113.972 E14.0499
G0 F6000 X117.366 Y113.972
G1 F1200 X123.844 Y120.449 E14.23271
G0 F6000 X123.844 Y119.884
G1 F1200 X117.932 Y113.972 E14.39956
G0 F6000 X118.498 Y113.972
G1 F1200 X123.844 Y119.318 E14.55044
G0 F6000 X123.844 Y118.752
G1 F1200 X119.064 Y113.972 E14.68534
G0 F6000 X119.629 Y113.972
G1 F1200 X123.844 Y118.187 E14.8043
G0 F6000 X123.844 Y117.621
G1 F1200 X120.195 Y113.972 E14.90728
G0 F6000 X120.761 Y113.972
G1 F1200 X123.844 Y117.055 E14.99429
G0 F6000 X123.844 Y116.49
G1 F1200 X121.326 Y113.972 E15.06535
G0 F6000 X121.892 Y113.972
G1 F1200 X123.844 Y115.924 E15.12044
G0 F6000 X123.844 Y115.358
G1 F1200 X122.458 Y113.972 E15.15956
G0 F6000 X123.023 Y113.972
G1 F1200 X123.844 Y114.793 E15.18273
G0 F6000 X123.844 Y114.227
G1 F1200 X123.589 Y113.972 E15.18992
G0 F6000 X123.589 Y113.233
;MESH:NONMESH
G0 F300 X123.589 Y113.233 Z0.24
G0 F6000 X110.787 Y113.605
G0 X110.605 Y121.577
;TIME_ELAPSED:47.382338
;LAYER:1
M140 S50
M106 S85
;TYPE:WALL-INNER
;MESH:LED_spacer.stl
G1 F1350 X110.605 Y113.423 E15.35264
G1 X124.395 Y113.423 E15.62784
G1 X124.395 Y121.577 E15.79056
G1 X110.605 Y121.577 E16.06576
G0 F7500 X110.205 Y121.977
G1 F1350 X110.205 Y113.023 E16.24444
G1 X124.795 Y113.023 E16.5356
G1 X124.795 Y121.977 E16.71429
G1 X110.205 Y121.977 E17.00545
G0 F7500 X109.805 Y122.377
;TYPE:WALL-OUTER
G1 F1350 X109.805 Y112.623 E17.2001
G1 X125.195 Y112.623 E17.50722
G1 X125.195 Y122.377 E17.70187
G1 X109.805 Y122.377 E18.009
G0 F7500 X110.075 Y122.107
G0 X110.715 Y121.187
G0 X110.995 Y121.187
;TYPE:SKIN
G1 F1350 X110.995 Y113.813 E18.15615
G1 X124.005 Y113.813 E18.41578
G1 X124.005 Y121.187 E18.56294
G1 X110.995 Y121.187 E18.82257
G0 F7500 X110.715 Y121.187
G0 X110.715 Y114.553
G0 X111.155 Y114.553
G1 F1350 X111.736 Y113.972 E18.83897
G0 F7500 X112.301 Y113.972
G1 F1350 X111.155 Y115.119 E18.87132
G0 F7500 X111.155 Y115.684
G1 F1350 X112.867 Y113.972 E18.91964
G0 F7500 X113.433 Y113.972
G1 F1350 X111.155 Y116.25 E18.98393
G0 F7500 X111.155 Y116.816
G1 F1350 X113.999 Y113.972 E19.06419
G0 F7500 X114.564 Y113.972
G1 F1350 X111.155 Y117.381 E19.1604
G0 F7500 X111.155 Y117.947
G1 F1350 X115.13 Y113.972 E19.27258
G0 F7500 X115.696 Y113.972
G1 F1350 X111.155 Y118.513 E19.40074
G0 F7500 X111.155 Y119.078
G1 F1350 X116.261 Y113.972 E19.54484
G0 F7500 X116.827 Y113.972
G1 F1350 X111.155 Y119.644 E19.70492
G0 F7500 X111.155 Y120.21
G1 F1350 X117.393 Y113.972 E19.88097
G0 F7500 X117.958 Y113.972
G1 F1350 X111.155 Y120.775 E20.07296
G0 F7500 X111.469 Y121.026
G1 F1350 X118.524 Y113.972 E20.27206
G0 F7500 X119.09 Y113.972
G1 F1350 X112.035 Y121.026 E20.47115
G0 F7500 X112.601 Y121.026
G1 F1350 X119.655 Y113.972 E20.67023
G0 F7500 X120.221 Y113.972
G1 F1350 X113.166 Y121.026 E20.86932
G0 F7500 X113.732 Y121.026
G1 F1350 X120.787 Y113.972 E21.06842
G0 F7500 X121.352 Y113.972
G1 F1350 X114.298 Y121.026 E21.2675
G0 F7500 X114.863 Y121.026
G1 F1350 X121.918 Y113.972 E21.46659
G0 F7500 X122.484 Y113.972
G1 F1350 X115.429 Y121.026 E21.66568
G0 F7500 X115.995 Y121.026
G1 F1350 X123.05 Y113.972 E21.86478
G0 F7500 X123.615 Y113.972
G1 F1350 X116.56 Y121.026 E22.06387
G0 F7500 X117.126 Y121.026
G1 F1350 X123.844 Y114.309 E22.25345
G0 F7500 X123.844 Y114.875
G1 F1350 X117.692 Y121.026 E22.42706
G0 F7500 X118.257 Y121.026
G1 F1350 X123.844 Y115.44 E22.58472
G0 F7500 X123.844 Y116.006
G1 F1350 X118.823 Y121.026 E22.72641
G0 F7500 X119.389 Y121.026
G1 F1350 X123.844 Y116.572 E22.85213
G0 F7500 X123.844 Y117.137
G1 F1350 X119.955 Y121.026 E22.96188
G0 F7500 X120.52 Y121.026
G1 F1350 X123.844 Y117.703 E23.05568
G0 F7500 X123.844 Y118.269
G1 F1350 X121.086 Y121.026 E23.1335
G0 F7500 X121.652 Y121.026
G1 F1350 X123.844 Y118.834 E23.19537
G0 F7500 X123.844 Y119.4
G1 F1350 X122.217 Y121.026 E23.24127
G0 F7500 X122.783 Y121.026
G1 F1350 X123.844 Y119.966 E23.2712
G0 F7500 X123.844 Y120.532
G1 F1350 X123.349 Y121.026 E23.28515
G0 F7500 X123.349 Y121.767
;MESH:NONMESH
G0 F300 X123.349 Y121.767 Z0.36
G0 F7500 X110.605 Y121.577
;TIME_ELAPSED:69.159733
;LAYER:2
M106 S170
;TYPE:WALL-INNER
;MESH:LED_spacer.stl
G1 F1500 X110.605 Y113.423 E23.44788
G1 X124.395 Y113.423 E23.72307
G1 X124.395 Y121.577 E23.88579
G1 X110.605 Y121.577 E24.16099
G0 F9000 X110.205 Y121.977
G1 F1500 X110.205 Y113.023 E24.33967
G1 X124.795 Y113.023 E24.63083
G1 X124.795 Y121.977 E24.80952
G1 X110.205 Y121.977 E25.10068
G0 F9000 X109.805 Y122.377
;TYPE:WALL-OUTER
G1 F1500 X109.805 Y112.623 E25.29533
G1 X125.195 Y112.623 E25.60245
G1 X125.195 Y122.377 E25.79711
G1 X109.805 Y122.377 E26.10423
G0 F9000 X110.075 Y122.107
G0 X110.715 Y121.187
G0 X110.995 Y121.187
;TYPE:SKIN
G1 F1500 X110.995 Y113.813 E26.25139
G1 X124.005 Y113.813 E26.51102
G1 X124.005 Y121.187 E26.65817
G1 X110.995 Y121.187 E26.9178
G0 F9000 X111.409 Y121.026
G1 F1500 X111.155 Y120.771 E26.92498
G0 F9000 X111.155 Y120.206
G1 F1500 X111.975 Y121.026 E26.94812
G0 F9000 X112.54 Y121.026
G1 F1500 X111.155 Y119.64 E26.98723
G0 F9000 X111.155 Y119.074
G1 F1500 X113.106 Y121.026 E27.0423
G0 F9000 X113.672 Y121.026
G1 F1500 X111.155 Y118.508 E27.11335
G0 F9000 X111.155 Y117.943
G1 F1500 X114.238 Y121.026 E27.20036
G0 F9000 X114.803 Y121.026
G1 F1500 X111.155 Y117.377 E27.30333
G0 F9000 X111.155 Y116.811
G1 F1500 X115.369 Y121.026 E27.42227
G0 F9000 X115.935 Y121.026
G1 F1500 X111.155 Y116.246 E27.55717
G0 F9000 X111.155 Y115.68
G1 F1500 X116.5 Y121.026 E27.70803
G0 F9000 X117.066 Y121.026
G1 F1500 X111.155 Y115.114 E27.87487
G0 F9000 X111.155 Y114.549
