;FLAVOR:Marlin
;TIME:907
;Filament used: 0.215397m
;Layer height: 0.12
;MINX:98.855
;MINY:101.42
;MINZ:0.12
;MAXX:136.145
;MAXY:133.58
;MAXZ:7.56
;Generated with Cura_SteamEngine 4.6.2
M140 S50
M105
M190 S50
M104 S200
M105
M109 S200
M82 ;absolute extrusion mode
; Ender 3 Custom Start G-code
G92 E0 ; Reset Extruder
G28 ; Home all axes
G1 Z2.0 F3000 ; Move Z Axis up little to prevent scratching of Heat Bed
G1 X0.1 Y20 Z0.3 F5000.0 ; Move to start position
G1 X0.1 Y200.0 Z0.3 F1500.0 E15 ; Draw the first line
G1 X0.4 Y200.0 Z0.3 F5000.0 ; Move to side a little
G1 X0.4 Y20 Z0.3 F1500.0 E30 ; Draw the second line
G92 E0 ; Reset Extruder
G1 Z2.0 F3000 ; Move Z Axis up little to prevent scratching of Heat Bed
G1 X5 Y20 Z0.3 F5000.0 ; Move over to prevent blob squish
G92 E0
G92 E0
G1 F2700 E-5
;LAYER_COUNT:63
;LAYER:0
M107
G0 F6000 X125.282 Y102.231 Z0.12
;TYPE:SKIRT
G1 F2700 E0
G1 F1200 X126.184 Y102.284 E0.01803
G1 X127.077 Y102.416 E0.03605
G1 X127.955 Y102.627 E0.05407
G1 X128.811 Y102.915 E0.07209
G1 X129.638 Y103.277 E0.09011
G1 X130.43 Y103.712 E0.10814
G1 X131.181 Y104.214 E0.12616
G1 X131.884 Y104.781 E0.14419
G1 X132.534 Y105.408 E0.16221
G1 X133.126 Y106.09 E0.18023
G1 X133.656 Y106.821 E0.19825
G1 X134.118 Y107.597 E0.21627
G1 X134.511 Y108.41 E0.23429
G1 X134.829 Y109.255 E0.25231
G1 X135.072 Y110.125 E0.27034
G1 X135.237 Y111.013 E0.28836
G1 X135.332 Y112.143 E0.31099
G1 X135.345 Y112.75 E0.32311
G1 X135.344 Y121.97 E0.5071
G1 X135.335 Y122.697 E0.52161
G1 X135.284 Y123.599 E0.53964
G1 X135.153 Y124.493 E0.55767
G1 X134.944 Y125.371 E0.57568
G1 X134.658 Y126.228 E0.59371
G1 X134.297 Y127.056 E0.61174
G1 X133.865 Y127.848 E0.62974
G1 X133.364 Y128.6 E0.64778
G1 X132.798 Y129.304 E0.6658
G1 X132.173 Y129.955 E0.68381
G1 X131.492 Y130.549 E0.70185
G1 X130.761 Y131.08 E0.71988
G1 X129.987 Y131.544 E0.73788
G1 X129.174 Y131.938 E0.75591
G1 X128.33 Y132.258 E0.77393
G1 X127.46 Y132.503 E0.79196
G1 X126.573 Y132.669 E0.80997
G1 X125.422 Y132.767 E0.83302
G1 X124.815 Y132.78 E0.84514
G1 X110.43 Y132.779 E1.13221
G1 X109.732 Y132.77 E1.14614
G1 X108.831 Y132.719 E1.16415
G1 X107.937 Y132.587 E1.18218
G1 X107.059 Y132.378 E1.20019
G1 X106.202 Y132.091 E1.21823
G1 X105.375 Y131.73 E1.23624
G1 X104.582 Y131.297 E1.25427
G1 X103.831 Y130.796 E1.27228
G1 X103.127 Y130.23 E1.29031
G1 X102.476 Y129.604 E1.30833
G1 X101.883 Y128.923 E1.32635
G1 X101.353 Y128.192 E1.34437
G1 X100.889 Y127.417 E1.3624
G1 X100.495 Y126.604 E1.38043
G1 X100.175 Y125.76 E1.39844
G1 X99.931 Y124.89 E1.41647
G1 X99.765 Y124.002 E1.4345
G1 X99.668 Y122.847 E1.45763
G1 X99.655 Y122.238 E1.46979
G1 X99.656 Y112.956 E1.65502
G1 X99.665 Y112.291 E1.66829
G1 X99.717 Y111.389 E1.68632
G1 X99.849 Y110.496 E1.70434
G1 X100.059 Y109.618 E1.72235
G1 X100.346 Y108.761 E1.74039
G1 X100.708 Y107.934 E1.7584
G1 X101.141 Y107.142 E1.77642
G1 X101.643 Y106.391 E1.79444
G1 X102.21 Y105.687 E1.81248
G1 X102.836 Y105.037 E1.83049
G1 X103.517 Y104.444 E1.84851
G1 X104.249 Y103.914 E1.86655
G1 X105.024 Y103.451 E1.88456
G1 X105.837 Y103.058 E1.90258
G1 X106.682 Y102.738 E1.92061
G1 X107.551 Y102.495 E1.93862
G1 X108.439 Y102.329 E1.95665
G1 X109.578 Y102.233 E1.97946
G1 X110.185 Y102.22 E1.99158
G1 X124.584 Y102.221 E2.27892
G1 X125.282 Y102.231 E2.29285
G0 F6000 X125.288 Y101.831
G1 F1200 X126.207 Y101.884 E2.31122
G1 X127.118 Y102.017 E2.3296
G1 X128.014 Y102.228 E2.34797
G1 X128.888 Y102.516 E2.36633
G1 X129.735 Y102.879 E2.38472
G1 X130.546 Y103.314 E2.40309
G1 X131.316 Y103.818 E2.42145
G1 X132.04 Y104.387 E2.43983
G1 X132.712 Y105.017 E2.45821
G1 X133.327 Y105.702 E2.47658
G1 X133.88 Y106.438 E2.49495
G1 X134.367 Y107.219 E2.51332
G1 X134.784 Y108.04 E2.5317
G1 X135.129 Y108.894 E2.55008
G1 X135.398 Y109.774 E2.56844
G1 X135.59 Y110.675 E2.58682
G1 X135.703 Y111.588 E2.60518
G1 X135.732 Y112.132 E2.61605
G1 X135.745 Y112.75 E2.62839
G1 X135.744 Y121.975 E2.81249
G1 X135.735 Y122.702 E2.82699
G1 X135.684 Y123.621 E2.84536
G1 X135.553 Y124.533 E2.86375
G1 X135.343 Y125.429 E2.88211
G1 X135.057 Y126.304 E2.90048
G1 X134.696 Y127.151 E2.91886
G1 X134.262 Y127.963 E2.93723
G1 X133.76 Y128.735 E2.95561
G1 X133.192 Y129.46 E2.97399
G1 X132.564 Y130.133 E2.99236
G1 X131.88 Y130.749 E3.01073
G1 X131.145 Y131.303 E3.0291
G1 X130.365 Y131.792 E3.04747
G1 X129.545 Y132.211 E3.06584
G1 X128.692 Y132.557 E3.08421
G1 X127.812 Y132.828 E3.10259
G1 X126.912 Y133.021 E3.12096
G1 X125.998 Y133.136 E3.13934
G1 X125.433 Y133.167 E3.15063
G1 X124.815 Y133.18 E3.16297
G1 X110.425 Y133.179 E3.45014
G1 X109.727 Y133.17 E3.46407
G1 X108.808 Y133.118 E3.48244
G1 X107.897 Y132.987 E3.5008
G1 X107.001 Y132.777 E3.51917
G1 X106.126 Y132.49 E3.53755
G1 X105.279 Y132.128 E3.55593
G1 X104.467 Y131.694 E3.5743
G1 X103.696 Y131.192 E3.59266
G1 X102.971 Y130.624 E3.61104
G1 X102.298 Y129.995 E3.62942
G1 X101.683 Y129.311 E3.64778
G1 X101.129 Y128.576 E3.66615
G1 X100.641 Y127.795 E3.68453
G1 X100.222 Y126.975 E3.7029
G1 X99.876 Y126.122 E3.72127
G1 X99.606 Y125.242 E3.73964
G1 X99.413 Y124.341 E3.75803
G1 X99.299 Y123.428 E3.77639
G1 X99.268 Y122.857 E3.7878
G1 X99.255 Y122.238 E3.80016
G1 X99.256 Y112.951 E3.98549
G1 X99.265 Y112.286 E3.99876
G1 X99.317 Y111.366 E4.01715
G1 X99.449 Y110.455 E4.03552
G1 X99.66 Y109.559 E4.05389
G1 X99.947 Y108.684 E4.07227
G1 X100.31 Y107.838 E4.09064
G1 X100.744 Y107.026 E4.10901
G1 X101.247 Y106.255 E4.12738
G1 X101.816 Y105.531 E4.14576
G1 X102.444 Y104.859 E4.16411
G1 X103.129 Y104.243 E4.1825
G1 X103.865 Y103.69 E4.20087
G1 X104.646 Y103.202 E4.21925
G1 X105.466 Y102.784 E4.23762
G1 X106.32 Y102.439 E4.256
G1 X107.2 Y102.169 E4.27437
G1 X108.1 Y101.977 E4.29273
G1 X109.014 Y101.863 E4.31111
G1 X109.567 Y101.833 E4.32216
G1 X110.185 Y101.82 E4.3345
G1 X124.59 Y101.821 E4.62197
G1 X125.288 Y101.831 E4.6359
G0 F6000 X125.294 Y101.431
G1 F1200 X126.23 Y101.485 E4.65461
G1 X127.158 Y101.617 E4.67331
G1 X128.072 Y101.829 E4.69204
G1 X128.964 Y102.118 E4.71075
G1 X129.829 Y102.481 E4.72947
G1 X130.659 Y102.917 E4.74818
G1 X131.45 Y103.422 E4.76691
G1 X132.194 Y103.993 E4.78562
G1 X132.887 Y104.625 E4.80434
G1 X133.524 Y105.313 E4.82305
G1 X134.099 Y106.054 E4.84177
G1 X134.61 Y106.84 E4.86048
G1 X135.052 Y107.668 E4.87921
G1 X135.421 Y108.53 E4.89792
G1 X135.716 Y109.42 E4.91663
G1 X135.934 Y110.332 E4.93534
G1 X136.074 Y111.26 E4.95407
G1 X136.132 Y112.121 E4.97129
G1 X136.145 Y112.75 E4.98385
G1 X136.144 Y121.98 E5.16804
G1 X136.135 Y122.707 E5.18255
G1 X136.084 Y123.644 E5.20128
G1 X135.952 Y124.572 E5.21998
G1 X135.743 Y125.486 E5.2387
G1 X135.456 Y126.379 E5.25741
G1 X135.094 Y127.245 E5.27614
G1 X134.66 Y128.076 E5.29485
G1 X134.156 Y128.867 E5.31357
G1 X133.587 Y129.612 E5.33228
G1 X132.956 Y130.307 E5.35101
G1 X132.269 Y130.945 E5.36972
G1 X131.53 Y131.522 E5.38843
G1 X130.744 Y132.034 E5.40715
G1 X129.918 Y132.477 E5.42586
G1 X129.056 Y132.849 E5.44459
G1 X128.167 Y133.145 E5.46329
G1 X127.255 Y133.365 E5.48201
G1 X126.328 Y133.506 E5.50072
G1 X125.444 Y133.567 E5.51841
G1 X124.815 Y133.58 E5.53096
G1 X110.42 Y133.579 E5.81823
G1 X109.722 Y133.57 E5.83216
G1 X108.786 Y133.518 E5.85087
G1 X107.857 Y133.386 E5.86959
G1 X106.943 Y133.176 E5.88831
G1 X106.05 Y132.889 E5.90703
G1 X105.185 Y132.526 E5.92575
G1 X104.354 Y132.092 E5.94446
G1 X103.563 Y131.588 E5.96317
G1 X102.818 Y131.018 E5.98189
G1 X102.124 Y130.387 E6.00061
G1 X101.487 Y129.7 E6.01931
G1 X100.91 Y128.96 E6.03804
G1 X100.398 Y128.174 E6.05675
G1 X99.955 Y127.347 E6.07548
G1 X99.584 Y126.486 E6.09419
G1 X99.288 Y125.596 E6.1129
G1 X99.069 Y124.684 E6.13162
G1 X98.928 Y123.757 E6.15033
G1 X98.868 Y122.868 E6.16811
G1 X98.855 Y122.238 E6.18069
G1 X98.856 Y112.945 E6.36614
G1 X98.865 Y112.28 E6.37941
G1 X98.918 Y111.344 E6.39812
G1 X99.05 Y110.415 E6.41685
G1 X99.261 Y109.501 E6.43557
G1 X99.549 Y108.609 E6.45427
G1 X99.912 Y107.744 E6.47299
G1 X100.347 Y106.913 E6.49171
G1 X100.851 Y106.123 E6.51041
G1 X101.421 Y105.378 E6.52913
G1 X102.053 Y104.684 E6.54786
G1 X102.741 Y104.047 E6.56657
G1 X103.481 Y103.471 E6.58529
G1 X104.267 Y102.959 E6.60401
G1 X105.094 Y102.517 E6.62272
G1 X105.956 Y102.147 E6.64144
G1 X106.846 Y101.851 E6.66016
G1 X107.758 Y101.633 E6.67887
G1 X108.685 Y101.492 E6.69758
G1 X109.556 Y101.433 E6.715
G1 X110.185 Y101.42 E6.72756
G1 X124.596 Y101.421 E7.01515
G1 X125.294 Y101.431 E7.02908
G1 F2700 E2.02908
;MESH:LED_spacer_r2.stl
G0 F6000 X124.731 Y111.755
G0 X124.731 Y112.834
G0 X111.037 Y113.602
G0 X110.855 Y121.58
;TYPE:WALL-INNER
G1 F2700 E7.02908
G1 F1200 X110.855 Y113.42 E7.19192
G1 X124.145 Y113.42 E7.45714
G1 X124.145 Y121.58 E7.61998
G1 X110.855 Y121.58 E7.88519
G0 F6000 X110.455 Y121.98
G1 F1200 X110.455 Y113.02 E8.064
G1 X124.545 Y113.02 E8.34518
G1 X124.545 Y121.98 E8.52399
G1 X110.455 Y121.98 E8.80517
G0 F6000 X110.055 Y122.38
;TYPE:WALL-OUTER
G1 F1200 X110.055 Y112.62 E8.99994
G1 X124.945 Y112.62 E9.29709
G1 X124.945 Y122.38 E9.49186
G1 X110.055 Y122.38 E9.789
G0 F6000 X110.325 Y122.11
G0 X110.965 Y121.19
G0 X111.245 Y121.19
;TYPE:SKIN
G1 F1200 X111.245 Y113.81 E9.93628
G1 X123.755 Y113.81 E10.18593
G1 X123.755 Y121.19 E10.33321
G1 X111.245 Y121.19 E10.58286
G0 F6000 X111.978 Y121.029
G1 F1200 X111.405 Y120.456 E10.59903
G0 F6000 X111.405 Y119.89
G1 F1200 X112.543 Y121.029 E10.63116
G0 F6000 X113.109 Y121.029
G1 F1200 X111.405 Y119.324 E10.67926
G0 F6000 X111.405 Y118.759
G1 F1200 X113.675 Y121.029 E10.74333
G0 F6000 X114.24 Y121.029
G1 F1200 X111.405 Y118.193 E10.82335
G0 F6000 X111.405 Y117.627
G1 F1200 X114.806 Y121.029 E10.91935
G0 F6000 X115.372 Y121.029
G1 F1200 X111.405 Y117.062 E11.03131
G0 F6000 X111.405 Y116.496
G1 F1200 X115.937 Y121.029 E11.15922
G0 F6000 X116.503 Y121.029
G1 F1200 X111.405 Y115.93 E11.30311
G0 F6000 X111.405 Y115.365
G1 F1200 X117.069 Y121.029 E11.46296
G0 F6000 X117.634 Y121.029
G1 F1200 X111.405 Y114.799 E11.63877
G0 F6000 X111.405 Y114.233
G1 F1200 X118.2 Y121.029 E11.83056
G0 F6000 X118.766 Y121.029
G1 F1200 X111.707 Y113.97 E12.02978
G0 F6000 X112.273 Y113.97
G1 F1200 X119.332 Y121.029 E12.229
G0 F6000 X119.897 Y121.029
G1 F1200 X112.838 Y113.97 E12.42822
G0 F6000 X113.404 Y113.97
G1 F1200 X120.463 Y121.029 E12.62744
G0 F6000 X121.029 Y121.029
G1 F1200 X113.97 Y113.97 E12.82666
G0 F6000 X114.535 Y113.97
G1 F1200 X121.594 Y121.029 E13.02588
G0 F6000 X122.16 Y121.029
G1 F1200 X115.101 Y113.97 E13.2251
G0 F6000 X115.667 Y113.97
G1 F1200 X122.726 Y121.029 E13.42432
G0 F6000 X123.291 Y121.029
G1 F1200 X116.232 Y113.97 E13.62354
G0 F6000 X116.798 Y113.97
G1 F1200 X123.593 Y120.765 E13.81531
G0 F6000 X123.593 Y120.199
G1 F1200 X117.364 Y113.97 E13.99111
G0 F6000 X117.929 Y113.97
G1 F1200 X123.593 Y119.633 E14.15094
G0 F6000 X123.593 Y119.068
G1 F1200 X118.495 Y113.97 E14.29482
G0 F6000 X119.061 Y113.97
G1 F1200 X123.593 Y118.502 E14.42272
G0 F6000 X123.593 Y117.936
G1 F1200 X119.626 Y113.97 E14.53466
G0 F6000 X120.192 Y113.97
G1 F1200 X123.593 Y117.371 E14.63065
G0 F6000 X123.593 Y116.805
G1 F1200 X120.758 Y113.97 E14.71066
G0 F6000 X121.323 Y113.97
G1 F1200 X123.593 Y116.239 E14.77471
G0 F6000 X123.593 Y115.674
G1 F1200 X121.889 Y113.97 E14.8228
G0 F6000 X122.455 Y113.97
G1 F1200 X123.593 Y115.108 E14.85492
G0 F6000 X123.593 Y114.542
G1 F1200 X123.021 Y113.97 E14.87106
G0 F6000 X123.021 Y113.23
;MESH:NONMESH
G0 F300 X123.021 Y113.23 Z0.24
G0 F6000 X111.037 Y113.602
G0 X110.855 Y121.58
;TIME_ELAPSED:46.448324
;LAYER:1
M140 S50
M106 S85
;TYPE:WALL-INNER
;MESH:LED_spacer_r2.stl
G1 F1350 X110.855 Y113.42 E15.0339
G1 X124.145 Y113.42 E15.29912
G1 X124.145 Y121.58 E15.46196
G1 X110.855 Y121.58 E15.72717
G0 F7500 X110.455 Y121.98
G1 F1350 X110.455 Y113.02 E15.90598
G1 X124.545 Y113.02 E16.18716
G1 X124.545 Y121.98 E16.36597
G1 X110.455 Y121.98 E16.64715
G0 F7500 X110.055 Y122.38
;TYPE:WALL-OUTER
G1 F1350 X110.055 Y112.62 E16.84192
G1 X124.945 Y112.62 E17.13907
G1 X124.945 Y122.38 E17.33384
G1 X110.055 Y122.38 E17.63098
G0 F7500 X110.325 Y122.11
G0 X110.965 Y121.19
G0 X111.245 Y121.19
;TYPE:SKIN
G1 F1350 X111.245 Y113.81 E17.77826
G1 X123.755 Y113.81 E18.02791
G1 X123.755 Y121.19 E18.17519
G1 X111.245 Y121.19 E18.42484
G0 F7500 X110.965 Y121.19
G0 X110.965 Y114.303
G0 X111.405 Y114.303
G1 F1350 X111.739 Y113.969 E18.43426
G0 F7500 X112.304 Y113.969
G1 F1350 X111.405 Y114.868 E18.45964
G0 F7500 X111.405 Y115.434
G1 F1350 X112.87 Y113.969 E18.50098
G0 F7500 X113.436 Y113.969
G1 F1350 X111.405 Y116 E18.5583
G0 F7500 X111.405 Y116.565
G1 F1350 X114.001 Y113.969 E18.63156
G0 F7500 X114.567 Y113.969
G1 F1350 X111.405 Y117.131 E18.7208
G0 F7500 X111.405 Y117.697
G1 F1350 X115.133 Y113.969 E18.82602
G0 F7500 X115.698 Y113.969
G1 F1350 X111.405 Y118.262 E18.94717
G0 F7500 X111.405 Y118.828
G1 F1350 X116.264 Y113.969 E19.0843
G0 F7500 X116.83 Y113.969
G1 F1350 X111.405 Y119.394 E19.23741
G0 F7500 X111.405 Y119.959
G1 F1350 X117.395 Y113.969 E19.40646
G0 F7500 X117.961 Y113.969
G1 F1350 X111.405 Y120.525 E19.59149
G0 F7500 X111.466 Y121.029
G1 F1350 X118.527 Y113.969 E19.79075
G0 F7500 X119.093 Y113.969
G1 F1350 X112.032 Y121.029 E19.99001
G0 F7500 X112.598 Y121.029
G1 F1350 X119.658 Y113.969 E20.18926
G0 F7500 X120.224 Y113.969
G1 F1350 X113.163 Y121.029 E20.38852
G0 F7500 X113.729 Y121.029
G1 F1350 X120.79 Y113.969 E20.58778
G0 F7500 X121.355 Y113.969
G1 F1350 X114.295 Y121.029 E20.78703
G0 F7500 X114.861 Y121.029
G1 F1350 X121.921 Y113.969 E20.98628
G0 F7500 X122.487 Y113.969
G1 F1350 X115.426 Y121.029 E21.18554
G0 F7500 X115.992 Y121.029
G1 F1350 X123.052 Y113.969 E21.38479
G0 F7500 X123.593 Y113.994
G1 F1350 X116.558 Y121.029 E21.58333
G0 F7500 X117.123 Y121.029
G1 F1350 X123.593 Y114.559 E21.76593
G0 F7500 X123.593 Y115.125
G1 F1350 X117.689 Y121.029 E21.93256
G0 F7500 X118.255 Y121.029
G1 F1350 X123.593 Y115.691 E22.08321
G0 F7500 X123.593 Y116.256
G1 F1350 X118.82 Y121.029 E22.21791
G0 F7500 X119.386 Y121.029
G1 F1350 X123.593 Y116.822 E22.33664
G0 F7500 X123.593 Y117.388
G1 F1350 X119.952 Y121.029 E22.4394
G0 F7500 X120.517 Y121.029
G1 F1350 X123.593 Y117.953 E22.52621
G0 F7500 X123.593 Y118.519
G1 F1350 X121.083 Y121.029 E22.59705
G0 F7500 X121.649 Y121.029
G1 F1350 X123.593 Y119.085 E22.65191
G0 F7500 X123.593 Y119.65
G1 F1350 X122.214 Y121.029 E22.69083
G0 F7500 X122.78 Y121.029
G1 F1350 X123.593 Y120.216 E22.71377
G0 F7500 X123.593 Y120.782
G1 F1350 X123.346 Y121.029 E22.72074
G0 F7500 X123.346 Y121.77
;MESH:NONMESH
G0 F300 X123.346 Y121.77 Z0.36
G0 F7500 X110.855 Y121.58
;TIME_ELAPSED:67.677046
;LAYER:2
M106 S170
;TYPE:WALL-INNER
;MESH:LED_spacer_r2.stl
G1 F1500 X110.855 Y113.42 E22.88359
G1 X124.145 Y113.42 E23.1488
G1 X124.145 Y121.58 E23.31164
G1 X110.855 Y121.58 E23.57686
G0 F9000 X110.455 Y121.98
G1 F1500 X110.455 Y113.02 E23.75567
G1 X124.545 Y113.02 E24.03685
G1 X124.545 Y121.98 E24.21565
G1 X110.455 Y121.98 E24.49684
G0 F9000 X110.055 Y122.38
;TYPE:WALL-OUTER
G1 F1500 X110.055 Y112.62 E24.69161
G1 X124.945 Y112.62 E24.98875
G1 X124.945 Y122.38 E25.18352
G1 X110.055 Y122.38 E25.48067
G0 F9000 X110.325 Y122.11
G0 X110.965 Y121.19
G0 X111.245 Y121.19
;TYPE:SKIN
G1 F1500 X111.245 Y113.81 E25.62795
G1 X123.755 Y113.81 E25.8776
G1 X123.755 Y121.19 E26.02487
G1 X111.245 Y121.19 E26.27452
G0 F9000 X111.978 Y121.029
G1 F1500 X111.405 Y120.456 E26.29069
G0 F9000 X111.405 Y119.89
G1 F1500 X112.543 Y121.029 E26.32283
G0 F9000 X113.109 Y121.029
G1 F1500 X111.405 Y119.324 E26.37093
G0 F9000 X111.405 Y118.759
G1 F1500 X113.675 Y121.029 E26.43499
G0 F9000 X114.24 Y121.029
G1 F1500 X111.405 Y118.193 E26.51502
G0 F9000 X111.405 Y117.627
G1 F1500 X114.806 Y121.029 E26.61102
G0 F9000 X115.372 Y121.029
G1 F1500 X111.405 Y117.062 E26.72297
G0 F9000 X111.405 Y116.496
G1 F1500 X115.937 Y121.029 E26.85089
G0 F9000 X116.503 Y121.029
G1 F1500 X111.405 Y115.93 E26.99478
G0 F9000 X111.405 Y115.365
G1 F1500 X117.069 Y121.029 E27.15463
G0 F9000 X117.634 Y121.029
G1 F1500 X111.405 Y114.799 E27.33044
G0 F9000 X111.405 Y114.233
G1 F1500 X118.2 Y121.029 E27.52222
G0 F9000 X118.766 Y121.029
G1 F1500 X111.707 Y113.97 E27.72145
G0 F9000 X112.273 Y113.97
G1 F1500 X119.332 Y121.029 E27.92067
G0 F9000 X119.897 Y121.029
