;FLAVOR:Marlin
;TIME:21304
;Filament used: 14.1364m
;Layer height: 0.2
;MINX:27.51
;MINY:46.964
;MINZ:0.2
;MAXX:207.5
;MAXY:188.036
;MAXZ:49
;Generated with Cura_SteamEngine 4.6.2
M140 S50
M105
M190 S50
M104 S200
M105
M109 S200
M82 ;absolute extrusion mode
; Ender 3 Custom Start G-code
G92 E0 ; Reset Extruder
G28 ; Home all axes
G1 Z2.0 F3000 ; Move Z Axis up little to prevent scratching of Heat Bed
G1 X0.1 Y20 Z0.3 F5000.0 ; Move to start position
G1 X0.1 Y200.0 Z0.3 F1500.0 E15 ; Draw the first line
G1 X0.4 Y200.0 Z0.3 F5000.0 ; Move to side a little
G1 X0.4 Y20 Z0.3 F1500.0 E30 ; Draw the second line
G92 E0 ; Reset Extruder
G1 Z2.0 F3000 ; Move Z Axis up little to prevent scratching of Heat Bed
G1 X5 Y20 Z0.3 F5000.0 ; Move over to prevent blob squish
G92 E0
G92 E0
G1 F2700 E-5
;LAYER_COUNT:245
;LAYER:0
M107
G0 F6000 X112.363 Y47.775 Z0.2
;TYPE:SKIRT
G1 F2700 E0
G1 F1200 X113.265 Y47.828 E0.03005
G1 X114.158 Y47.96 E0.06008
G1 X115.036 Y48.171 E0.09011
G1 X115.892 Y48.459 E0.12015
G1 X116.719 Y48.821 E0.15018
G1 X117.511 Y49.256 E0.18023
G1 X118.262 Y49.758 E0.21027
G1 X118.965 Y50.325 E0.24031
G1 X119.615 Y50.952 E0.27035
G1 X120.416 Y51.906 E0.31178
G1 X122.239 Y54.369 E0.4137
G1 X123.812 Y56.371 E0.49838
G1 X125.416 Y58.297 E0.58175
G1 X127.099 Y60.206 E0.66639
G1 X128.85 Y62.082 E0.75174
G1 X130.629 Y63.884 E0.83597
G1 X132.448 Y65.624 E0.91969
G1 X134.36 Y67.353 E1.00543
G1 X136.266 Y68.98 E1.08878
G1 X138.256 Y70.585 E1.17381
G1 X140.264 Y72.112 E1.25771
G1 X142.351 Y73.608 E1.34312
G1 X144.457 Y75.029 E1.42762
G1 X146.592 Y76.385 E1.51174
G1 X146.944 Y76.601 E1.52548
G1 X147.517 Y76.98 E1.54833
G1 X149.712 Y78.463 E1.63643
G1 X151.861 Y79.828 E1.72111
G1 X154.028 Y81.118 E1.80499
G1 X156.273 Y82.372 E1.89052
G1 X158.507 Y83.537 E1.97431
G1 X160.793 Y84.649 E2.05887
G1 X163.094 Y85.689 E2.14285
G1 X165.489 Y86.692 E2.22921
G1 X167.796 Y87.578 E2.31141
G1 X170.218 Y88.433 E2.39684
G1 X172.64 Y89.212 E2.48146
G1 X175.06 Y89.916 E2.56528
G1 X177.558 Y90.566 E2.65113
G1 X180.025 Y91.135 E2.73534
G1 X182.49 Y91.628 E2.81895
G1 X184.984 Y92.055 E2.90311
G1 X187.511 Y92.415 E2.988
G1 X190.044 Y92.703 E3.0728
G1 X192.549 Y92.916 E3.15641
G1 X195.113 Y93.061 E3.24183
G1 X195.925 Y93.085 E3.26885
G1 X196.915 Y93.127 E3.3018
G1 X197.815 Y93.205 E3.33185
G1 X198.704 Y93.363 E3.36188
G1 X199.576 Y93.598 E3.39192
G1 X200.424 Y93.91 E3.42197
G1 X201.241 Y94.295 E3.45201
G1 X202.02 Y94.752 E3.48205
G1 X202.756 Y95.275 E3.51208
G1 X203.443 Y95.861 E3.54211
G1 X204.075 Y96.506 E3.57215
G1 X204.648 Y97.204 E3.60219
G1 X205.157 Y97.951 E3.63225
G1 X205.597 Y98.739 E3.66227
G1 X205.967 Y99.563 E3.69231
G1 X206.262 Y100.417 E3.72236
G1 X206.48 Y101.293 E3.75239
G1 X206.62 Y102.185 E3.78242
G1 X206.669 Y102.779 E3.80224
G1 X206.686 Y103.1 E3.81293
G1 X206.7 Y103.639 E3.83087
G1 X206.7 Y176.3 E6.24758
G1 X206.69 Y177.153 E6.27595
G1 X206.639 Y178.055 E6.306
G1 X206.508 Y178.949 E6.33605
G1 X206.299 Y179.827 E6.36607
G1 X206.013 Y180.684 E6.39612
G1 X205.652 Y181.512 E6.42616
G1 X205.22 Y182.304 E6.45617
G1 X204.719 Y183.056 E6.48622
G1 X204.153 Y183.76 E6.51627
G1 X203.528 Y184.411 E6.54629
G1 X202.847 Y185.005 E6.57634
G1 X202.116 Y185.536 E6.60639
G1 X201.342 Y186 E6.63641
G1 X200.529 Y186.394 E6.66645
G1 X199.685 Y186.714 E6.69648
G1 X198.815 Y186.959 E6.72654
G1 X197.928 Y187.125 E6.75655
G1 X196.777 Y187.223 E6.79497
G1 X196.17 Y187.236 E6.81517
G1 X39.924 Y187.236 E12.01193
G1 X39.094 Y187.226 E12.03954
G1 X38.193 Y187.175 E12.06955
G1 X37.299 Y187.043 E12.09961
G1 X36.421 Y186.834 E12.12963
G1 X35.564 Y186.547 E12.15969
G1 X34.737 Y186.186 E12.1897
G1 X33.944 Y185.753 E12.21975
G1 X33.193 Y185.252 E12.24978
G1 X32.489 Y184.686 E12.27982
G1 X31.838 Y184.06 E12.30986
G1 X31.245 Y183.379 E12.33989
G1 X30.715 Y182.648 E12.36993
G1 X30.251 Y181.873 E12.39997
G1 X29.857 Y181.06 E12.43002
G1 X29.537 Y180.216 E12.46004
G1 X29.293 Y179.346 E12.49009
G1 X29.127 Y178.458 E12.52014
G1 X29.03 Y177.303 E12.55869
G1 X29.017 Y176.694 E12.57895
G1 X29.017 Y103.983 E14.99733
G1 X29.018 Y103.816 E15.00288
G1 X29.054 Y101.621 E15.0759
G1 X29.054 Y99.028 E15.16214
G1 X29.021 Y97.385 E15.2168
G1 X29.018 Y85.853 E15.60035
G1 X29.038 Y84.48 E15.64603
G1 X29.086 Y82.774 E15.70279
G1 X29.086 Y80.228 E15.78747
G1 X29.033 Y78.069 E15.8593
G1 X29.021 Y76.98 E15.89552
G1 X29.028 Y75.836 E15.93357
G1 X28.971 Y73.256 E16.01941
G1 X28.848 Y70.777 E16.10196
G1 X28.644 Y68.19 E16.18827
G1 X28.371 Y65.635 E16.27373
G1 X28.315 Y64.368 E16.31591
G1 X28.337 Y63.137 E16.35686
G1 X28.355 Y60.464 E16.44577
G1 X28.312 Y58.411 E16.51407
G1 X28.31 Y58.035 E16.52657
G1 X28.345 Y57.133 E16.5566
G1 X28.46 Y56.237 E16.58664
G1 X28.654 Y55.355 E16.61668
G1 X28.925 Y54.493 E16.64673
G1 X29.271 Y53.659 E16.67677
G1 X29.689 Y52.859 E16.70679
G1 X30.177 Y52.099 E16.73683
G1 X30.73 Y51.385 E16.76686
G1 X31.344 Y50.722 E16.79692
G1 X32.014 Y50.117 E16.82694
G1 X32.735 Y49.573 E16.85699
G1 X33.501 Y49.095 E16.88702
G1 X34.307 Y48.687 E16.91706
G1 X35.145 Y48.352 E16.94708
G1 X36.01 Y48.092 E16.97712
G1 X36.895 Y47.91 E17.00717
G1 X37.792 Y47.806 E17.03721
G1 X38.322 Y47.783 E17.05485
G1 X39.43 Y47.764 E17.09171
G1 X111.519 Y47.764 E19.4894
G1 X111.665 Y47.765 E19.49425
G1 X112.363 Y47.775 E19.51747
G0 F6000 X112.369 Y47.375
G1 F1200 X113.288 Y47.428 E19.54809
G1 X114.199 Y47.561 E19.57871
G1 X115.095 Y47.772 E19.60933
G1 X115.969 Y48.06 E19.63993
G1 X116.816 Y48.423 E19.67058
G1 X117.627 Y48.858 E19.70119
G1 X118.397 Y49.362 E19.7318
G1 X119.121 Y49.931 E19.76243
G1 X119.793 Y50.561 E19.79306
G1 X120.408 Y51.246 E19.82368
G1 X120.737 Y51.668 E19.84148
G1 X122.559 Y54.129 E19.94332
G1 X124.117 Y56.114 E20.02725
G1 X125.719 Y58.037 E20.1105
G1 X127.409 Y59.952 E20.19545
G1 X129.127 Y61.794 E20.27922
G1 X130.89 Y63.58 E20.36269
G1 X132.747 Y65.356 E20.44816
G1 X134.585 Y67.018 E20.53058
G1 X136.552 Y68.698 E20.61661
G1 X138.503 Y70.271 E20.69997
G1 X140.493 Y71.784 E20.78311
G1 X142.562 Y73.267 E20.86778
G1 X144.673 Y74.692 E20.95249
G1 X146.812 Y76.049 E21.03674
G1 X147.154 Y76.26 E21.05011
G1 X147.653 Y76.587 E21.06995
G1 X147.822 Y76.704 E21.07679
G1 X149.912 Y78.116 E21.16068
G1 X152.05 Y79.475 E21.24494
G1 X154.249 Y80.784 E21.33006
G1 X156.446 Y82.011 E21.41375
G1 X158.688 Y83.18 E21.49785
G1 X160.954 Y84.282 E21.58166
G1 X163.264 Y85.326 E21.66597
G1 X165.622 Y86.313 E21.75099
G1 X167.969 Y87.215 E21.83462
G1 X170.337 Y88.051 E21.91814
G1 X172.759 Y88.83 E22.00276
G1 X175.167 Y89.531 E22.08618
G1 X177.643 Y90.174 E22.17126
G1 X180.096 Y90.741 E22.255
G1 X182.558 Y91.233 E22.33851
G1 X185.072 Y91.664 E22.42334
G1 X187.581 Y92.021 E22.50763
G1 X190.051 Y92.301 E22.59031
G1 X192.607 Y92.519 E22.67563
G1 X195.111 Y92.661 E22.75905
G1 X195.942 Y92.686 E22.7867
G1 X196.932 Y92.728 E22.81966
G1 X197.85 Y92.806 E22.8503
G1 X198.757 Y92.965 E22.88093
G1 X199.646 Y93.201 E22.91152
G1 X200.512 Y93.514 E22.94215
G1 X201.348 Y93.9 E22.97277
G1 X202.147 Y94.358 E23.00341
G1 X202.903 Y94.883 E23.03402
G1 X203.61 Y95.472 E23.06462
G1 X204.264 Y96.12 E23.09525
G1 X204.86 Y96.822 E23.12587
G1 X205.392 Y97.574 E23.15651
G1 X205.856 Y98.368 E23.1871
G1 X206.251 Y99.201 E23.21776
G1 X206.571 Y100.064 E23.24838
G1 X206.815 Y100.951 E23.27897
G1 X206.982 Y101.857 E23.30961
G1 X207.068 Y102.757 E23.33968
G1 X207.085 Y103.078 E23.35038
G1 X207.1 Y103.639 E23.36904
G1 X207.1 Y176.3 E25.78576
G1 X207.09 Y177.158 E25.8143
G1 X207.039 Y178.077 E25.84491
G1 X206.908 Y178.989 E25.87555
G1 X206.698 Y179.885 E25.90616
G1 X206.412 Y180.76 E25.93678
G1 X206.051 Y181.607 E25.9674
G1 X205.617 Y182.419 E25.99803
G1 X205.115 Y183.191 E26.02865
G1 X204.547 Y183.916 E26.05929
G1 X203.919 Y184.589 E26.0899
G1 X203.235 Y185.205 E26.12052
G1 X202.5 Y185.759 E26.15113
G1 X201.72 Y186.248 E26.18175
G1 X200.9 Y186.667 E26.21238
G1 X200.047 Y187.013 E26.24299
G1 X199.167 Y187.284 E26.27362
G1 X198.267 Y187.477 E26.30423
G1 X197.353 Y187.592 E26.33487
G1 X196.788 Y187.623 E26.35369
G1 X196.17 Y187.636 E26.37425
G1 X39.924 Y187.636 E31.57102
G1 X39.089 Y187.626 E31.59879
G1 X38.17 Y187.574 E31.62941
G1 X37.259 Y187.443 E31.66002
G1 X36.363 Y187.233 E31.69063
G1 X35.488 Y186.946 E31.72125
G1 X34.641 Y186.584 E31.75189
G1 X33.829 Y186.15 E31.78251
G1 X33.058 Y185.648 E31.81311
G1 X32.333 Y185.08 E31.84375
G1 X31.66 Y184.451 E31.87438
G1 X31.045 Y183.767 E31.90498
G1 X30.491 Y183.032 E31.93559
G1 X30.003 Y182.251 E31.96622
G1 X29.584 Y181.431 E31.99685
G1 X29.238 Y180.578 E32.02746
G1 X28.968 Y179.698 E32.05808
G1 X28.775 Y178.797 E32.08873
G1 X28.661 Y177.884 E32.11933
G1 X28.63 Y177.313 E32.13835
G1 X28.617 Y176.694 E32.15894
G1 X28.617 Y103.983 E34.57732
G1 X28.618 Y103.809 E34.58311
G1 X28.654 Y101.614 E34.65612
G1 X28.654 Y98.991 E34.74336
G1 X28.621 Y97.385 E34.79679
G1 X28.618 Y85.847 E35.18055
G1 X28.638 Y84.469 E35.22638
G1 X28.686 Y82.763 E35.28315
G1 X28.686 Y80.239 E35.3671
G1 X28.633 Y78.073 E35.43916
G1 X28.621 Y76.978 E35.47558
G1 X28.628 Y75.806 E35.51456
G1 X28.574 Y73.322 E35.5972
G1 X28.446 Y70.758 E35.68259
G1 X28.249 Y68.263 E35.76583
G1 X27.973 Y65.677 E35.85233
G1 X27.915 Y64.361 E35.89614
G1 X27.937 Y63.127 E35.93719
G1 X27.955 Y60.435 E36.02673
G1 X27.912 Y58.413 E36.094
G1 X27.91 Y58.037 E36.1065
G1 X27.945 Y57.117 E36.13712
G1 X28.06 Y56.204 E36.16773
G1 X28.254 Y55.304 E36.19835
G1 X28.525 Y54.424 E36.22898
G1 X28.871 Y53.571 E36.25959
G1 X29.29 Y52.751 E36.29022
G1 X29.779 Y51.971 E36.32084
G1 X30.333 Y51.236 E36.35145
G1 X30.949 Y50.552 E36.38207
G1 X31.622 Y49.924 E36.41268
G1 X32.347 Y49.356 E36.44332
G1 X33.119 Y48.854 E36.47394
G1 X33.931 Y48.421 E36.50455
G1 X34.778 Y48.06 E36.53518
G1 X35.653 Y47.773 E36.5658
G1 X36.55 Y47.564 E36.59644
G1 X37.461 Y47.433 E36.62705
G1 X38.314 Y47.383 E36.65547
G1 X39.43 Y47.364 E36.69259
G1 X111.519 Y47.364 E39.09028
G1 X111.671 Y47.365 E39.09534
G1 X112.369 Y47.375 E39.11856
G0 F6000 X112.375 Y46.975
G1 F1200 X113.311 Y47.029 E39.14974
G1 X114.239 Y47.161 E39.18091
G1 X115.153 Y47.373 E39.21212
G1 X116.045 Y47.662 E39.24331
G1 X116.91 Y48.025 E39.27451
G1 X117.74 Y48.461 E39.30569
G1 X118.531 Y48.966 E39.3369
G1 X119.275 Y49.537 E39.3681
G1 X119.968 Y50.169 E39.39929
G1 X120.605 Y50.857 E39.43048
G1 X121.059 Y51.43 E39.45479
G1 X122.88 Y53.89 E39.55659
G1 X124.424 Y55.857 E39.63976
G1 X126.031 Y57.785 E39.72324
G1 X127.701 Y59.678 E39.8072
G1 X129.422 Y61.523 E39.89112
G1 X131.186 Y63.31 E39.97463
G1 X132.991 Y65.037 E40.05772
G1 X134.867 Y66.733 E40.14184
G1 X136.796 Y68.381 E40.22622
G1 X138.751 Y69.957 E40.30974
G1 X140.746 Y71.473 E40.39308
G1 X142.797 Y72.943 E40.47701
G1 X144.881 Y74.35 E40.56064
G1 X147.363 Y75.92 E40.65832
G1 X147.882 Y76.259 E40.67894
G1 X148.021 Y76.356 E40.68458
G1 X150.145 Y77.79 E40.76982
G1 X152.287 Y79.152 E40.85424
G1 X154.426 Y80.425 E40.93703
G1 X156.62 Y81.65 E41.02061
G1 X158.869 Y82.823 E41.10497
G1 X161.158 Y83.936 E41.18963
G1 X163.404 Y84.951 E41.2716
G1 X165.782 Y85.947 E41.35735
G1 X168.097 Y86.836 E41.43983
G1 X170.445 Y87.665 E41.52265
G1 X172.898 Y88.454 E41.60836
G1 X175.274 Y89.145 E41.69066
G1 X177.719 Y89.781 E41.77468
G1 X180.198 Y90.354 E41.85931
G1 X182.632 Y90.84 E41.94186
G1 X185.124 Y91.267 E42.02595
G1 X187.611 Y91.621 E42.10951
G1 X190.129 Y91.907 E42.19379
G1 X192.627 Y92.12 E42.27718
G1 X195.111 Y92.261 E42.35993
G1 X195.959 Y92.286 E42.38815
G1 X196.949 Y92.328 E42.4211
G1 X197.884 Y92.408 E42.45232
G1 X198.808 Y92.567 E42.4835
G1 X199.715 Y92.804 E42.51468
G1 X200.599 Y93.117 E42.54587
G1 X201.453 Y93.505 E42.57707
G1 X202.271 Y93.964 E42.60827
G1 X203.047 Y94.491 E42.63947
G1 X203.775 Y95.082 E42.67065
G1 X204.45 Y95.733 E42.70184
G1 X205.067 Y96.44 E42.73305
G1 X205.622 Y97.196 E42.76425
G1 X206.11 Y97.997 E42.79544
G1 X206.528 Y98.836 E42.82662
G1 X206.874 Y99.708 E42.85782
G1 X207.143 Y100.606 E42.889
G1 X207.336 Y101.524 E42.9202
G1 X207.468 Y102.736 E42.96075
G1 X207.485 Y103.057 E42.97144
G1 X207.5 Y103.639 E42.99081
G1 X207.5 Y176.3 E45.40752
G1 X207.49 Y177.163 E45.43623
G1 X207.439 Y178.1 E45.46744
G1 X207.307 Y179.028 E45.49861
G1 X207.098 Y179.942 E45.5298
G1 X206.811 Y180.835 E45.561
G1 X206.449 Y181.701 E45.59221
G1 X206.015 Y182.532 E45.6234
G1 X205.511 Y183.323 E45.65459
G1 X204.942 Y184.068 E45.68577
G1 X204.311 Y184.763 E45.71699
G1 X203.624 Y185.401 E45.74818
G1 X202.885 Y185.978 E45.77936
G1 X202.099 Y186.49 E45.81056
G1 X201.273 Y186.933 E45.84173
G1 X200.411 Y187.305 E45.87296
G1 X199.522 Y187.601 E45.90412
G1 X198.61 Y187.821 E45.93533
G1 X197.683 Y187.962 E45.96651
G1 X196.799 Y188.023 E45.99599
G1 X196.17 Y188.036 E46.01691
G1 X39.924 Y188.036 E51.21367
G1 X39.084 Y188.026 E51.24161
G1 X38.148 Y187.974 E51.27279
G1 X37.219 Y187.842 E51.304
G1 X36.305 Y187.632 E51.33519
G1 X35.412 Y187.345 E51.36639
G1 X34.547 Y186.982 E51.39759
G1 X33.716 Y186.548 E51.42877
G1 X32.925 Y186.044 E51.45997
G1 X32.18 Y185.474 E51.49117
G1 X31.486 Y184.843 E51.52237
G1 X30.849 Y184.156 E51.55353
G1 X30.272 Y183.416 E51.58474
G1 X29.76 Y182.63 E51.61594
G1 X29.317 Y181.803 E51.64714
G1 X28.946 Y180.942 E51.67832
G1 X28.65 Y180.052 E51.70952
G1 X28.431 Y179.14 E51.74071
G1 X28.29 Y178.213 E51.7719
G1 X28.23 Y177.324 E51.80154
G1 X28.217 Y176.694 E51.8225
G1 X28.217 Y103.983 E54.24087
G1 X28.218 Y103.803 E54.24686
G1 X28.254 Y101.608 E54.31988
G1 X28.254 Y98.999 E54.40665
G1 X28.221 Y97.385 E54.46034
G1 X28.218 Y85.842 E54.84427
G1 X28.238 Y84.458 E54.8903
G1 X28.286 Y82.752 E54.94707
G1 X28.286 Y80.249 E55.03032
G1 X28.233 Y78.078 E55.10255
G1 X28.221 Y76.975 E55.13923
G1 X28.228 Y75.812 E55.17792
G1 X28.173 Y73.314 E55.26102
G1 X28.048 Y70.81 E55.34441
G1 X27.851 Y68.301 E55.42811
G1 X27.575 Y65.72 E55.51445
G1 X27.515 Y64.354 E55.55993
G1 X27.537 Y63.118 E55.60104
G1 X27.555 Y60.441 E55.69008
G1 X27.512 Y58.416 E55.75745
G1 X27.51 Y58.04 E55.76995
G1 X27.545 Y57.102 E55.80117
G1 X27.66 Y56.171 E55.83237
G1 X27.853 Y55.254 E55.86354
G1 X28.124 Y54.356 E55.89474
G1 X28.471 Y53.484 E55.92595
G1 X28.891 Y52.646 E55.95713
G1 X29.38 Y51.846 E55.98832
G1 X29.936 Y51.09 E56.01953
G1 X30.554 Y50.385 E56.05071
G1 X31.23 Y49.735 E56.0819
G1 X31.959 Y49.145 E56.1131
G1 X32.735 Y48.619 E56.14428
G1 X33.554 Y48.161 E56.17549
G1 X34.408 Y47.774 E56.20667
G1 X35.293 Y47.462 E56.23788
G1 X36.201 Y47.226 E56.26909
G1 X37.125 Y47.069 E56.30026
G1 X38.307 Y46.983 E56.33968
G1 X39.43 Y46.964 E56.37703
G1 X111.519 Y46.964 E58.77472
G1 X111.677 Y46.965 E58.77998
G1 X112.375 Y46.975 E58.8032
G1 F2700 E53.8032
;MESH:abel-table-scale-model.stl
G0 F6000 X142.268 Y84.634
G0 X142.268 Y98.228
G0 X112.375 Y102.644
G0 X112.375 Y103.729
G0 X39.999 Y104.091
G0 X39.817 Y176.436
;TYPE:WALL-INNER
G1 F2700 E58.8032
G1 F1200 X39.817 Y103.909 E61.21545
G1 X195.9 Y103.909 E66.40679
G1 X195.9 Y176.436 E68.81905
G1 X39.817 Y176.436 E74.01039
G0 F6000 X39.417 Y176.836
;TYPE:WALL-OUTER
G1 F1200 X39.417 Y103.509 E76.44926
G1 X196.3 Y103.509 E81.66721
G1 X196.3 Y176.836 E84.10608
G1 X39.417 Y176.836 E89.32403
G0 F6000 X39.687 Y176.566
G0 X39.927 Y176.046
G0 X40.207 Y176.046
;TYPE:SKIN
G1 F1200 X40.207 Y104.299 E91.71034
G1 X195.51 Y104.299 E96.87574
G1 X195.51 Y176.046 E99.26205
G1 X40.207 Y176.046 E104.42745
G0 F6000 X40.686 Y175.885
G1 F1200 X40.366 Y175.565 E104.4425
G0 F6000 X40.366 Y174.999
G1 F1200 X41.251 Y175.885 E104.48416
G0 F6000 X41.817 Y175.885
G1 F1200 X40.366 Y174.434 E104.55241
G0 F6000 X40.366 Y173.868
G1 F1200 X42.383 Y175.885 E104.64728
G0 F6000 X42.948 Y175.885
G1 F1200 X40.366 Y173.302 E104.76875
G0 F6000 X40.366 Y172.736
G1 F1200 X43.514 Y175.885 E104.91685
G0 F6000 X44.08 Y175.885
G1 F1200 X40.366 Y172.171 E105.09154
G0 F6000 X40.366 Y171.605
G1 F1200 X44.646 Y175.885 E105.29286
G0 F6000 X45.211 Y175.885
G1 F1200 X40.366 Y171.039 E105.52078
G0 F6000 X40.366 Y170.474
G1 F1200 X45.777 Y175.885 E105.7753
G0 F6000 X46.343 Y175.885
G1 F1200 X40.366 Y169.908 E106.05644
G0 F6000 X40.366 Y169.342
G1 F1200 X46.908 Y175.885 E106.36417
G0 F6000 X47.474 Y175.885
G1 F1200 X40.366 Y168.777 E106.69851
G0 F6000 X40.366 Y168.211
G1 F1200 X48.04 Y175.885 E107.05947
G0 F6000 X48.605 Y175.885
